public/sampleLut/0.cube
TITLE "Generated by Resolve"
LUT_3D_SIZE 33
0 0.0312047 0.0148165
0 0.021088 0.00497444
0 0.0176089 0.00154116
0 0.0150454 0
0.0224002 0.0128939 0
0.0463264 0.0108797 0
0.0713054 0.00840772 0
0.0985428 0.00535592 0
0.130282 0.00117494 0
0.169986 0 0
0.227771 0 0
0.298222 0 0
0.369421 0 0
0.435325 0 0
0.493812 0 0
0.539193 0 0
0.594217 0 0
0.651316 0 0
0.711513 0 0
0.754299 0 0
0.782284 0 0
0.803372 0 0
0.820859 0 0
0.835248 0 0
0.847105 0 0
0.858152 0 0
0.86627 0 0
0.873625 0 0
0.880385 0 0
0.886793 0 0
0.892958 0 0
0.899199 0 0
0.905745 0 0
0 0.0531014 0
0 0.0441596 0
0 0.0360418 0
0 0.0317845 0
0.0128786 0.0286107 0
0.0383001 0.0257725 0
0.0644541 0.0242466 0
0.0927901 0.0209354 0
0.125399 0.0164645 0
0.165774 0.00991836 0
0.223667 0.000366217 0
0.294835 0 0
0.36669 0 0
0.433387 0 0
0.492714 0 0
0.538506 0 0
0.593637 0 0
0.650813 0 0
0.711192 0 0
0.754177 0 0
0.782467 0 0
0.803769 0 0
0.821317 0 0
0.835859 0 0
0.84799 0 0
0.859434 0 0
0.867842 0 0
0.875349 0 0
0.882353 0 0
0.889174 0 0
0.895933 0 0
0.902617 0 0
0.909499 0 0
0 0.0699168 0
0 0.0648661 0
0 0.0572824 0
0 0.0510262 0
0 0.0466163 0
0.0276188 0.0430152 0
0.0556802 0.0394141 0
0.0852979 0.0355077 0
0.119081 0.0306249 0
0.160708 0.0237888 0
0.218921 0.0155032 0
0.290761 0.00392157 0
0.3635 0 0
0.431296 0 0
0.4916 0 0
0.537789 0 0
0.593027 0 0
0.650507 0 0
0.711192 0 0
0.754421 0 0
0.782834 0 0
0.80441 0 0
0.822293 0 0
0.837232 0 0
0.849592 0 0
0.861234 0 0
0.870054 0 0
0.878111 0 0
0.885695 0 0
0.892866 0 0
0.900099 0 0
0.907668 0 0
0.915648 0 0
0 0.0857252 0
0 0.082002 0
0 0.0765545 0
0 0.0702678 0
0 0.0650797 0
0.0149386 0.0606088 0
0.0453193 0.0563668 0
0.076936 0.0520638 0
0.112322 0.0468299 0
0.155474 0.0395972 0
0.213993 0.0295262 0
0.286778 0.0192111 0
0.360708 0.00753796 0
0.429725 0 0
0.490822 0 0
0.537438 0 0
0.592889 0 0
0.650797 0 0
0.711833 0 0
0.755398 0 0
0.784085 0 0
0.80592 0 0
0.824277 0 0
0.839597 0 0
0.852461 0 0
0.86453 0 0
0.873777 0 0
0.882643 0 0
0.891096 0 0
0.899351 0 0
0.907423 0 0
0.915755 0 0
0.925048 0 0
0 0.101061 0
0 0.0981155 0
0 0.0939956 0
0 0.0886244 0
0 0.0834211 0
0.00144961 0.0786297 0
0.0341192 0.0740673 0
0.0675975 0.0691997 0
0.104784 0.0635538 0
0.149859 0.0560159 0
0.209277 0.0458534 0
0.28333 0.0340124 0
0.35819 0.0221714 0
0.428412 0.0107271 0
0.49041 0 0
0.537682 0 0
0.593606 0 0
0.651774 0 0
0.713161 0 0
0.757153 0 0
0.786526 0 0
0.808896 0 0
0.827527 0 0
0.843336 0 0
0.858351 0 0
0.870314 0 0
0.880598 0 0
0.890089 0 0
0.899382 0 0
0.908904 0 0
0.918868 0 0
0.928923 0 0
0.939132 0 0
0 0.116732 0
0 0.11426 0
0 0.110918 0
0 0.106828 0
0 0.101991 0
0 0.0973373 0
0.0214542 0.0925917 0
0.0569009 0.087541 0
0.0960708 0.08159 0
0.14345 0.0738384 0
0.203677 0.0633249 0
0.279255 0.0514229 0
0.355718 0.0397192 0
0.42739 0.0269932 0
0.490349 0.0147555 0
0.538033 9.15541e-05 0
0.594598 0 0
0.653452 0 0
0.715434 0 0
0.760037 0 0
0.789868 0 0
0.813153 0 0
0.832914 0 0
0.849668 0 0
0.865644 0 0
0.878416 0 0
0.890166 0 0
0.901427 0 0
0.912169 0 0
0.922911 0 0
0.933715 0 0
0.9449 0 0
0.956512 0.000900282 0
0 0.133013 0
0 0.130983 0
0 0.12845 0
0 0.125338 0
0 0.121233 0
0 0.11696 0
0.00738537 0.112383 0
0.0444648 0.107515 0
0.0856947 0.101534 0
0.135393 0.0935225 0
0.196902 0.0828107 0
0.274159 0.0707713 0
0.352682 0.0593118 0
0.426276 0.0469062 0
0.490394 0.0335851 0
0.538705 0.0192721 0
0.596017 0.00543221 0
0.655909 0 0
0.71902 0 0
0.764645 0 0
0.795377 0 0
0.819455 0 0
0.840604 0 0
0.860395 0 0
0.876539 0 0
0.890562 0 0
0.903243 0 0
0.915679 0 0
0.927901 0.00451667 0
0.939788 0.0138857 0
0.951431 0.0219577 0
0.963104 0.0315709 0
0.974975 0.0412451 0
0 0.150668 0
0 0.149203 0
0 0.147158 0
0 0.144747 0
0 0.141878 0
0 0.138216 0
0 0.134279 0
0.029984 0.129564 0
0.0727245 0.123705 0
0.124788 0.115724 0
0.188418 0.105226 0
0.26804 0.0933242 0
0.348562 0.0818189 0
0.424536 0.069749 0
0.490501 0.0572061 0
0.540169 0.0441596 0
0.599039 0.0301366 0
0.659754 0.0160678 0
0.723934 0.00299077 0
0.770993 0 0
0.80351 0 0
0.82948 0 0
0.85153 7.62951e-05 0
0.872221 0.00502022 0
0.889494 0.0115969 0
0.904921 0.0180362 0
0.919051 0.026978 0
0.932189 0.0361486 0
0.944671 0.0455482 0
0.956786 0.0552224 0
0.968719 0.0650645 0
0.980621 0.0749828 0
0.993118 0.0854658 0
0 0.170581 0
0 0.169589 0
0 0.168292 0
0 0.16669 0
0 0.164889 0
0 0.16199 0
0 0.158816 0
0.0123445 0.154986 0
0.0561379 0.149676 0
0.110399 0.142123 0
0.176364 0.131731 0
0.258549 0.120363 0
0.342977 0.109758 0
0.422507 0.0984207 0
0.490669 0.0866865 0
0.541665 0.0747082 0
0.602518 0.0622873 0
0.665293 0.050309 0
0.73109 0.0374304 0
0.779293 0.0314488 0
0.813077 0.0318608 0
0.840085 0.0351568 0
0.864942 0.040238 0
0.885374 0.04654 0
0.903243 0.0538643 0
0.919326 0.0625162 0
0.933486 0.0714885 0
0.946792 0.0808728 0
0.959487 0.090547 0
0.971984 0.100679 0
0.984878 0.111742 0
0.997864 0.123049 0
1 0.134447 0
0 0.194385 0
0 0.193927 0
0 0.19353 0
0 0.192935 0
0 0.192126 0
0 0.190707 0
0 0.188205 0
0 0.185748 0
0.0333867 0.18204 0
0.0895552 0.175647 0
0.158801 0.165881 0
0.242008 0.15494 0
0.331304 0.145357 0
0.417365 0.135714 0
0.48957 0.125521 0
0.542473 0.114641 0
0.604852 0.10309 0
0.669078 0.092195 0
0.736919 0.0812848 0
0.786603 0.0768444 0
0.821149 0.0780041 0
0.848676 0.0818494 0
0.873823 0.0872053 0
0.894697 0.0940108 0
0.913039 0.101854 0
0.929076 0.11043 0
0.943709 0.119966 0
0.957839 0.130388 0
0.971603 0.141421 0
0.985321 0.153094 0
0.998749 0.164828 0
1 0.176852 0
1 0.189334 0
0 0.223697 0
0 0.224186 0
0 0.224399 0
0 0.224811 0
0 0.225467 0
0 0.22594 0
0 0.225879 0
0 0.224216 0
0.0027924 0.222019 0
0.0603647 0.217777 0
0.133608 0.210254 0
0.217639 0.201114 0
0.311254 0.192187 0
0.404471 0.182864 0
0.482612 0.17348 0
0.539315 0.163897 0
0.603159 0.153475 0
0.669078 0.143557 0
0.737484 0.132403 0
0.787732 0.128115 0
0.822705 0.129534 0
0.850584 0.133593 0
0.876265 0.139483 0
0.897841 0.147066 0
0.916976 0.15584 0
0.934112 0.165759 0
0.94963 0.176364 0
0.964401 0.187579 0
0.979278 0.199985 0
0.993683 0.212345 0
1 0.224842 0
1 0.237797 0
1 0.251942 0.000686656
0 0.257145 0
0 0.2589 0
0 0.260777 0
0 0.262654 0
0 0.264775 0
0 0.267536 0
0 0.2701 0
0 0.271794 0
0 0.271412 0
0.0319829 0.268727 0
0.106203 0.262821 0
0.18941 0.254612 0
0.285939 0.246693 0
0.387106 0.237903 0
0.471534 0.228702 0
0.533165 0.219532 0
0.597009 0.209186 0
0.663752 0.19881 0
0.73312 0.18761 0
0.784161 0.183597 0
0.820127 0.18587 0
0.849515 0.191577 0
0.876188 0.198505 0
0.89839 0.206699 0
0.918212 0.215991 0
0.936156 0.226535 0
0.952804 0.238544 0
0.968872 0.252201 0
0.984085 0.266377 0
0.999146 0.281392 0
1 0.297261 0
1 0.313756 0
1 0.330571 0.00746166
0 0.299184 0
0 0.302495 0
0 0.306523 0
0 0.31162 0
0 0.316533 0
0 0.321218 0
0 0.325658 0
0 0.329671 0
0 0.331991 0
0.0115511 0.331792 0
0.0849622 0.327153 0
0.167422 0.319677 0
0.261433 0.311604 0
0.366598 0.301915 0
0.45832 0.291691 0
0.525612 0.280385 0
0.589273 0.268711 0
0.657816 0.257939 0
0.729046 0.24683 0
0.781506 0.243656 0
0.818723 0.247257 0
0.84863 0.25388 0
0.87631 0.26273 0
0.899672 0.273381 0
0.920424 0.285359 0
0.939116 0.298726 0
0.956802 0.314 0
0.97351 0.329732 0
0.989761 0.34609 0
1 0.362799 0
1 0.379858 0
1 0.398001 0.00289921
1 0.415503 0.0169375
0 0.352071 0
0 0.357809 0
0 0.363989 0
0 0.370352 0
0 0.377325 0
0 0.384375 0
0 0.390829 0
0 0.396521 0
0 0.400061 0
0 0.400076 0
0.0608225 0.396445 0
0.14287 0.389899 0
0.231708 0.382742 0
0.339529 0.374426 0
0.439704 0.364645 0
0.515999 0.354086 0
0.579568 0.342718 0
0.649744 0.331884 0
0.723018 0.321248 0
0.777005 0.318929 0
0.815183 0.323674 0
0.846067 0.331716 0
0.87451 0.341833 0
0.898726 0.353948 0
0.920974 0.368307 0
0.940703 0.383276 0
0.95874 0.398947 0
0.976089 0.414969 0
0.993118 0.431235 0
1 0.447684 0
1 0.464439 0
1 0.480476 0.00691234
1 0.495644 0.0226902
0 0.413947 0
0 0.421607 0
0 0.429328 0
0 0.43682 0
0 0.444144 0
0 0.451316 0
0 0.457969 0
0 0.463416 0
0 0.467247 0
0 0.46772 0
0.0343633 0.465553 0
0.116945 0.461738 0
0.20264 0.457115 0
0.309682 0.450233 0
0.417441 0.442023 0
0.503349 0.433082 0
0.567437 0.423529 0
0.639887 0.414618 0
0.714534 0.40444 0
0.769757 0.402731 0
0.809125 0.408362 0
0.841245 0.417288 0
0.870756 0.427832 0
0.89604 0.440116 0
0.918776 0.453498 0
0.939361 0.467781 0
0.958404 0.482444 0
0.976501 0.496956 0
0.993957 0.511269 0
1 0.525444 0
1 0.53843 0
1 0.55111 0.00715648
1 0.563821 0.0230869
0 0.479072 0
0 0.486473 0
0 0.493706 0
0 0.500786 0
0 0.507805 0
0 0.514611 0
0 0.520928 0
0 0.526818 0
0 0.531426 0
0 0.533089 0
0.00820935 0.531716 0
0.0902724 0.529152 0
0.174197 0.526284 0
0.278523 0.521782 0
0.39263 0.515663 0
0.4869 0.508537 0
0.55378 0.501411 0
0.627314 0.494087 0
0.703807 0.486046 0
0.760418 0.485222 0
0.800748 0.490532 0
0.833967 0.499031 0
0.864927 0.509453 0
0.890974 0.520226 0
0.914244 0.531334 0
0.935195 0.542779 0
0.954391 0.554559 0
0.972641 0.566796 0
0.990738 0.58024 0
1 0.594324 0
1 0.609918 0
1 0.62649 0.00576791
1 0.643275 0.0218662
0 0.539666 0
0 0.54609 0
0 0.552392 0
0 0.559213 0
0 0.56582 0
0 0.572305 0
0 0.578408 0
0 0.584146 0
0 0.589273 0
0 0.592691 0
0 0.591928 0
0.0639963 0.590173 0
0.148318 0.588296 0
0.247044 0.585122 0
0.364446 0.580697 0
0.467872 0.575586 0
0.540398 0.569512 0
0.612909 0.563745 0
0.690929 0.557534 0
0.74905 0.557595 0
0.79057 0.562676 0
0.824903 0.570703 0
0.854551 0.579797 0
0.882231 0.590448 0
0.90576 0.602777 0
0.92694 0.61648 0
0.946548 0.631128 0
0.966125 0.647242 0
0.984939 0.663508 0
1 0.680217 0
1 0.696818 0
1 0.712169 0.000488289
1 0.725338 0.012726
0 0.592691 0
0 0.599985 0
0 0.607874 0
0 0.615824 0
0 0.624399 0
0 0.633402 0
0 0.642344 0
0 0.650675 0
0 0.658167 0
0 0.663096 0
0 0.664057 0
0.0423285 0.663661 0
0.127031 0.663066 0
0.221958 0.660883 0
0.339818 0.657664 0
0.44976 0.652811 0
0.529809 0.647135 0
0.600656 0.641382 0
0.679454 0.634485 0
0.738476 0.635142 0
0.78056 0.64155 0
0.81471 0.650553 0
0.844709 0.661158 0
0.872984 0.67335 0
0.897505 0.687129 0
0.920104 0.702373 0
0.941344 0.718837 0
0.960662 0.734539 0
0.97789 0.748791 0
0.992844 0.761013 0
1 0.771817 0
1 0.782193 0
1 0.792187 0
0 0.657023 0
0 0.666819 0
0 0.676463 0
0 0.686305 0
0 0.696147 0
0 0.705943 0
0 0.716228 0
0 0.725704 0
0 0.734096 0
0 0.740185 0
0 0.74258 0
0.0204318 0.742733 0
0.106401 0.743908 0
0.199191 0.743313 0
0.314946 0.740597 0
0.429984 0.736355 0
0.51783 0.731029 0
0.58616 0.725612 0
0.665354 0.719112 0
0.724819 0.720012 0
0.767529 0.726909 0
0.802884 0.737133 0
0.834272 0.749218 0
0.862211 0.762524 0
0.887846 0.775845 0
0.908476 0.788586 0
0.925078 0.799313 0
0.939773 0.809293 0
0.953536 0.819242 0
0.966094 0.828489 0
0.977218 0.836423 0
0.987396 0.84332 0
0.99704 0.849363 0
0 0.72018 0
0 0.730388 0
0 0.74078 0
0 0.751598 0
0 0.762646 0
0 0.773968 0
0 0.784695 0
0 0.794903 0
0 0.804303 0
0 0.811566 0
0 0.814725 0
0.0307469 0.81622 0
0.115877 0.817777 0
0.208499 0.817411 0
0.32372 0.815122 0
0.436423 0.811353 0
0.522026 0.806699 0
0.591836 0.803006 0
0.671901 0.797818 0
0.73228 0.799832 0
0.775601 0.807431 0
0.809949 0.816373 0
0.838254 0.824643 0
0.861753 0.832502 0
0.883253 0.840726 0
0.900389 0.84918 0
0.914763 0.85713 0
0.926894 0.863966 0
0.937484 0.870008 0
0.947341 0.875929 0
0.956878 0.88188 0
0.965805 0.887236 0
0.974334 0.891875 0
0 0.778912 0
0 0.790326 0
0 0.801678 0
0 0.813199 0
0 0.825605 0
0 0.837568 0
0 0.849241 0
0 0.860227 0
0 0.869963 0
0 0.877317 0
0 0.880919 0
0.0648356 0.882872 0
0.148684 0.884611 0
0.245609 0.884993 0
0.36202 0.884062 0
0.46685 0.882109 0
0.542077 0.879515 0
0.615305 0.875624 0
0.693309 0.868345 0
0.749752 0.865736 0
0.788281 0.867567 0
0.818708 0.871763 0
0.844358 0.876814 0
0.865751 0.882078 0
0.884153 0.886549 0
0.898161 0.891142 0
0.910185 0.896223 0
0.920913 0.90132 0
0.93048 0.906126 0
0.939254 0.910704 0
0.947417 0.914977 0
0.955444 0.919188 0
0.963363 0.92311 0
0 0.837552 0
0 0.849821 0
0 0.862364 0
0 0.875441 0
0 0.887892 0
0 0.900099 0
0 0.911849 0
0 0.922881 0
0 0.932525 0
0 0.939803 0
0.0297093 0.94464 0
0.111925 0.948272 0
0.196338 0.951751 0
0.302235 0.953277 0
0.411612 0.952056 0
0.500343 0.947875 0
0.562783 0.939788 0
0.633707 0.930129 0
0.708125 0.918791 0
0.762112 0.913359 0
0.798215 0.912291 0
0.82565 0.912856 0
0.848432 0.914443 0
0.868894 0.916899 0
0.884764 0.919936 0
0.897673 0.923217 0
0.908415 0.926726 0
0.918029 0.930465 0
0.92694 0.934432 0
0.935058 0.938201 0
0.94255 0.941649 0
0.949798 0.944915 0
0.957122 0.948089 0
0 0.89778 0
0 0.910521 0
0 0.923766 0
0 0.936416 0
0 0.948928 0
0 0.961212 0
0 0.973266 0
0 0.986664 0
0 0.99733 0
0.0140383 1 0
0.086656 1 0
0.165225 1 0
0.250187 1 0
0.348608 1 0
0.44271 1 0
0.51812 0.996445 0
0.578515 0.985702 0
0.646677 0.972915 0
0.717693 0.956344 0
0.768978 0.947723 0
0.803418 0.944671 0
0.829831 0.944015 0
0.851316 0.94403 0
0.870497 0.94493 0
0.88539 0.946792 0
0.897673 0.949279 0
0.907835 0.952087 0
0.916838 0.955077 0
0.92491 0.958022 0
0.932433 0.961074 0
0.939513 0.965408 0
0.946227 0.968032 0
0.95288 0.970367 0
0 0.957748 0
0 0.970855 0
0 0.983673 0
0 0.998245 0
0 1 0
0 1 0
0 1 0
0 1 0
0.0127108 1 0
0.0660105 1 0
0.130007 1 0
0.202304 1 0
0.287739 1 0
0.381125 1 0
0.463447 1 0
0.528603 1 0
0.588098 1 0
0.654749 1 0
0.724636 0.98674 0
0.774685 0.976715 0
0.807965 0.972305 0
0.833326 0.970397 0
0.854246 0.969711 0
0.872786 0.969848 0
0.8869 0.970748 0
0.898512 0.972442 0
0.908263 0.974716 0
0.916747 0.977081 0
0.924208 0.979294 0
0.93106 0.981506 0
0.937591 0.98378 0
0.943908 0.985916 0
0.950195 0.987808 0
0 1 0
0 1 0
0 1 0
0 1 0
0 1 0
0 1 0
0 1 0
0.0116579 1 0
0.0531624 1 0
0.102068 1 0
0.161349 1 0
0.231785 1 0
0.313252 1 0
0.400198 1 0
0.476905 1 0
0.536492 1 0
0.596063 1 0
0.661524 1 0
0.730602 1 0
0.780102 0.999496 0
0.812573 0.994141 0
0.837156 0.991318 0
0.857481 0.989914 0
0.875578 0.989517 0
0.889204 0.989822 0
0.900267 0.990829 0
0.9093 0.992248 0
0.91725 0.993957 0
0.924346 0.995727 0
0.930755 0.997391 0
0.936706 0.998978 0
0.94255 1 0
0.948501 1 0
0 1 0
0 1 0
0 1 0
0 1 0
0 1 0
0 1 0.00173953
0.0134585 1 0.00627146
0.0458991 1 0.00866712
0.0818189 1 0.00886549
0.126284 1 0.00640879
0.182208 1 0.000259403
0.254536 1 0
0.333547 1 0
0.415091 1 0
0.487694 1 0
0.543328 1 0
0.603632 1 0
0.668315 1 0
0.736645 1 0
0.785443 1 0
0.817456 1 0
0.841474 1 0
0.861097 1 0
0.878614 1 0
0.891844 1 0
0.90248 1 0
0.911009 1 0
0.91841 1 0
0.925063 1 0
0.931136 1 0
0.936751 1 0
0.942184 1 0
0.947616 1 0
0 1 0.000106813
0 1 0.0074464
0 1 0.0136721
0 1 0.018143
0 1 0.0214694
0.0117037 1 0.0239567
0.039765 1 0.0244907
0.0698405 1 0.0252995
0.103792 1 0.0242771
0.146029 1 0.0217746
0.200626 1 0.0145571
0.273335 1 0.00456245
0.350988 1 0
0.428367 1 0
0.497215 1 0
0.549691 1 0
0.610681 1 0
0.674876 1 0
0.742443 1 0
0.790524 1 0
0.822003 1 0
0.84564 1 0
0.864851 1 0
0.881865 1 0
0.89456 1 0
0.904753 1 0
0.912963 1 0
0.919951 1 0
0.926116 1 0
0.931777 1 0
0.937102 1 0
0.94226 1 0
0.947356 1 0
0 1 0.0295262
0 1 0.031281
0 1 0.0335851
0 1 0.036286
0.0102846 1 0.0383612
0.0348516 1 0.0396429
0.0605783 1 0.040116
0.0887617 1 0.0397498
0.121462 1 0.0379187
