public/sampleLut/0.cube
TITLE "Generated by Resolve"
LUT_3D_SIZE 5
0 0.0312047 0.0148165
0.130282 0.00117494 0
0.594217 0 0
0.847105 0 0
0.905745 0 0
0 0.170581 0
0.0561379 0.149676 0
0.602518 0.0622873 0
0.903243 0.0538643 0
1 0.134447 0
0 0.539666 0
0 0.589273 0
0.540398 0.569512 0
0.90576 0.602777 0
1 0.725338 0.012726
0 1 0
0.0531624 1 0
0.596063 1 0
0.889204 0.989822 0
0.948501 1 0
0.00422675 1 0.0970779
0.172229 1 0.0790417
0.631739 1 0
0.900923 1 0
0.946181 1 0
0 0.0240024 0.215885
0.121614 0 0.18584
0.59736 0 0.0392157
0.850355 0 0
0.911315 0 0
0 0.166247 0.150561
0.0553902 0.149248 0.133379
0.620295 0.0724041 0.0555276
0.924071 0.0717784 0.0549325
1 0.158129 0.142702
0 0.55848 0
0 0.615427 0.00354009
0.566003 0.599741 0
0.940291 0.637949 0.0579232
1 0.747051 0.178439
0 1 0.0872053
0.065507 1 0.143969
0.596582 1 0.0547036
0.890105 0.990829 0.010132
0.947097 0.999313 0.020798
0 1 0.241993
0.159655 1 0.21976
0.623102 1 0.0921035
0.895735 1 0.0188907
0.941299 1 0.0166018
0 0 0.716609
0.0349126 0 0.706676
0.566003 0 0.59379
0.832868 0 0.513115
0.897475 0 0.530419
0 0.124208 0.69836
0.0221714 0.123873 0.709514
0.608209 0.0570382 0.644633
0.926635 0.0591897 0.615381
1 0.15227 0.701396
0 0.551263 0.536309
0 0.614084 0.606363
0.569253 0.603342 0.595773
0.975311 0.639384 0.632136
1 0.725902 0.719738
0 1 0.650477
0.0257877 1 0.68423
0.552728 1 0.57351
0.86807 0.964111 0.505074
0.927993 0.969299 0.514504
0 1 0.759854
0.101244 1 0.73669
0.571283 1 0.596902
0.865003 1 0.506874
0.915923 1 0.504448
0 0 1
7.62951e-05 0 1
0.534173 0 0.966628
0.808133 0 0.890929
0.878584 0 0.915206
0 0.10602 1
0.012192 0.116274 1
0.588052 0.0639811 1
0.919768 0.0661326 1
1 0.164904 1
0 0.549325 0.942077
0 0.616434 1
0.578836 0.614771 1
0.983108 0.64892 1
1 0.711635 1
0 1 1
0.0230259 1 1
0.53753 1 1
0.846998 0.938506 0.935622
0.930358 0.931167 0.928145
0 1 1
0.0802319 1 1
0.546761 1 1
0.817349 1 0.898665
0.894057 0.995438 0.882841
0 0 1
0.00401312 0 1
0.535424 0 1
0.812024 0 0.95845
0.888869 0 0.990707
0 0.11545 1
0.0372473 0.135363 1
0.606088 0.0906233 1
0.941955 0.098085 1
1 0.203861 1
0 0.575433 1
0 0.651453 1
0.613413 0.656413 1
1 0.677913 1
1 0.724575 1
0 1 1
0.0401312 1 1
0.543893 1 1
0.845747 0.936996 1
0.927367 0.927535 1
0 1 1
0.0826276 1 1
0.547982 1 1
0.813153 1 1
0.889952 0.990463 0.98851
