public/sampleLut/0.cube
TITLE "Generated by Resolve"
LUT_3D_SIZE 9
0 0.0312047 0.0148165
0.0224002 0.0128939 0
0.130282 0.00117494 0
0.369421 0 0
0.594217 0 0
0.782284 0 0
0.847105 0 0
0.880385 0 0
0.905745 0 0
0 0.101061 0
0 0.0834211 0
0.104784 0.0635538 0
0.35819 0.0221714 0
0.593606 0 0
0.786526 0 0
0.858351 0 0
0.899382 0 0
0.939132 0 0
0 0.170581 0
0 0.164889 0
0.0561379 0.149676 0
0.342977 0.109758 0
0.602518 0.0622873 0
0.813077 0.0318608 0
0.903243 0.0538643 0
0.959487 0.090547 0
1 0.134447 0
0 0.299184 0
0 0.316533 0
0 0.331991 0
0.261433 0.311604 0
0.589273 0.268711 0
0.818723 0.247257 0
0.920424 0.285359 0
0.989761 0.34609 0
1 0.415503 0.0169375
0 0.539666 0
0 0.56582 0
0 0.589273 0
0.148318 0.588296 0
0.540398 0.569512 0
0.79057 0.562676 0
0.90576 0.602777 0
0.984939 0.663508 0
1 0.725338 0.012726
0 0.778912 0
0 0.825605 0
0 0.869963 0
0.148684 0.884611 0
0.542077 0.879515 0
0.788281 0.867567 0
0.884153 0.886549 0
0.93048 0.906126 0
0.963363 0.92311 0
0 1 0
0 1 0
0.0531624 1 0
0.313252 1 0
0.596063 1 0
0.812573 0.994141 0
0.889204 0.989822 0
0.924346 0.995727 0
0.948501 1 0
0 1 0.0479438
0.0301061 1 0.0532692
0.136538 1 0.0498054
0.378119 1 0.0133516
0.62182 1 0
0.82919 1 0
0.898573 1 0
0.927565 1 0
0.947097 1 0
0.00422675 1 0.0970779
0.0800641 1 0.0920577
0.172229 1 0.0790417
0.404242 1 0.0323796
0.631739 1 0
0.834531 1 0
0.900923 1 0
0.928054 1 0
0.946181 1 0
0 0.0268864 0.121279
0.0173953 0.00918593 0.10338
0.134325 0 0.0698863
0.373648 0 0.0164187
0.596155 0 0
0.784009 0 0
0.849012 0 0
0.88275 0 0
0.908797 0 0
0 0.0973068 0.0805066
0 0.079881 0.062974
0.116655 0.0581064 0.0411688
0.365316 0.0199588 0.00358587
0.596857 0 0
0.789929 0 0
0.863294 0 0
0.90631 0 0
0.947814 0 0
0 0.171527 0.0310521
0 0.168887 0.0154879
0.0582895 0.151385 0
0.356512 0.111254 0
0.611368 0.0681926 0
0.823117 0.0406653 0
0.913802 0.0636149 0
0.970703 0.101244 0
1 0.14696 0.044358
0 0.305806 0
0 0.326894 0
0 0.345464 0
0.276921 0.323964 0
0.602045 0.281315 0
0.832288 0.261479 0
0.935073 0.302052 0
1 0.36524 0.0339818
1 0.434913 0.0972305
0 0.549615 0
0 0.576669 0
0 0.602228 0
0.163607 0.603555 0
0.552819 0.584421 0
0.807218 0.577798 0
0.92282 0.620844 0
1 0.683787 0.0269169
1 0.737682 0.0851911
0 0.795605 0
0 0.843412 0
0 0.888609 0
0.169039 0.90457 0
0.554406 0.899245 0
0.798138 0.879484 0
0.889738 0.892683 0
0.93431 0.909941 0
0.966262 0.925658 0
0 1 0
0 1 0.0341039
0.0627146 1 0.0544747
0.317082 1 0.0289769
0.597452 1 0
0.814176 0.996674 0
0.890227 0.991028 0
0.924773 0.996002 0
0.948363 1 0
0 1 0.113405
0.0309453 1 0.117281
0.135485 1 0.1122
0.375326 1 0.0712596
0.620142 1 0.0074464
0.828061 1 0
0.897353 1 0
0.926192 1 0
0.945602 1 0
0.00178531 1 0.158999
0.0763867 1 0.152895
0.16759 1 0.138674
0.398474 1 0.0896773
0.628473 1 0.0174716
0.832273 1 0
0.898894 1 0
0.926085 1 0
0.944244 1 0
0 0.0240024 0.215885
0 0.0109865 0.210239
0.121614 0 0.18584
0.373968 0 0.115557
0.59736 0 0.0392157
0.785153 0 0
0.850355 0 0
0.884504 0 0
0.911315 0 0
0 0.08748 0.196628
0 0.0743572 0.198474
0.10988 0.0528572 0.176516
0.370367 0.0171969 0.104753
0.599863 0 0.0369573
0.793072 0 0
0.867887 0 0
0.913512 0 0.0115663
0.956878 0 0.0448005
0 0.166247 0.150561
0 0.165225 0.149554
0.0553902 0.149248 0.133379
0.37232 0.110475 0.0940108
0.620295 0.0724041 0.0555276
0.832898 0.0478218 0.030869
0.924071 0.0717784 0.0549325
0.982055 0.110979 0.0946059
1 0.158129 0.142702
0 0.311711 0.0395056
0 0.336339 0.0523842
0 0.358404 0.058381
0.290318 0.334737 0.0369726
0.615671 0.292119 0.0368963
0.846052 0.274144 0.0361334
0.950195 0.317678 0.0774853
1 0.382544 0.135302
1 0.451453 0.200122
0 0.55848 0
0 0.586404 0
0 0.615427 0.00354009
0.175326 0.619699 0
0.566003 0.599741 0
0.823713 0.592493 0.00514229
0.940291 0.637949 0.0579232
1 0.700435 0.126894
1 0.747051 0.178439
0 0.811231 0
0 0.860685 0
0 0.906233 0.0133516
0.187594 0.924666 0.0204013
0.563424 0.914733 0.00857557
0.805524 0.88838 0
0.89398 0.896849 0.0100252
0.937224 0.912154 0.026688
0.968154 0.926452 0.043122
0 1 0.0872053
0 1 0.128542
0.065507 1 0.143969
0.315663 1 0.113878
0.596582 1 0.0547036
0.814282 0.997665 0.0118715
0.890105 0.990829 0.010132
0.924056 0.994736 0.0147555
0.947097 0.999313 0.020798
0 1 0.20032
0.0278935 1 0.202716
0.130785 1 0.196185
0.368139 1 0.152529
0.616251 1 0.0819409
0.825605 1 0.0267491
0.894926 1 0.0166171
0.92372 1 0.0162203
0.943069 1 0.0175937
0 1 0.241993
0.0692454 1 0.234897
0.159655 1 0.21976
0.388846 1 0.168551
0.623102 1 0.0921035
0.828641 1 0.0319982
0.895735 1 0.0188907
0.923033 1 0.0166018
0.941299 1 0.0166018
0 0.0132296 0.432959
0 0.00445563 0.430014
0.0768902 0 0.419776
0.344427 0 0.360235
0.591043 0 0.259312
0.781262 0 0.186572
0.84712 0 0.176318
0.881788 0 0.182895
0.909194 0 0.195453
0 0.071519 0.423575
0 0.0634318 0.423056
0.0625162 0.0492866 0.416693
0.343999 0.00633249 0.360052
0.596475 0 0.26125
0.792309 0 0.196323
0.868696 0 0.198291
0.916426 0 0.223804
0.961669 0 0.261891
0 0.146456 0.398413
0 0.145006 0.405966
0.0410468 0.138293 0.41236
0.360571 0.102083 0.373419
0.624933 0.0661784 0.292073
0.838941 0.0446937 0.251713
0.930373 0.0694743 0.275639
0.989807 0.110704 0.320317
1 0.15935 0.373739
0 0.30219 0.288533
0 0.329015 0.314366
0 0.353536 0.337713
0.285267 0.330816 0.315602
0.630152 0.287388 0.273594
0.858595 0.274662 0.261189
0.963485 0.320882 0.305791
1 0.387778 0.369894
1 0.456764 0.437827
0 0.560739 0.169589
0 0.59028 0.203159
0 0.622217 0.233326
0.162249 0.631113 0.2206
0.573159 0.607996 0.196445
0.83888 0.598154 0.218296
0.957031 0.645441 0.278965
1 0.703639 0.349523
1 0.744396 0.398291
0 0.820172 0.139513
0 0.870924 0.189685
0 0.917235 0.233387
0.18613 0.938445 0.241001
0.558984 0.921218 0.208942
0.804471 0.886976 0.186435
0.892561 0.891966 0.199329
0.935073 0.905425 0.216617
0.965316 0.918334 0.232319
0 1 0.312627
0 1 0.349874
0.0498054 1 0.360128
0.290806 1 0.322133
0.582971 1 0.247364
0.806455 0.991119 0.196109
0.883482 0.982651 0.19324
0.917311 0.985351 0.198779
0.940093 0.989013 0.204379
0 1 0.417838
0.00846876 1 0.418555
0.109102 1 0.410101
0.338918 1 0.359289
0.599924 1 0.272953
0.814847 1 0.209812
0.885634 1 0.19852
0.9149 1 0.19791
0.934432 1 0.199145
0 1 0.456641
0.046128 1 0.44828
0.135012 1 0.431357
0.35758 1 0.373953
0.605524 1 0.282124
0.816648 1 0.21387
0.885527 1 0.199954
0.91339 1 0.197421
0.932052 1 0.197452
0 0 0.716609
0 0 0.714412
0.0349126 0 0.706676
0.281025 0 0.670115
0.566003 0 0.59379
0.764965 0 0.524056
0.832868 0 0.513115
0.868742 0 0.518746
0.897475 0 0.530419
0 0.0511788 0.711696
0 0.046067 0.711131
0.0265354 0.0348669 0.70573
0.279515 0 0.674022
0.572976 0 0.602075
0.779721 0 0.538384
0.859709 0 0.539528
0.909636 0 0.562936
0.956268 0 0.597086
0 0.124208 0.69836
0 0.125277 0.704341
0.0221714 0.123873 0.709514
0.301823 0.0985428 0.696437
0.608209 0.0570382 0.644633
0.833066 0.0337377 0.597482
0.926635 0.0591897 0.615381
0.987808 0.102052 0.654353
1 0.15227 0.701396
0 0.278721 0.632593
0 0.30663 0.660883
0 0.329595 0.68658
0.268498 0.317479 0.696925
0.622095 0.275822 0.660945
0.863447 0.26421 0.619974
0.968978 0.312428 0.654017
1 0.38088 0.708583
1 0.451438 0.769146
0 0.551263 0.536309
0 0.582284 0.571435
0 0.614084 0.606363
0.154864 0.62533 0.617945
0.569253 0.603342 0.595773
0.857313 0.58941 0.581277
0.975311 0.639384 0.632136
1 0.690105 0.683467
1 0.725902 0.719738
0 0.818051 0.500389
0 0.869963 0.550134
0 0.917723 0.591363
0.172076 0.940887 0.601755
0.536858 0.921462 0.552468
0.795102 0.875547 0.508461
0.887282 0.875868 0.519295
0.930282 0.887373 0.534142
0.960403 0.898817 0.547189
0 1 0.650477
0 1 0.678416
0.0257877 1 0.68423
0.25095 1 0.651102
0.552728 1 0.57351
0.787076 0.977172 0.509178
0.86807 0.964111 0.505074
0.904616 0.966705 0.509743
0.927993 0.969299 0.514504
0 1 0.728511
0 1 0.728878
0.0788739 1 0.721248
0.293645 1 0.677272
0.566415 1 0.591012
0.79176 1 0.518669
0.866697 1 0.506767
0.899092 1 0.506004
0.91957 1 0.507057
0 1 0.759854
0.0149844 1 0.751751
0.101244 1 0.73669
0.309972 1 0.686809
0.571283 1 0.596902
0.792035 1 0.521324
0.865003 1 0.506874
0.896132 1 0.504372
0.915923 1 0.504448
0 0 0.984207
0 0 0.982452
0.00517281 0 0.974731
0.235492 0 0.940902
0.539162 0 0.8766
0.742199 0 0.809491
0.812284 0 0.798489
0.848127 0 0.80528
0.880247 0 0.81976
0 0.0349584 0.980758
0 0.03122 0.98056
0.000793469 0.021622 0.97557
0.237232 0 0.946456
0.546288 0 0.88864
0.759686 0 0.830823
0.842847 0 0.835386
0.896742 0 0.862669
0.944442 0 0.898161
0 0.10695 0.970108
0 0.110414 0.978637
0.00672923 0.112154 0.98526
0.271275 0.092958 0.976883
0.585977 0.0545205 0.941314
0.81799 0.0286717 0.902419
0.915068 0.0548257 0.921843
0.97821 0.0988785 0.963684
1 0.150408 1
0 0.263935 0.920089
0 0.293172 0.949722
0 0.317159 0.97673
0.261707 0.312078 0.986419
0.599191 0.279026 0.970947
0.850828 0.263508 0.942412
0.962219 0.311971 0.978103
1 0.381262 1
1 0.451942 1
0 0.541222 0.837186
0 0.574197 0.879133
0 0.605646 0.920821
0.181537 0.615564 0.94435
0.565774 0.599344 0.959976
0.854704 0.586496 0.946242
0.97789 0.634989 0.986831
1 0.678386 1
1 0.708522 1
0 0.814496 0.809232
0 0.866316 0.86186
0 0.915419 0.911849
0.179217 0.933257 0.930129
0.528206 0.908934 0.905486
0.781109 0.858595 0.854353
0.896651 0.8495 0.845121
0.938384 0.860044 0.855848
0.967208 0.870649 0.866621
0 1 0.957076
0 1 0.983536
0.0168612 1 0.990036
0.235508 1 0.963531
0.535317 1 0.904372
0.747921 0.967559 0.813123
0.852934 0.945708 0.79237
0.896452 0.942931 0.798001
0.922484 0.943603 0.803616
0 1 1
0 1 1
0.063508 1 1
0.271015 1 0.986191
0.545235 1 0.914672
0.751034 1 0.816815
0.842451 0.988434 0.787747
0.882521 0.981414 0.786191
0.906859 0.978668 0.787778
0 1 1
0 1 1
0.0822309 1 1
0.283711 1 0.992996
0.548241 1 0.916472
0.751278 1 0.817044
0.837156 1 0.786053
0.875425 1 0.781704
0.89926 1 0.781842
0 0 1
0 0 1
7.62951e-05 0 1
0.227344 0 1
0.534173 0 0.966628
0.737179 0 0.900908
0.808133 0 0.890929
0.8448 0 0.898695
0.878584 0 0.915206
0 0.0323644 1
0 0.0291142 1
0 0.0203555 1
0.232029 0 1
0.543069 0 0.98175
0.757977 0 0.926955
0.843687 0 0.934661
0.899519 0 0.965774
0.947936 0 1
0 0.10602 1
0 0.111604 1
0.012192 0.116274 1
0.27718 0.100038 1
0.588052 0.0639811 1
0.820706 0.0382391 1
0.919768 0.0661326 1
0.98407 0.111376 1
1 0.164904 1
0 0.270314 1
0 0.301091 1
0 0.326467 1
0.276646 0.323949 1
0.604822 0.295048 1
0.85742 0.281086 1
0.970764 0.331655 1
1 0.401221 1
1 0.470588 1
0 0.549325 0.942077
0 0.582666 0.98703
0 0.616434 1
0.209659 0.628763 1
0.578836 0.614771 1
0.861769 0.604944 1
0.983108 0.64892 1
1 0.686244 1
1 0.711635 1
0 0.82826 0.92076
0 0.880186 0.974258
0 0.930053 1
0.198505 0.940551 1
0.536141 0.909743 1
0.779324 0.856443 1
0.893629 0.845808 0.993515
0.938293 0.85449 0.993866
0.96762 0.864088 0.998734
0 1 1
0 1 1
0.0230259 1 1
0.240864 1 1
0.53753 1 1
0.742718 0.959884 0.957351
0.846998 0.938506 0.935622
0.905562 0.930434 0.927398
0.930358 0.931167 0.928145
0 1 1
0 1 1
0.0643626 1 1
0.271183 1 1
0.544884 1 1
0.741207 1 0.946868
0.821897 0.987076 0.904387
0.877226 0.974975 0.892088
0.908171 0.969345 0.895521
0 1 1
0 1 1
0.0802319 1 1
0.281285 1 1
0.546761 1 1
0.74023 1 0.940673
0.817349 1 0.898665
0.861921 1 0.883879
0.894057 0.995438 0.882841
0 0 1
0 0 1
0.00129702 0 1
0.22797 0 1
0.534157 0 1
0.737697 0 0.939116
0.809445 0 0.930175
0.847257 0 0.939361
0.882551 0 0.959182
0 0.0339666 1
0 0.0311284 1
0.00077821 0.0229343 1
0.235615 0 1
0.545678 0 1
0.762966 0 0.972351
0.850507 0 0.982422
0.907637 0 1
0.956558 0 1
0 0.109804 1
0 0.117159 1
0.0238956 0.12517 1
0.292287 0.111437 1
0.596323 0.0768444 1
0.829526 0.0519112 1
0.929961 0.0813458 1
0.995773 0.12842 1
1 0.183841 1
0 0.282918 1
0 0.314611 1
0.0136721 0.342199 1
0.299016 0.341833 1
0.617014 0.315419 1
0.871748 0.303212 1
0.984741 0.355428 1
1 0.424704 1
1 0.493065 1
0 0.562005 0.995285
0 0.596384 1
0 0.633036 1
0.240879 0.647456 1
0.595392 0.634791 1
0.878187 0.627436 1
0.992172 0.663462 1
1 0.695491 1
1 0.718105 1
0 0.847059 0.977478
0 0.89984 1
0 0.948409 1
0.219944 0.952453 1
0.543038 0.915724 1
0.783291 0.86125 1
0.890867 0.850782 1
0.936355 0.857588 1
0.96611 0.865843 1
0 1 1
0 1 1
0.0316014 1 1
0.248463 1 1
0.540688 1 1
0.74815 0.958144 1
0.845045 0.936141 1
0.90312 0.927443 1
0.931075 0.927214 0.995666
0 1 1
0 1 1
0.0677043 1 1
0.274083 1 1
0.546075 1 1
0.743145 1 1
0.818723 0.983215 0.981125
0.873884 0.970916 0.968597
0.9149 0.961059 0.958572
0 1 1
0 1 1
0.081117 1 1
0.282139 1 1
0.547234 1 1
0.740536 1 0.992645
0.811521 1 0.961532
0.850141 1 0.9393
0.892287 0.993301 0.930373
0 0 1
0 0 1
0.00401312 0 1
0.230777 0 1
0.535424 0 1
0.739574 0 0.966476
0.812024 0 0.95845
0.85153 0 0.969757
0.888869 0 0.990707
0 0.035172 1
0 0.0329137 1
0.00567636 0.0268254 1
0.241733 0 1
0.549783 0 1
0.769985 0 1
0.860792 0 1
0.917205 0 1
0.966796 0 1
0 0.11545 1
0 0.124697 1
0.0372473 0.135363 1
0.310018 0.124269 1
0.606088 0.0906233 1
0.840421 0.0672923 1
0.941955 0.098085 1
1 0.146777 1
1 0.203861 1
0 0.297093 1
0 0.329625 1
0.0342107 0.359747 1
0.323934 0.361929 1
0.631266 0.337911 1
0.886687 0.327337 1
1 0.380941 1
1 0.448341 1
1 0.515541 1
0 0.575433 1
0 0.612436 1
0 0.651453 1
0.273274 0.667369 1
0.613413 0.656413 1
0.894224 0.649409 1
1 0.677913 1
1 0.70428 1
1 0.724575 1
0 0.867109 1
0 0.921248 1
0 0.964782 1
0.239445 0.963775 1
0.549706 0.922805 1
0.788037 0.866987 1
0.891279 0.856107 1
0.936019 0.861479 1
0.965515 0.868589 1
0 1 1
0 1 1
0.0401312 1 1
0.256397 1 1
0.543893 1 1
0.752529 0.958618 1
0.845747 0.936996 1
0.897276 0.92932 1
0.927367 0.927535 1
0 1 1
0 1 1
0.0716106 1 1
0.277501 1 1
0.547387 1 1
0.745541 1 1
0.82327 0.979767 1
0.871641 0.968185 1
0.912566 0.958221 1
0 1 1
0 1 1
0.0826276 1 1
0.283589 1 1
0.547982 1 1
0.741955 1 1
0.813153 1 1
0.847761 0.999207 0.997406
0.889952 0.990463 0.98851
