public/sampleLut/1.cube
TITLE "Generated by Resolve"
LUT_3D_SIZE 5
0 0 0
0.0116579 0 0
0.815991 0 0
1 0 0.0381628
1 0 0.04065
0 0 0
0 0 0
0.773632 0 0
1 0 0.0378119
1 0 0.04065
0.0975967 0.611658 0.115862
0.0808728 0.548806 0.0975357
0.568338 0.565652 0.116365
1 0.447013 0.00175479
0.987243 0.217304 0
0.224109 0.951156 0.251698
0.224109 0.951156 0.251698
0.622385 0.937209 0.364462
0.96817 0.976196 0.295354
0.97351 0.972351 0.277104
0.224109 0.951156 0.251698
0.224109 0.951156 0.251698
0.816815 0.948821 0.397421
0.958434 0.974212 0.307561
0.974258 0.977264 0.287083
0 0 0
0.012253 0 0
0.815442 0 0
1 0 0.0501411
1 0 0.04065
0 0 0
0 0 0
0.761471 0 0
1 0 0.0456397
1 0 0.04065
0.103456 0.632349 0.122271
0.0860609 0.56878 0.103212
0.551202 0.551034 0.114382
1 0.436667 0
0.987869 0.197711 0
0.224109 0.951156 0.251698
0.224109 0.951156 0.251698
0.669047 0.939239 0.371481
0.964279 0.975265 0.299794
0.972793 0.967163 0.266484
0.224109 0.951156 0.251698
0.224109 0.951156 0.251698
0.786313 0.945907 0.394171
0.960021 0.974563 0.305531
0.974258 0.977264 0.287083
0 0 0.378927
0 0 0.53785
0.841917 0 0.675227
1 0 0.756924
1 0 0.83241
0 0 0.385214
0 0 0.417456
0.773785 0 0.601068
1 0 0.703014
1 0 0.791897
0 0.605142 0.525277
0 0.574197 0.499489
0.523796 0.504158 0.443183
0.994156 0.366583 0.421286
1 0 0.412863
0.172732 0.97261 0.341909
0.224109 0.951156 0.251698
0.418952 0.94107 0.323552
0.955642 0.96907 0.39884
0.970916 0.950362 0.232639
0.224109 0.951156 0.251698
0.224109 0.951156 0.251698
0.54229 0.935439 0.348653
0.967803 0.976135 0.295811
0.974258 0.977264 0.287083
0 0 0.906783
0 0 0.962966
0.820844 0 0.992569
1 0 1
1 0 1
0 0 0.900893
0 0 0.921874
0.720104 0 0.991836
1 0 1
1 0 1
0 0.414588 0.955673
0 0.372229 0.941497
0.479835 0.249989 0.925155
1 0 0.99089
1 0 0.995132
0 1 1
0 1 1
0 0.99057 0.994965
0.936126 0.923033 0.914809
0.977646 0.886961 0.896483
0 1 0.984939
0 1 0.960327
0 1 0.869902
0.945983 0.969924 0.889632
0.975082 0.97557 0.897581
0 0 1
0 0 1
0.775738 0 0.991943
1 0 1
1 0 1
0 0 1
0 0 1
0.662867 0 0.992248
1 0 1
1 0 1
0 0.389578 1
0 0.332799 1
0.46009 0.169131 0.987396
1 0 1
1 0 1
0 0.999954 1
0 0.991791 1
0.122271 0.964446 1
0.927749 0.912139 0.978027
0.982452 0.861234 0.976577
0 1 1
0 1 1
0 1 1
0.913939 0.976852 0.977111
0.97615 0.974823 0.97438
