public/sampleLut/1.cube
TITLE "Generated by Resolve"
LUT_3D_SIZE 9
0 0 0
0 0 0
0.0116579 0 0
0.33402 0 0
0.815991 0 0
1 0 0.0214237
1 0 0.0381628
1 0 0.04065
1 0 0.04065
0 0 0
0 0 0
0.0104219 0 0
0.329442 0 0
0.811063 0 0
1 0 0.0208743
1 0 0.038117
1 0 0.04065
1 0 0.04065
0 0 0
0 0 0
0 0 0
0.289464 0 0
0.773632 0 0
1 0 0.0174411
1 0 0.0378119
1 0 0.04065
1 0 0.04065
0 0.228962 0.00323491
0 0.218845 0
0 0.188312 0
0.20267 0.195422 0
0.683131 0.132113 0
1 0 0
1 0 0.0232242
1 0 0.035996
1 0 0.04065
0.0975967 0.611658 0.115862
0.0943313 0.599924 0.112306
0.0808728 0.548806 0.0975357
0.083238 0.549584 0.0983902
0.568338 0.565652 0.116365
1 0.494835 0.0821088
1 0.447013 0.00175479
0.985687 0.376333 0
0.987243 0.217304 0
0.202304 0.904723 0.228428
0.198749 0.897063 0.224643
0.18172 0.858351 0.206683
0.172213 0.835477 0.196246
0.559792 0.841413 0.311055
0.853361 0.860212 0.236194
0.976318 0.848417 0.0584115
0.981659 0.812436 0.016556
0.995804 0.756298 0
0.224109 0.951156 0.251698
0.224109 0.951156 0.251698
0.224109 0.951156 0.251698
0.224109 0.951156 0.251698
0.622385 0.937209 0.364462
0.844144 0.952392 0.395056
0.96817 0.976196 0.295354
0.974075 0.976028 0.284169
0.97351 0.972351 0.277104
0.224109 0.951156 0.251698
0.224109 0.951156 0.251698
0.224109 0.951156 0.251698
0.224109 0.951156 0.251698
0.75491 0.943435 0.389502
0.867048 0.956054 0.388037
0.952972 0.973083 0.314076
0.974258 0.977264 0.287083
0.974258 0.977264 0.287083
0.224109 0.951156 0.251698
0.224109 0.951156 0.251698
0.224109 0.951156 0.251698
0.224109 0.951156 0.251698
0.816815 0.948821 0.397421
0.917586 0.965835 0.353017
0.958434 0.974212 0.307561
0.974258 0.977264 0.287083
0.974258 0.977264 0.287083
0 0 0
0 0 0
0.0115663 0 0
0.333196 0 0
0.815259 0 0
1 0 0.0213169
1 0 0.0381628
1 0 0.04065
1 0 0.04065
0 0 0
0 0 0
0.010071 0 0
0.327871 0 0
0.810285 0 0
1 0 0.020798
1 0 0.038117
1 0 0.04065
1 0 0.04065
0 0 0
0 0 0
0 0 0
0.287663 0 0
0.77145 0 0
1 0 0.0172732
1 0 0.0377661
1 0 0.04065
1 0 0.04065
0 0.233036 0.0049897
0 0.223484 0.00158694
0 0.186908 0
0.200443 0.194354 0
0.681147 0.131411 0
1 0 0
1 0 0.0231785
1 0 0.0359503
1 0 0.04065
0.0990616 0.616129 0.117449
0.0957961 0.60441 0.113878
0.0811475 0.550469 0.0978561
0.0894942 0.545968 0.0995041
0.564996 0.563302 0.116213
1 0.492638 0.0814984
1 0.445655 0
0.985183 0.373541 0
0.98735 0.214191 0
0.203433 0.90721 0.229633
0.199893 0.899565 0.225864
0.183001 0.861341 0.207828
0.171099 0.832441 0.195178
0.559991 0.839017 0.31014
0.851637 0.858366 0.235187
0.97673 0.846281 0.0553597
0.981872 0.810239 0.0137484
0.99736 0.752804 0
0.224109 0.951156 0.251698
0.224109 0.951156 0.251698
0.224109 0.951156 0.251698
0.224109 0.951156 0.251698
0.631876 0.937728 0.365911
0.842969 0.952163 0.39527
0.967468 0.976074 0.296239
0.974044 0.975814 0.283742
0.973465 0.972107 0.276616
0.224109 0.951156 0.251698
0.224109 0.951156 0.251698
0.224109 0.951156 0.251698
0.224109 0.951156 0.251698
0.756603 0.943557 0.389792
0.868162 0.956237 0.387549
0.95227 0.972961 0.314824
0.974258 0.977264 0.287083
0.974258 0.977264 0.287083
0.224109 0.951156 0.251698
0.224109 0.951156 0.251698
0.224109 0.951156 0.251698
0.224109 0.951156 0.251698
0.812589 0.948379 0.397299
0.918883 0.966094 0.351797
0.958633 0.974273 0.307271
0.974258 0.977264 0.287083
0.974258 0.977264 0.287083
0 0 0
0 0 0
0.012253 0 0
0.335378 0 0
0.815442 0 0
1 0 0.0429389
1 0 0.0501411
1 0 0.0432441
1 0 0.04065
0 0 0
0 0 0
0.0100557 0 0
0.327993 0 0
0.808911 0 0
1 0 0.0416114
1 0 0.0495308
1 0 0.0424048
1 0 0.04065
0 0 0
0 0 0
0 0 0
0.2766 0 0
0.761471 0 0
1 0 0.0316625
1 0 0.0456397
1 0 0.04065
1 0 0.04065
0 0.248905 0.00994888
0 0.240421 0.00740063
0 0.196139 0
0.190143 0.187503 0
0.667964 0.126421 0
0.996231 0 0
1 0 0.0229496
1 0 0.0357671
1 0 0.04065
0.103456 0.632349 0.122271
0.100374 0.621485 0.11873
0.0860609 0.56878 0.103212
0.155871 0.522423 0.116564
0.551202 0.551034 0.114382
1 0.479728 0.0777295
1 0.436667 0
0.983673 0.360128 0
0.987869 0.197711 0
0.207187 0.915496 0.233463
0.203815 0.908034 0.23003
0.188418 0.87332 0.213565
0.168307 0.825986 0.19234
0.568368 0.827832 0.306554
0.840391 0.848005 0.231495
0.97818 0.836103 0.0433051
0.983871 0.798596 0.00254826
1 0.737697 0
0.224109 0.951156 0.251698
0.224109 0.951156 0.251698
0.224109 0.951156 0.251698
0.224109 0.951156 0.251698
0.669047 0.939239 0.371481
0.838743 0.951598 0.396078
0.964279 0.975265 0.299794
0.973861 0.974624 0.281376
0.972793 0.967163 0.266484
0.224109 0.951156 0.251698
0.224109 0.951156 0.251698
0.224109 0.951156 0.251698
0.224109 0.951156 0.251698
0.749844 0.943038 0.388479
0.875914 0.957671 0.383825
0.949905 0.972427 0.317632
0.974258 0.977264 0.287083
0.974258 0.977264 0.287083
0.224109 0.951156 0.251698
0.224109 0.951156 0.251698
0.224109 0.951156 0.251698
0.224109 0.951156 0.251698
0.786313 0.945907 0.394171
0.922606 0.966934 0.348211
0.960021 0.974563 0.305531
0.974258 0.977264 0.287083
0.974258 0.977264 0.287083
0 0 0.0967727
0 0 0.107652
0 0 0.192996
0.350698 0 0.217304
0.83241 0 0.223545
1 0 0.258106
1 0 0.278019
1 0 0.288991
1 0 0.282948
0 0 0.0936751
0 0 0.101259
0 0 0.181949
0.342763 0 0.21091
0.825391 0 0.217105
1 0 0.252491
1 0 0.272435
1 0 0.280919
1 0 0.276081
0 0 0.111803
0 0 0.110323
0 0 0.117372
0.280324 0 0.164202
0.764736 0 0.168399
1 0 0.212497
1 0 0.240711
1 0 0.25481
1 0 0.247623
0 0.226749 0.150408
0 0.223041 0.147951
0 0.203738 0.136706
0.177981 0.169253 0.123186
0.655512 0.0941024 0.0986648
0.993027 0 0.131212
1 0 0.147753
1 0 0.157992
1 0 0.176272
0.0996719 0.61828 0.11812
0.0984665 0.613977 0.116793
0.0909743 0.586847 0.108614
0.0748608 0.526436 0.0910964
0.535027 0.536278 0.115419
1 0.465995 0.101671
0.985962 0.432898 0.00665293
0.98555 0.330846 0.0344244
0.990616 0.155901 0.0526894
0.208026 0.917662 0.234531
0.206195 0.912856 0.232456
0.193698 0.886152 0.219455
0.173846 0.838987 0.197986
0.601251 0.811521 0.306538
0.827039 0.835111 0.226719
0.980026 0.822171 0.0273594
0.98761 0.779797 0
1 0.708675 0
0.224109 0.951156 0.251698
0.224109 0.951156 0.251698
0.224109 0.951156 0.251698
0.224109 0.951156 0.251698
0.663813 0.939147 0.371008
0.840589 0.951812 0.395697
0.960372 0.973373 0.302434
0.973571 0.972808 0.278019
0.971618 0.958801 0.249439
0.224109 0.951156 0.251698
0.224109 0.951156 0.251698
0.224109 0.951156 0.251698
0.224109 0.951156 0.251698
0.685374 0.940047 0.374609
0.889708 0.960235 0.375387
0.948089 0.972168 0.320104
0.974258 0.977264 0.287083
0.974258 0.977264 0.287083
0.224109 0.951156 0.251698
0.224109 0.951156 0.251698
0.224109 0.951156 0.251698
0.224109 0.951156 0.251698
0.707881 0.940963 0.379278
0.920165 0.966445 0.350423
0.96408 0.975372 0.30045
0.974258 0.977264 0.287083
0.974258 0.977264 0.287083
0 0 0.378927
0 0 0.396948
0 0 0.53785
0.310582 0 0.652628
0.841917 0 0.675227
1 0 0.71812
1 0 0.756924
1 0 0.794965
1 0 0.83241
0 0 0.372122
0 0 0.386877
0 0 0.514199
0.301762 0 0.644038
0.834302 0 0.666453
1 0 0.710262
1 0 0.750515
1 0 0.789044
1 0 0.825376
0 0 0.385214
0 0 0.386114
0 0 0.417456
0.229084 0 0.568078
0.773785 0 0.601068
1 0 0.652506
1 0 0.703014
1 0 0.753124
1 0 0.791897
0 0.0687877 0.476066
0 0.0614939 0.471138
0 0.0381018 0.446815
0.155077 0 0.450568
0.673945 0 0.506188
1 0 0.515419
1 0 0.534981
1 0 0.575265
1 0 0.66247
0 0.605142 0.525277
0 0.599359 0.520836
0 0.574197 0.499489
0 0.545251 0.477913
0.523796 0.504158 0.443183
0.911498 0.451011 0.419425
0.994156 0.366583 0.421286
0.997421 0.231357 0.413046
1 0 0.412863
0.0332036 0.939788 0.502815
0.0377813 0.935729 0.489113
0.0613413 0.915633 0.42266
0.110826 0.87454 0.311299
0.545342 0.810681 0.466224
0.815106 0.81915 0.472007
1 0.78584 0.35433
1 0.73077 0.382269
1 0.666209 0.370428
0.172732 0.97261 0.341909
0.196002 0.963378 0.303593
0.224109 0.951156 0.251698
0.224109 0.951156 0.251698
0.418952 0.94107 0.323552
0.857603 0.951934 0.500755
0.955642 0.96907 0.39884
0.972625 0.967132 0.316091
0.970916 0.950362 0.232639
0.224109 0.951156 0.251698
0.224109 0.951156 0.251698
0.224109 0.951156 0.251698
0.224109 0.951156 0.251698
0.490288 0.936385 0.332616
0.884596 0.959182 0.378729
0.94786 0.972122 0.320989
0.974258 0.977264 0.288762
0.974258 0.977264 0.287083
0.224109 0.951156 0.251698
0.224109 0.951156 0.251698
0.224109 0.951156 0.251698
0.224109 0.951156 0.251698
0.54229 0.935439 0.348653
0.897246 0.96173 0.37026
0.967803 0.976135 0.295811
0.974258 0.977264 0.287083
0.974258 0.977264 0.287083
0 0 0.688182
0 0 0.703349
0 0 0.808087
0.158206 0 0.920653
0.836347 0 0.94815
1 0 0.978668
1 0 0.993942
1 0 1
1 0 1
0 0 0.682139
0 0 0.694209
0 0 0.788617
0.146242 0 0.913542
0.827039 0 0.943633
1 0 0.975616
1 0 0.992233
1 0 1
1 0 1
0 0 0.684047
0 0 0.685725
0 0 0.717815
0.0438697 0 0.84329
0.752956 0 0.906508
1 0 0.949172
1 0 0.974929
1 0 0.994949
1 0 1
0 0 0.736767
0 0 0.732265
0 0 0.720317
0 0 0.743832
0.644495 0 0.839216
1 0 0.870054
1 0 0.888029
1 0 0.916945
1 0 0.966903
0 0.51429 0.808667
0 0.508965 0.804807
0 0.482261 0.787381
0 0.452934 0.764538
0.501579 0.410163 0.748516
0.918425 0.246799 0.793118
1 0.0689555 0.796902
1 0 0.806256
1 0 0.809491
0 0.898726 0.8607
0 0.893385 0.855421
0 0.873442 0.834836
0 0.850416 0.813657
0.226047 0.818128 0.781018
0.803006 0.778668 0.741756
0.981949 0.746822 0.725475
0.985626 0.695781 0.716686
0.990631 0.622705 0.704112
0 1 0.868727
0 1 0.861051
0 1 0.827344
0.0009308 1 0.769406
0.0147097 1 0.693843
0.833005 0.946456 0.772763
0.944671 0.951598 0.77319
0.972427 0.944289 0.71107
0.974853 0.926024 0.667674
0 1 0.785046
0.00123598 1 0.769116
0.0131228 1 0.703441
0.0387121 1 0.608606
0.0515602 1 0.573571
0.841733 0.955337 0.728756
0.949935 0.969741 0.770138
0.972854 0.974182 0.733166
0.97293 0.97435 0.711498
0.043946 1 0.593439
0.0510109 1 0.574899
0.0817578 1 0.504173
0.114794 0.993866 0.439475
0.147356 0.993332 0.46067
0.856062 0.955032 0.673823
0.960388 0.972076 0.701976
0.972946 0.974334 0.717281
0.972854 0.974365 0.691264
0 0 0.906783
0 0 0.914351
0 0 0.962966
0.0352636 0 1
0.820844 0 0.992569
1 0 1
1 0 1
1 0 1
1 0 1
0 0 0.902907
0 0 0.909453
0 0 0.953918
0 0 1
0.808728 0 0.992294
1 0 1
1 0 1
1 0 1
1 0 1
0 0 0.900893
0 0 0.902708
0 0 0.921874
0 0 0.976623
0.720104 0 0.991836
1 0 1
1 0 1
1 0 1
1 0 1
0 0 0.921416
0 0 0.919966
0 0 0.917098
0 0 0.935363
0.604929 0 0.973877
1 0 1
1 0 1
1 0 1
1 0 1
0 0.414588 0.955673
0 0.407126 0.95317
0 0.372229 0.941497
0 0.332204 0.933944
0.479835 0.249989 0.925155
0.923644 0 0.974487
1 0 0.99089
1 0 0.992645
1 0 0.995132
0 0.856489 0.9879
0 0.850156 0.985382
0 0.826703 0.976226
0 0.799695 0.966522
0.307057 0.76585 0.937987
0.786923 0.733028 0.921065
0.997391 0.672419 0.944579
1 0.606714 0.945846
1 0.503578 0.946593
0 1 1
0 1 1
0 1 1
0 0.999023 1
0 0.99057 0.994965
0.706279 0.94081 0.92903
0.936126 0.923033 0.914809
0.976974 0.910124 0.904356
0.977646 0.886961 0.896483
0 1 1
0 1 1
0 1 1
0 1 0.99205
0 1 0.970733
0.656397 0.986862 0.880034
0.942855 0.970672 0.915892
0.973114 0.975128 0.91696
0.975296 0.975082 0.908156
0 1 0.984939
0 1 0.979995
0 1 0.960327
0 1 0.919875
0 1 0.869902
0.731533 0.974273 0.816892
0.945983 0.969924 0.889632
0.973449 0.975341 0.904662
0.975082 0.97557 0.897581
0 0 1
0 0 1
0 0 1
0 0 1
0.801663 0 0.992126
1 0 1
1 0 1
1 0 1
1 0 1
0 0 1
0 0 1
0 0 1
0 0 1
0.787152 0 0.992111
1 0 1
1 0 1
1 0 1
1 0 1
0 0 0.999603
0 0 1
0 0 1
0 0 1
0.68925 0 0.992035
1 0 1
1 0 1
1 0 1
1 0 1
0 0 1
0 0 1
0 0 1
0 0 1
0.583932 0 0.993454
0.986847 0 1
1 0 1
1 0 1
1 0 1
0 0.370199 1
0 0.359136 1
0 0.320836 1
0 0.232715 1
0.469169 0.102586 0.987274
0.903075 0 0.9953
1 0 1
1 0 1
1 0 1
0 0.843198 1
0 0.83653 1
0 0.810758 1
0 0.782422 1
0.29987 0.750546 0.996338
0.784268 0.715572 0.978973
1 0.65565 0.987518
1 0.565957 0.992004
1 0.439109 0.994904
0 1 1
0 1 1
0 0.994583 1
0 0.985107 1
0.0570535 0.970642 1
0.746899 0.924804 0.975998
0.928985 0.91252 0.968048
0.98056 0.892058 0.971313
0.98201 0.866148 0.97174
0 1 1
0 1 1
0 1 1
0 1 1
0 1 1
0.691569 0.981704 0.983963
0.91313 0.969268 0.967361
0.969329 0.966583 0.96466
0.977462 0.963058 0.962753
0 1 1
0 1 1
0 1 1
0 1 1
0 1 1
0.58114 0.993896 0.985397
0.901015 0.977462 0.952377
0.970642 0.976013 0.964111
0.976577 0.976974 0.964721
0 0 1
0 0 1
0 0 1
0 0 1
0.775738 0 0.991943
1 0 1
1 0 1
1 0 1
1 0 1
0 0 1
0 0 1
0 0 1
0 0 1
0.755962 0 0.991943
1 0 1
1 0 1
1 0 1
1 0 1
0 0 1
0 0 1
0 0 1
0 0 1
0.662867 0 0.992248
1 0 1
1 0 1
1 0 1
1 0 1
0 0 1
0 0 1
0 0 1
0 0 1
0.574289 0 0.993729
0.967681 0 0.999084
1 0 1
1 0 1
1 0 1
0 0.389578 1
0 0.378393 1
0 0.332799 1
0 0.279942 1
0.46009 0.169131 0.987396
0.886488 0 0.993713
1 0 1
1 0 1
1 0 1
0 0.843595 1
0 0.838193 1
0 0.812726 1
0 0.786892 1
0.281025 0.756329 1
0.78146 0.721325 0.98294
0.991318 0.672724 0.986206
1 0.572671 0.991943
1 0.432502 0.995071
0 0.999954 1
0 0.998566 1
0 0.991791 1
0 0.982116 1
0.122271 0.964446 1
0.747845 0.924453 0.987549
0.927749 0.912139 0.978027
0.980728 0.892958 0.976272
0.982452 0.861234 0.976577
0 1 1
0 1 1
0 1 1
0 1 1
0 1 1
0.746212 0.975479 0.987961
0.923461 0.966674 0.976013
0.968338 0.964584 0.974914
0.978012 0.959594 0.975967
0 1 1
0 1 1
0 1 1
0 1 1
0 1 1
0.70518 0.985504 0.992142
0.913939 0.976852 0.977111
0.965423 0.975799 0.975036
0.97615 0.974823 0.97438
