public/sampleLut/1.cube
TITLE "Generated by Resolve"
LUT_3D_SIZE 33
0 0 0
0 0 0
0 0 0
0 0 0
0 0 0
0 0 0
0 0 0
0 0 0
0.0116579 0 0
0.0658427 0 0
0.131121 0 0
0.21622 0 0
0.33402 0 0
0.464302 0 0
0.591684 0 0
0.710582 0 0
0.815991 0 0
0.906355 0 0
0.982406 0 0
1 0 0.0103761
1 0 0.0214237
1 0 0.0289921
1 0 0.0337835
1 0 0.0367895
1 0 0.0381628
1 0 0.0386511
1 0 0.0399634
1 0 0.04065
1 0 0.04065
1 0 0.04065
1 0 0.04065
1 0 0.04065
1 0 0.04065
0 0 0
0 0 0
0 0 0
0 0 0
0 0 0
0 0 0
0 0 0
0 0 0
0.0116579 0 0
0.0655833 0 0
0.131121 0 0
0.216007 0 0
0.33402 0 0
0.464012 0 0
0.591684 0 0
0.710582 0 0
0.815778 0 0
0.906355 0 0
0.982406 0 0
1 0 0.0103151
1 0 0.0213931
1 0 0.0289616
1 0 0.0337835
1 0 0.0367895
1 0 0.0381628
1 0 0.0386511
1 0 0.0399176
1 0 0.04065
1 0 0.04065
1 0 0.04065
1 0 0.04065
1 0 0.04065
1 0 0.04065
0 0 0
0 0 0
0 0 0
0 0 0
0 0 0
0 0 0
0 0 0
0 0 0
0.0115663 0 0
0.0653086 0 0
0.130983 0 0
0.215137 0 0
0.333501 0 0
0.463691 0 0
0.591073 0 0
0.709987 0 0
0.815518 0 0
0.905913 0 0
0.982025 0 0
1 0 0.0101778
1 0 0.0213474
1 0 0.0289311
1 0 0.0337835
1 0 0.0367895
1 0 0.0381628
1 0 0.0386511
1 0 0.0399176
1 0 0.04065
1 0 0.04065
1 0 0.04065
1 0 0.04065
1 0 0.04065
1 0 0.04065
0 0 0
0 0 0
0 0 0
0 0 0
0 0 0
0 0 0
0 0 0
0 0 0
0.0110933 0 0
0.0650339 0 0
0.130022 0 0
0.214481 0 0
0.33257 0 0
0.461402 0 0
0.588998 0 0
0.707942 0 0
0.813687 0 0
0.904341 0 0
0.98085 0 0
1 0 0.0100404
1 0 0.021149
1 0 0.0288548
1 0 0.0337072
1 0 0.0367437
1 0 0.0381628
1 0 0.0386511
1 0 0.0398718
1 0 0.04065
1 0 0.04065
1 0 0.04065
1 0 0.04065
1 0 0.04065
1 0 0.04065
0 0 0
0 0 0
0 0 0
0 0 0
0 0 0
0 0 0
0 0 0
0 0 0
0.0104219 0 0
0.0644999 0 0
0.129305 0 0
0.212741 0 0
0.329442 0 0
0.458488 0 0
0.58648 0 0
0.705425 0 0
0.811063 0 0
0.902098 0 0
0.978866 0 0
1 0 0.00970474
1 0 0.0208743
1 0 0.0287022
1 0 0.0335851
1 0 0.0366979
1 0 0.038117
1 0 0.0386511
1 0 0.0397498
1 0 0.04065
1 0 0.04065
1 0 0.04065
1 0 0.04065
1 0 0.04065
1 0 0.04065
0 0 0
0 0 0
0 0 0
0 0 0
0 0 0
0 0 0
0 0 0
0 0 0
0.00886549 0 0
0.0620584 0 0
0.126421 0 0
0.210117 0 0
0.326299 0 0
0.4551 0 0
0.582696 0 0
0.701411 0 0
0.807584 0 0
0.900679 0 0
0.97615 0 0
1 0 0.00914015
1 0 0.0204929
1 0 0.0284581
1 0 0.0334325
1 0 0.0365911
1 0 0.0380713
1 0 0.0386511
1 0 0.0396735
1 0 0.04065
1 0 0.04065
1 0 0.04065
1 0 0.04065
1 0 0.04065
1 0 0.04065
0 0 0
0 0 0
0 0 0
0 0 0
0 0 0
0 0 0
0 0 0
0 0 0
0.00582895 0 0
0.0594186 0 0
0.122408 0 0
0.203784 0 0
0.317708 0 0
0.447349 0 0
0.575952 0 0
0.69575 0 0
0.801541 0 0
0.894286 0 0
0.971832 0 0
1 0 0.0083772
1 0 0.0198672
1 0 0.0281071
1 0 0.0332189
1 0 0.0364233
1 0 0.0380255
1 0 0.0386358
1 0 0.0395361
1 0 0.04065
1 0 0.04065
1 0 0.04065
1 0 0.04065
1 0 0.04065
1 0 0.04065
0 0 0
0 0 0
0 0 0
0 0 0
0 0 0
0 0 0
0 0 0
0 0 0
0 0 0
0.0508736 0 0
0.115084 0 0
0.195117 0 0
0.305165 0 0
0.434424 0 0
0.562203 0 0
0.682567 0 0
0.791653 0 0
0.886503 0 0
0.965881 0 0
1 0 0.00720226
1 0 0.0189517
1 0 0.0274357
1 0 0.0328527
1 0 0.0361944
1 0 0.0379339
1 0 0.0386358
1 0 0.0394141
1 0 0.04065
1 0 0.04065
1 0 0.04065
1 0 0.04065
1 0 0.04065
1 0 0.04065
0 0 0
0 0 0
0 0 0
0 0 0
0 0 0
0 0 0
0 0 0
0 0 0
0 0 0
0.0499428 0 0
0.103792 0 0
0.185031 0 0
0.289464 0 0
0.41471 0 0
0.541939 0 0
0.662623 0 0
0.773632 0 0
0.870314 0 0
0.952636 0 0
1 0 0.00447089
1 0 0.0174411
1 0 0.0263676
1 0 0.0323339
1 0 0.0357977
1 0 0.0378119
1 0 0.0386358
1 0 0.0392462
1 0 0.04065
1 0 0.04065
1 0 0.04065
1 0 0.04065
1 0 0.04065
1 0 0.04065
0 0.0317082 0
0 0.0315709 0
0 0.0307317 0
0 0.0291905 0
0 0.0256962 0
0 0.0216678 0
0 0.017792 0
0 0.0188296 0
0 0.0211948 0
0.0205081 0.0223087 0
0.113375 0.00953689 0
0.169833 0.0102388 0
0.272755 0 0
0.396765 0 0
0.522866 0 0
0.641764 0 0
0.752209 0 0
0.849363 0 0
0.933684 0 0
0.994888 0 0
1 0 0.0137789
1 0 0.0244755
1 0 0.0311894
1 0 0.0352178
1 0 0.0375219
1 0 0.0386206
1 0 0.0390784
1 0 0.04065
1 0 0.04065
1 0 0.04065
1 0 0.04065
1 0 0.04065
1 0 0.04065
0 0.0856489 0
0 0.0855116 0
0 0.0845197 0
0 0.0830701 0
0 0.0794537 0
0 0.0745098 0
0 0.0690318 0
0 0.0662394 0
0 0.0685588 0
0.0208438 0.0687419 0
0.0705882 0.0706188 0
0.180743 0.0554971 0
0.25568 0.0546731 0
0.372274 0.0391852 0
0.499443 0.00939956 0
0.622858 0 0
0.734859 0 0
0.831891 0 0
0.915496 0 0
0.986923 0 0
1 0 0.00590524
1 0 0.0179294
1 0 0.0264744
1 0 0.0326238
1 0 0.0365911
1 0 0.0383459
1 0 0.0388037
1 0 0.0403601
1 0 0.04065
1 0 0.04065
1 0 0.04065
1 0 0.04065
1 0 0.04065
0 0.14847 0
0 0.148272 0
0 0.147311 0
0 0.144945 0
0 0.139971 0
0 0.133974 0
0 0.126864 0
0 0.121691 0
0 0.122255 0
0.0124666 0.123491 0
0.0685435 0.123903 0
0.127565 0.126848 0
0.26804 0.10901 0
0.363684 0.104112 0
0.475059 0.0908675 0
0.594278 0.064332 0
0.708858 0.0219425 0
0.815244 0 0
0.900267 0 0
0.973007 0 0
1 0 0
1 0 0.0100099
1 0 0.0195315
1 0 0.0263371
1 0 0.0307927
1 0 0.0339971
1 0 0.0364996
1 0 0.0388495
1 0 0.04065
1 0 0.04065
1 0 0.04065
1 0 0.04065
1 0 0.04065
0 0.228962 0.00323491
0 0.228489 0.00320439
0 0.226841 0.00285344
0 0.223835 0.00175479
0 0.218845 0
0 0.211154 0
0 0.199893 0
0 0.190585 0
0 0.188312 0
0.00383001 0.191623 0
0.0531319 0.191485 0.0150759
0.12462 0.191623 0.0325628
0.20267 0.195422 0
0.372259 0.173632 0
0.490166 0.159457 0
0.572091 0.156954 0
0.683131 0.132113 0
0.785046 0.100694 0
0.87451 0.0558175 0
0.956588 0 0
1 0 0
1 0 0
1 0 0.00907912
1 0 0.0174411
1 0 0.0232242
1 0 0.0272831
1 0 0.0301823
1 0 0.0328069
1 0 0.035996
1 0 0.038117
1 0 0.0397955
1 0 0.04065
1 0 0.04065
0.0214542 0.323842 0.0326848
0.0213779 0.323552 0.0325933
0.0211643 0.322133 0.0323491
0.0200046 0.318639 0.0313573
0.0182498 0.312276 0.0294957
0.0156558 0.303044 0.026688
0.0121157 0.290547 0.0229801
0.00854505 0.278065 0.0192569
0.00677501 0.271946 0.0171969
0.0116274 0.274083 0.019089
0.0242008 0.278401 0.0237583
0.0855573 0.276143 0.0442817
0.194644 0.27718 0.0712444
0.290959 0.28307 0.0205081
0.456565 0.2663 0
0.623255 0.229664 0
0.680339 0.234592 0
0.76202 0.221515 0
0.851698 0.196963 0
0.92813 0.16643 0
0.980835 0.126009 0
0.994247 0.0692149 0
1 0.0191653 0
1 0 0.000808728
1 0 0.00910964
1 0 0.0148928
1 0 0.0197299
1 0 0.0232853
1 0 0.0273594
1 0 0.0307927
1 0 0.0332189
1 0 0.0354467
1 0 0.0379339
0.0482338 0.423667 0.0617685
0.0481575 0.423392 0.0616922
0.0477302 0.421729 0.0612192
0.0464942 0.417914 0.0599069
0.0450904 0.411719 0.0583352
0.0421454 0.401633 0.0554208
0.0390478 0.388937 0.0517586
0.0349126 0.374136 0.0475471
0.0324102 0.364935 0.0448005
0.0320592 0.363638 0.0444343
0.0347295 0.368536 0.0462654
0.0553292 0.371115 0.0530709
0.15874 0.366873 0.0876783
0.28397 0.372122 0.113527
0.386801 0.379034 0.0517586
0.529824 0.370336 0
0.726482 0.32462 0.00402838
0.814191 0.312139 0.00544747
0.850584 0.318685 0
0.909682 0.308736 0
0.967697 0.286763 0
0.985458 0.256718 0
0.986511 0.223438 0
0.988083 0.188113 0
0.989899 0.142885 0
0.992813 0.0910353 0
0.999619 0.0335088 0
1 0.00303655 0.00326543
1 0 0.0104524
1 0 0.0168002
1 0 0.0214847
1 0 0.0254215
1 0 0.0292058
0.0732586 0.520378 0.0892042
0.0730144 0.51986 0.0889601
0.0725872 0.518212 0.0884871
0.07187 0.514656 0.0876783
0.0697795 0.507576 0.08542
0.0672465 0.497902 0.0828107
0.0639048 0.484321 0.0789654
0.0600748 0.469718 0.0748608
0.057023 0.457847 0.071519
0.0557412 0.453071 0.0699931
0.0567941 0.456413 0.0711528
0.0577707 0.461738 0.0725261
0.119661 0.460349 0.0919814
0.265034 0.460395 0.137255
0.380758 0.467094 0.154253
0.480049 0.474327 0.0842756
0.612924 0.469718 0
0.786633 0.435264 0
0.905409 0.406973 0.0463264
0.962142 0.401923 0.0308995
0.984833 0.408469 0
0.992706 0.39881 0
0.985992 0.377935 0
0.983261 0.355169 0
0.983566 0.329702 0
0.984436 0.301671 0
0.985519 0.270649 0
0.986389 0.235187 0
0.987915 0.195819 0
0.990341 0.138796 0
0.994781 0.0683757 0
1 0.00726329 0.00303655
1 0 0.0112612
0.0975967 0.611658 0.115862
0.0975204 0.611383 0.115785
0.0970626 0.609766 0.115297
0.0963912 0.606561 0.114519
0.0943313 0.599924 0.112306
0.0919051 0.590539 0.109636
0.0881971 0.576745 0.105562
0.0840925 0.561517 0.101076
0.0808728 0.548806 0.0975357
0.0785534 0.540719 0.0950179
0.0784772 0.540459 0.0949416
0.079942 0.545968 0.0965286
0.083238 0.549584 0.0983902
0.2009 0.545876 0.136492
0.372702 0.552422 0.18172
0.473243 0.558053 0.189563
0.568338 0.565652 0.116365
0.68893 0.563714 0
0.819455 0.547463 0
0.962829 0.510567 0.0420081
1 0.494835 0.0821088
1 0.485496 0.0755932
1 0.471916 0.0582132
1 0.459449 0.033753
1 0.447013 0.00175479
1 0.433707 0
1 0.418341 0
0.992889 0.399466 0
0.985687 0.376333 0
0.983307 0.345525 0
0.984497 0.309651 0
0.985641 0.267582 0
0.987243 0.217304 0
0.123384 0.698787 0.143923
0.123308 0.698543 0.143832
0.122744 0.696727 0.143221
0.121508 0.693172 0.141772
0.119829 0.686976 0.139788
0.116609 0.676966 0.136568
0.112856 0.6645 0.132494
0.108217 0.648859 0.127443
0.104204 0.634958 0.123079
0.101656 0.625986 0.120287
0.100572 0.621958 0.118929
0.101442 0.625132 0.120027
0.109667 0.630076 0.123522
0.175845 0.630335 0.144976
0.349554 0.630167 0.202365
0.47155 0.638712 0.225345
0.561929 0.644465 0.221775
0.651911 0.651118 0.145815
0.757549 0.651621 0.0365454
0.861143 0.644724 0
0.987167 0.618402 0
1 0.59176 0.0732738
1 0.57557 0.0862287
1 0.559457 0.0911269
1 0.543832 0.0937514
1 0.528145 0.0938582
1 0.511711 0.0906539
1 0.495018 0.0827344
1 0.478325 0.0673381
1 0.461784 0.0393378
1 0.445243 0
1 0.425422 0
0.993225 0.400305 0
0.150057 0.777646 0.172473
0.149981 0.777264 0.172381
0.149325 0.775753 0.171679
0.147997 0.772198 0.170382
0.145892 0.766598 0.168276
0.142535 0.757336 0.164553
0.138537 0.745007 0.160037
0.133562 0.73077 0.15494
0.129183 0.716915 0.149935
0.125643 0.705898 0.146365
0.123735 0.700343 0.14432
0.123766 0.700481 0.144335
0.126085 0.704646 0.146166
0.126726 0.709346 0.147539
0.287175 0.705425 0.199481
0.462089 0.712093 0.246647
0.563958 0.717601 0.264515
0.646281 0.723537 0.251194
0.727367 0.729885 0.177234
0.819547 0.732036 0.0730144
0.905959 0.729152 0
0.985138 0.718181 0
1 0.699763 0
1 0.682902 0
1 0.665324 0.014725
1 0.647181 0.0346685
1 0.628305 0.0534981
1 0.609995 0.0680552
1 0.591089 0.0793774
1 0.570565 0.0882429
1 0.548989 0.0928817
1 0.526619 0.0937057
1 0.503273 0.0873426
0.177539 0.847913 0.201953
0.177462 0.8477 0.201862
0.176852 0.84622 0.201205
0.175463 0.843183 0.199725
0.173373 0.837842 0.197482
0.170047 0.829816 0.194202
0.16553 0.818448 0.189075
0.160204 0.804822 0.183368
0.154986 0.791272 0.177829
0.151049 0.78056 0.173556
0.148363 0.773205 0.170718
0.147356 0.770428 0.169833
0.14844 0.773404 0.170779
0.17969 0.77644 0.181445
0.281178 0.775204 0.214389
0.4448 0.776913 0.267887
0.562203 0.783917 0.28896
0.650523 0.787869 0.301366
0.723079 0.793683 0.278965
0.795407 0.799786 0.206455
0.872312 0.802686 0.110491
0.939986 0.801221 0.0391852
0.982864 0.796033 0.00108339
0.986114 0.786374 0
0.988907 0.775692 0
0.992218 0.764874 0
0.998062 0.751858 0
1 0.737499 0
1 0.721309 0
1 0.701823 0
1 0.679484 0.00112917
1 0.654063 0.0270848
1 0.62742 0.0542763
0.202304 0.904723 0.228428
0.202243 0.904585 0.228367
0.201999 0.903792 0.228092
0.200656 0.901228 0.226673
0.198749 0.897063 0.224643
0.195911 0.890837 0.221607
0.192218 0.882063 0.21767
0.187182 0.870634 0.212253
0.18172 0.858351 0.206683
0.177386 0.847501 0.20177
0.174105 0.839612 0.19826
0.172107 0.835218 0.196139
0.172213 0.835477 0.196246
0.173892 0.839078 0.198032
0.259236 0.838727 0.224994
0.430304 0.836133 0.28159
0.559792 0.841413 0.311055
0.653071 0.84535 0.328542
0.72697 0.848951 0.333852
0.790631 0.854429 0.304829
0.853361 0.860212 0.236194
0.912978 0.862913 0.153704
0.961273 0.862303 0.0918593
0.975448 0.856046 0.0685283
0.976318 0.848417 0.0584115
0.977493 0.840162 0.0476844
0.978531 0.831937 0.0383001
0.979995 0.822446 0.0276341
0.981659 0.812436 0.016556
0.98349 0.800732 0.00437934
0.985595 0.787961 0
0.989471 0.77377 0
0.995804 0.756298 0
0.220554 0.943664 0.247715
0.220508 0.943481 0.247669
0.22031 0.942824 0.247456
0.219379 0.941192 0.246586
0.217884 0.938079 0.245045
0.215808 0.933913 0.242847
0.213092 0.92813 0.239948
0.209888 0.92134 0.236515
0.205646 0.911665 0.231968
0.201602 0.903105 0.227665
0.197986 0.89546 0.223835
0.195895 0.890806 0.221592
0.195254 0.889357 0.22089
0.223865 0.88922 0.229557
0.28098 0.889418 0.247883
0.406607 0.886488 0.288609
0.560662 0.887724 0.332616
0.653864 0.892073 0.347906
0.730205 0.894591 0.360983
0.793256 0.898909 0.359289
0.848463 0.904387 0.325322
0.89868 0.909804 0.266102
0.941009 0.912413 0.203372
0.970336 0.910933 0.156497
0.970657 0.905303 0.146181
0.971084 0.899077 0.135149
0.971298 0.892699 0.124346
0.971847 0.885664 0.112764
0.972625 0.878431 0.101213
0.973678 0.869978 0.0884108
0.974716 0.860304 0.0742962
0.976165 0.849592 0.0599527
0.978012 0.837751 0.0451057
0.224109 0.951156 0.251698
0.224109 0.951156 0.251698
0.224109 0.951156 0.251698
0.224109 0.951156 0.251698
0.224109 0.951156 0.251698
0.224109 0.951156 0.251698
0.224109 0.951156 0.251698
0.224109 0.951156 0.251698
0.222263 0.947677 0.249744
0.219516 0.941497 0.246708
0.21677 0.935775 0.24387
0.214984 0.932082 0.241962
0.213947 0.929915 0.240848
0.213962 0.929961 0.240879
0.309331 0.926223 0.269276
0.458396 0.921523 0.317037
0.567788 0.92166 0.349065
0.659846 0.925872 0.363729
0.734676 0.928512 0.378973
0.79646 0.931746 0.386282
0.849638 0.936675 0.373922
0.894102 0.942184 0.33814
0.931456 0.946197 0.291066
0.961349 0.948745 0.245502
0.970748 0.946288 0.224308
0.970504 0.941726 0.215503
0.970352 0.937499 0.206943
0.970062 0.932754 0.19762
0.969985 0.927718 0.187778
0.970169 0.922408 0.177844
0.970306 0.916014 0.165621
0.970535 0.908263 0.151217
0.971084 0.899153 0.135271
0.224109 0.951156 0.251698
0.224109 0.951156 0.251698
0.224109 0.951156 0.251698
0.224109 0.951156 0.251698
0.224109 0.951156 0.251698
0.224109 0.951156 0.251698
0.224109 0.951156 0.251698
0.224109 0.951156 0.251698
0.224109 0.951156 0.251698
0.224109 0.951156 0.251698
0.224109 0.951156 0.251698
0.224109 0.951156 0.251698
0.224109 0.951156 0.251698
0.264698 0.948257 0.263127
0.383658 0.940993 0.298634
0.485176 0.936507 0.330846
0.594903 0.936065 0.360403
0.668376 0.939147 0.371374
0.736965 0.942107 0.38587
0.796262 0.946151 0.395224
0.84831 0.952041 0.393057
0.891142 0.958953 0.372076
0.926314 0.96553 0.339895
0.954528 0.970413 0.305989
0.973373 0.973266 0.27924
0.973373 0.971389 0.275151
0.972961 0.968383 0.268956
0.972442 0.965042 0.262135
0.972107 0.961608 0.255085
0.971496 0.957702 0.247242
0.971267 0.953704 0.239292
0.970855 0.949187 0.230259
0.970581 0.943191 0.218143
0.224109 0.951156 0.251698
0.224109 0.951156 0.251698
0.224109 0.951156 0.251698
0.224109 0.951156 0.251698
0.224109 0.951156 0.251698
0.224109 0.951156 0.251698
0.224109 0.951156 0.251698
0.224109 0.951156 0.251698
0.224109 0.951156 0.251698
0.224109 0.951156 0.251698
0.224109 0.951156 0.251698
0.224109 0.951156 0.251698
0.224109 0.951156 0.251698
0.273243 0.947753 0.2654
0.391684 0.940627 0.301274
0.544564 0.935409 0.349203
0.622385 0.937209 0.364462
0.684947 0.940032 0.374533
0.741573 0.942672 0.386892
0.795621 0.946609 0.395392
0.844144 0.952392 0.395056
0.885344 0.959319 0.378271
0.919249 0.966217 0.351385
0.946731 0.971939 0.321843
0.96817 0.976196 0.295354
0.974258 0.977264 0.287083
0.974243 0.977157 0.286885
0.974166 0.976593 0.285649
0.974075 0.976028 0.284169
0.973968 0.97528 0.282673
0.973831 0.97438 0.280858
0.973663 0.973373 0.279026
0.97351 0.972351 0.277104
0.224109 0.951156 0.251698
0.224109 0.951156 0.251698
0.224109 0.951156 0.251698
0.224109 0.951156 0.251698
0.224109 0.951156 0.251698
0.224109 0.951156 0.251698
0.224109 0.951156 0.251698
0.224109 0.951156 0.251698
0.224109 0.951156 0.251698
0.224109 0.951156 0.251698
0.224109 0.951156 0.251698
0.224109 0.951156 0.251698
0.224109 0.951156 0.251698
0.224109 0.951156 0.251698
0.47538 0.937011 0.327733
0.599771 0.936233 0.361212
0.65803 0.938872 0.370001
0.706142 0.940902 0.378851
0.755413 0.943465 0.389578
0.800702 0.947127 0.39617
0.844007 0.952377 0.395087
0.882307 0.958831 0.380301
0.914 0.965087 0.356374
0.940597 0.970611 0.328908
0.961639 0.974868 0.303639
0.973816 0.977172 0.287541
0.974258 0.977264 0.287083
0.974258 0.977264 0.287083
0.974258 0.977264 0.287083
0.974258 0.977264 0.287083
0.974258 0.977264 0.287083
0.974258 0.977264 0.287083
0.974258 0.977264 0.287083
0.224109 0.951156 0.251698
0.224109 0.951156 0.251698
0.224109 0.951156 0.251698
0.224109 0.951156 0.251698
0.224109 0.951156 0.251698
0.224109 0.951156 0.251698
0.224109 0.951156 0.251698
0.224109 0.951156 0.251698
0.224109 0.951156 0.251698
0.224109 0.951156 0.251698
0.224109 0.951156 0.251698
0.224109 0.951156 0.251698
0.224109 0.951156 0.251698
0.294697 0.946181 0.271382
0.551522 0.935225 0.350896
0.638926 0.937881 0.366918
0.693767 0.940276 0.376226
0.734997 0.942214 0.385611
0.77229 0.944671 0.392325
0.811841 0.948302 0.397253
0.849012 0.953124 0.393973
0.882445 0.958846 0.380194
0.911696 0.964553 0.358328
0.937026 0.969818 0.33286
0.957137 0.973907 0.3093
0.971878 0.976852 0.29012
0.974258 0.977264 0.287083
0.974258 0.977264 0.287083
0.974258 0.977264 0.287083
0.974258 0.977264 0.287083
0.974258 0.977264 0.287083
0.974258 0.977264 0.287083
0.974258 0.977264 0.287083
0.224109 0.951156 0.251698
0.224109 0.951156 0.251698
0.224109 0.951156 0.251698
0.224109 0.951156 0.251698
0.224109 0.951156 0.251698
0.224109 0.951156 0.251698
0.224109 0.951156 0.251698
0.224109 0.951156 0.251698
0.224109 0.951156 0.251698
