public/sampleLut/11.cube
TITLE "Generated by Resolve"
LUT_3D_SIZE 33
0.00869764 0.00869764 0.00869764
0.00869764 0.00869764 0.00869764
0.0121157 0.0121157 0.0121157
0.0183108 0.0183108 0.0183108
0.0251469 0.0251469 0.0251469
0.0374762 0.0376287 0.0378424
0.0519265 0.0513619 0.0524147
0.0695659 0.0646983 0.0674601
0.0927901 0.0763867 0.0819257
0.122652 0.084535 0.093904
0.162753 0.088426 0.103166
0.204227 0.0886244 0.108522
0.239002 0.0872206 0.110979
0.273762 0.0848554 0.112184
0.310521 0.0816663 0.112535
0.349584 0.07776 0.112169
0.390036 0.0732433 0.111116
0.43064 0.0683146 0.109453
0.469551 0.0635538 0.107668
0.508888 0.0585184 0.105501
0.546822 0.0535439 0.103182
0.581918 0.0488746 0.100877
0.610407 0.0449989 0.0988479
0.640986 0.0407263 0.0965286
0.671748 0.036347 0.0940871
0.704387 0.0315557 0.09131
0.737453 0.0266423 0.088426
0.771374 0.0214847 0.0852827
0.805966 0.0161746 0.082002
0.841047 0.0107576 0.0785992
0.876997 0.00601205 0.0750286
0.913573 0.00178531 0.0713664
0.950545 0.0018616 0.0675212
0.00869764 0.00869764 0.00869764
0.00869764 0.00869764 0.00869764
0.0121157 0.0121157 0.0121157
0.0183108 0.0183108 0.0183108
0.0251469 0.0251469 0.0251469
0.0374762 0.0376287 0.0378424
0.0519265 0.0513619 0.0524147
0.0695659 0.0646983 0.0674601
0.0927901 0.0763867 0.0819257
0.122652 0.084535 0.093904
0.162753 0.088426 0.103166
0.204227 0.0886244 0.108522
0.239002 0.0872206 0.110979
0.273762 0.0848554 0.112184
0.310521 0.0816663 0.112535
0.349584 0.07776 0.112169
0.390036 0.0732433 0.111116
0.43064 0.0683146 0.109453
0.469551 0.0635538 0.107668
0.508888 0.0585184 0.105501
0.546822 0.0535439 0.103182
0.581918 0.0488746 0.100877
0.610407 0.0449989 0.0988479
0.640986 0.0407263 0.0965286
0.671748 0.036347 0.0940871
0.704387 0.0315557 0.09131
0.737453 0.0266423 0.088426
0.771374 0.0214847 0.0852827
0.805966 0.0161746 0.082002
0.841047 0.0107576 0.0785992
0.876997 0.00601205 0.0750286
0.913573 0.00178531 0.0713664
0.950545 0.0018616 0.0675212
0.016434 0.016434 0.016434
0.016434 0.016434 0.016434
0.0204013 0.0204013 0.0204013
0.027039 0.0270542 0.0270542
0.03505 0.0353399 0.0354314
0.0483711 0.0491493 0.0497292
0.0631266 0.062562 0.0641642
0.0821393 0.075288 0.0786908
0.109209 0.0859846 0.0922866
0.146899 0.0925917 0.102998
0.194385 0.0949111 0.110155
0.241581 0.0940871 0.113634
0.279362 0.0918593 0.114549
0.316564 0.0888838 0.114473
0.355337 0.0852369 0.113695
0.395987 0.0809644 0.112276
0.437766 0.0762493 0.110384
0.4795 0.0713207 0.108125
0.517952 0.0665293 0.10573
0.556848 0.0616007 0.10312
0.595148 0.0565499 0.100313
0.631312 0.0516365 0.0974746
0.66096 0.0474861 0.0950179
0.692729 0.0429541 0.092256
0.724636 0.0383459 0.0894179
0.757931 0.0334783 0.0863661
0.791318 0.0284886 0.083238
0.826123 0.0232242 0.0797742
0.861357 0.0177768 0.0761883
0.897078 0.0122225 0.0724651
0.933394 0.00683604 0.0686198
0.968154 0.00189212 0.0646983
0.980194 0.00190738 0.0606241
0.0299382 0.0300145 0.0300145
0.0299382 0.0300145 0.0300145
0.0341192 0.0343938 0.0344091
0.0404974 0.0415351 0.0415961
0.0474098 0.0501106 0.0501869
0.0615854 0.0658732 0.0662852
0.0794995 0.0808728 0.081651
0.104829 0.09337 0.0949264
0.143069 0.102068 0.105058
0.191333 0.106188 0.111131
0.244556 0.106722 0.113802
0.295613 0.104936 0.114046
0.335378 0.10219 0.112947
0.374212 0.0988937 0.111223
0.41413 0.0952316 0.109102
0.455314 0.0910353 0.106493
0.497978 0.0862135 0.103273
0.541115 0.0809033 0.0996414
0.581552 0.0757 0.0959945
0.621729 0.0703288 0.092195
0.661997 0.0650339 0.088304
0.699779 0.0598917 0.0845502
0.73048 0.0555581 0.0813153
0.763394 0.0508125 0.0777752
0.79646 0.0460212 0.0741894
0.83032 0.0409857 0.0704051
0.864485 0.0358892 0.0665446
0.899413 0.0306249 0.062501
0.934966 0.0252079 0.0583658
0.970932 0.0197147 0.054139
0.984878 0.0140688 0.0498054
0.992447 0.00848402 0.0453956
0.992782 0.00454719 0.0409094
0.0431067 0.0447547 0.0445258
0.0431067 0.0447547 0.0445258
0.0467536 0.0496071 0.0492409
0.0517281 0.0575265 0.0569162
0.0579843 0.0682078 0.0670787
0.0649119 0.0794385 0.0766918
0.0863508 0.0980697 0.0943923
0.114672 0.111177 0.104463
0.163622 0.119783 0.109117
0.224979 0.122805 0.109102
0.289265 0.121843 0.106371
0.344564 0.119005 0.10309
0.38732 0.11574 0.100282
0.427604 0.112108 0.0973526
0.468605 0.108019 0.0940719
0.51104 0.103456 0.0903792
0.554894 0.0983749 0.086183
0.599023 0.0928817 0.08159
0.639872 0.0877394 0.0772869
0.681178 0.0823529 0.0726787
0.72166 0.0769513 0.0680095
0.759579 0.0717784 0.0635233
0.790341 0.0675059 0.0598154
0.823209 0.0628824 0.0558175
0.856199 0.0582132 0.0518044
0.889799 0.0533761 0.0476081
0.923568 0.0484627 0.0433814
0.957641 0.0434272 0.0390784
0.980194 0.0382696 0.0346532
0.990967 0.0330205 0.0301061
0.993149 0.0277409 0.0256504
0.993118 0.0224002 0.0211643
0.993072 0.0171054 0.0167849
0.0536049 0.0614328 0.0595407
0.0536049 0.0614328 0.0595407
0.0556344 0.0667735 0.0642863
0.057435 0.0757305 0.0721141
0.0621958 0.0892958 0.0833143
0.0695964 0.103761 0.0935378
0.0747692 0.116381 0.0986801
0.10576 0.132387 0.106752
0.157382 0.14107 0.109316
0.223774 0.144289 0.105394
0.296773 0.143496 0.0979324
0.367498 0.139696 0.0892195
0.419165 0.134874 0.082002
0.467048 0.129961 0.0754406
0.514412 0.124544 0.069276
0.562188 0.118837 0.0632944
0.609674 0.112947 0.0575113
0.655863 0.107118 0.0521096
0.697643 0.10161 0.0471809
0.739391 0.0962234 0.0421912
0.779889 0.0909895 0.0373846
0.817456 0.0861067 0.0329747
0.847578 0.0820935 0.0294499
0.879576 0.0778058 0.0260166
0.911604 0.0734875 0.0227817
0.942733 0.0690776 0.0194858
0.970397 0.0645609 0.0162051
0.985687 0.0600748 0.0127108
0.993317 0.0554208 0.00920119
0.993286 0.0506752 0.00563058
0.993255 0.0458991 0.00361639
0.993225 0.041062 0.00215152
0.993194 0.0362707 0.002121
0.0575723 0.0804608 0.0735332
0.0575723 0.0804608 0.0735332
0.0570535 0.0865492 0.0781415
0.0539864 0.0975204 0.0859846
0.0534371 0.114046 0.0957046
0.0571145 0.132692 0.103227
0.0664988 0.147036 0.10518
0.0748302 0.15848 0.101137
0.122881 0.168322 0.0986496
0.203784 0.171069 0.0959335
0.285328 0.169451 0.0893111
0.363226 0.165774 0.0777905
0.43003 0.160189 0.0654765
0.48275 0.154314 0.0552071
0.535729 0.148028 0.0454261
0.589044 0.141375 0.0363317
0.641825 0.134493 0.0278325
0.692927 0.127535 0.0201419
0.738598 0.121233 0.0159304
0.783688 0.115373 0.0118715
0.826337 0.109773 0.00822461
0.86537 0.104631 0.00520333
0.896437 0.100572 0.00315862
0.929 0.0963302 0.00238041
0.961318 0.092134 0.00241093
0.979828 0.0879377 0.00242618
0.9935 0.0837262 0.00242618
0.993469 0.0794385 0.00239567
0.993439 0.0751507 0.00236515
0.993408 0.0708782 0.00233463
0.993378 0.0666819 0.00231937
0.993362 0.0624704 0.00228885
0.993332 0.0584115 0.00225834
0.0519875 0.102724 0.0852369
0.0519875 0.102724 0.0852369
0.0477302 0.111299 0.0897841
0.0380255 0.127703 0.0967727
0.0285801 0.147051 0.102159
0.030045 0.164706 0.104219
0.0508736 0.179263 0.102693
0.0731212 0.18996 0.0968185
0.0824292 0.200107 0.0862135
0.136614 0.206012 0.0759747
0.238514 0.203632 0.0666056
0.347997 0.195636 0.059205
0.427924 0.189364 0.0489357
0.48159 0.183871 0.0385138
0.536156 0.177584 0.0268254
0.592966 0.170565 0.0145418
0.650431 0.163104 0.00695811
0.706661 0.155489 0.00233463
0.755444 0.148806 0.00238041
0.802167 0.142504 0.00244144
0.847028 0.136538 0.00248722
0.888319 0.131075 0.00251774
0.92105 0.126741 0.00256352
0.954482 0.122225 0.00259403
0.987198 0.117769 0.00262455
0.991897 0.113359 0.00260929
0.993652 0.108949 0.00257877
0.993622 0.104662 0.00256352
0.993606 0.100389 0.002533
0.993576 0.0962081 0.00250248
0.993545 0.0922103 0.00247196
0.993515 0.0882429 0.0024567
0.9935 0.0846113 0.00242618
0.0351263 0.132815 0.0934768
0.0351263 0.132815 0.0934768
0.0273899 0.145571 0.0964218
0.016083 0.166278 0.0996262
0.00819409 0.185122 0.100359
0.00593576 0.200732 0.0982223
0.0220798 0.213245 0.0933394
0.0637827 0.222095 0.0859541
0.0984207 0.229618 0.0746929
0.102052 0.239994 0.0588388
0.144701 0.246036 0.0406043
0.256641 0.240391 0.025391
0.396857 0.22565 0.0184176
0.477684 0.215396 0.0154879
0.529946 0.209583 0.009308
0.583673 0.203708 0.00424201
0.640223 0.196918 0.00247196
0.698848 0.189456 0.002533
0.750973 0.182513 0.00259403
0.798993 0.175998 0.00263981
0.845441 0.169863 0.00268559
0.88838 0.164309 0.00273136
0.922408 0.15993 0.00277714
0.957183 0.155383 0.00280766
0.991196 0.150912 0.00285344
0.993896 0.146471 0.00282292
0.993866 0.142061 0.0027924
0.993835 0.137789 0.00276188
0.99382 0.133577 0.00274662
0.99379 0.129427 0.00271611
0.993759 0.125444 0.00268559
0.993729 0.121492 0.00267033
0.993713 0.117815 0.00263981
0.0135958 0.172091 0.0948043
0.0135958 0.172091 0.0948043
0.00813306 0.185748 0.0953994
0.00289921 0.205844 0.0952163
0.00149538 0.223194 0.0930343
0.00157168 0.237522 0.0879225
0.00444038 0.248859 0.0797284
0.0326543 0.256992 0.0687724
0.0915084 0.261875 0.0556802
0.137804 0.266606 0.0403906
0.133318 0.278309 0.0210422
0.158587 0.286183 0.00541695
0.266392 0.280308 0.00309758
0.413016 0.262669 0.0034638
0.515221 0.24596 0.00254826
0.576013 0.237369 0.00260929
0.628382 0.231662 0.00267033
0.682628 0.225544 0.00273136
0.732906 0.219532 0.0027924
0.779644 0.213596 0.00285344
0.825498 0.207843 0.00289921
0.868849 0.202472 0.00294499
0.904402 0.198138 0.00299077
0.941344 0.193668 0.00302129
0.977829 0.189242 0.00306706
0.987991 0.184894 0.0030518
0.99411 0.180606 0.00303655
0.994095 0.176486 0.00302129
0.994064 0.172442 0.00299077
0.994034 0.168536 0.00296025
0.994018 0.164767 0.00294499
0.993988 0.161013 0.00291447
0.993973 0.157427 0.00289921
0.00195315 0.213184 0.0909743
0.00195315 0.213184 0.0909743
0.00151064 0.22591 0.0905928
0.00161746 0.245029 0.0881666
0.00172427 0.262287 0.0823987
0.00181582 0.276478 0.0732891
0.00187686 0.287129 0.0616465
0.0110475 0.294423 0.0477913
0.0588235 0.298253 0.0326696
0.132692 0.299199 0.0171054
0.191714 0.301259 0.00581369
0.177432 0.314565 0.00251774
0.183185 0.325216 0.00242618
0.272923 0.321614 0.00257877
0.411231 0.305623 0.00273136
0.537057 0.282856 0.00282292
0.614176 0.26891 0.00288396
0.670497 0.261921 0.00294499
0.717052 0.257038 0.00300603
0.759716 0.252384 0.0030518
0.800717 0.247791 0.00309758
0.839994 0.243381 0.00314336
0.873594 0.239689 0.00318914
0.909819 0.235706 0.00323491
0.946365 0.231693 0.00328069
0.973648 0.227573 0.00331121
0.994385 0.223453 0.00331121
0.994369 0.219379 0.00329595
0.994339 0.215366 0.00326543
0.994308 0.21146 0.00323491
0.994293 0.207675 0.00321965
0.994263 0.203906 0.00318914
0.994247 0.200305 0.00317388
0.00169375 0.255146 0.0851453
0.00169375 0.255146 0.0851453
0.00177005 0.268177 0.0824903
0.00189212 0.287816 0.0761273
0.00199893 0.304753 0.0664225
0.00207523 0.31809 0.0540322
0.002121 0.32781 0.0395666
0.00268559 0.333944 0.0237888
0.0293278 0.33666 0.00886549
0.0998703 0.336507 0.00328069
0.186633 0.334249 0.00259403
0.256779 0.333928 0.00262455
0.235111 0.349096 0.00267033
0.220645 0.363027 0.00273136
0.289128 0.362799 0.0028687
0.408988 0.350973 0.00302129
0.541085 0.326925 0.00311284
0.640116 0.306249 0.00317388
0.700862 0.29662 0.00321965
0.744488 0.291615 0.00328069
0.782437 0.287938 0.00332647
0.817441 0.28455 0.00337224
0.846983 0.281743 0.00340276
0.879713 0.278645 0.00344854
0.913222 0.275471 0.00349432
0.947951 0.272053 0.00354009
0.977737 0.268544 0.00357061
0.988952 0.264805 0.00357061
0.994629 0.260975 0.00355535
0.994598 0.257069 0.00352483
0.994583 0.253223 0.00350958
0.994553 0.249363 0.00347906
0.994537 0.245716 0.0034638
0.00196841 0.30106 0.0740826
0.00196841 0.30106 0.0740826
0.00205997 0.314275 0.0690013
0.00216678 0.333486 0.0588693
0.00227359 0.349599 0.0459907
0.00233463 0.3617 0.0310674
0.00238041 0.370016 0.0150149
0.00239567 0.374746 0.00399786
0.00531014 0.376318 0.00250248
0.0634775 0.37528 0.00251774
0.154498 0.37232 0.00267033
0.250751 0.368032 0.00282292
0.323857 0.366293 0.00296025
0.299458 0.382345 0.00300603
0.269017 0.399512 0.00306706
0.318868 0.402701 0.00317388
0.416815 0.395697 0.00332647
0.536049 0.375525 0.00341802
0.640604 0.352544 0.0034638
0.712734 0.338293 0.00350958
0.763622 0.330098 0.00355535
0.802274 0.325322 0.00360113
0.830228 0.322835 0.00364691
0.860822 0.320256 0.00367742
0.891981 0.317708 0.0037232
0.924422 0.315068 0.00376898
0.955688 0.3122 0.00381476
0.981765 0.309499 0.00384527
0.994919 0.306447 0.00384527
0.994904 0.303212 0.00383001
0.994873 0.299733 0.0037995
0.994858 0.296132 0.00378424
0.994827 0.292622 0.00375372
0.00227359 0.348989 0.0579232
0.00227359 0.348989 0.0579232
0.00234989 0.361837 0.0509346
0.0024567 0.38024 0.0381018
0.002533 0.394797 0.0229191
0.00259403 0.405264 0.0080415
0.00263981 0.411826 0.00270085
0.00265507 0.415091 0.00267033
0.00267033 0.415457 0.00265507
0.037583 0.413535 0.00271611
0.122683 0.410056 0.00285344
0.221973 0.405249 0.00300603
0.317098 0.400229 0.00315862
0.383246 0.399084 0.00328069
0.362921 0.414893 0.00334173
0.323552 0.43473 0.0033875
0.360235 0.440711 0.00349432
0.440558 0.437095 0.00363165
0.527581 0.423743 0.00370794
0.62446 0.403265 0.00376898
0.706447 0.385641 0.0037995
0.76997 0.372717 0.00384527
0.80882 0.366125 0.00387579
0.845151 0.361456 0.00392157
0.878645 0.358099 0.00395209
0.910201 0.355673 0.00399786
0.941665 0.353338 0.00404364
0.973342 0.351019 0.00408942
0.991028 0.348577 0.00410468
0.994461 0.346029 0.00410468
0.995163 0.343313 0.00408942
0.995132 0.34052 0.0040589
0.995117 0.337667 0.00404364
0.00259403 0.401312 0.0370489
0.00259403 0.401312 0.0370489
0.00267033 0.413397 0.0285039
0.00276188 0.429923 0.0135348
0.00283818 0.442496 0.00291447
0.00288396 0.450828 0.00291447
0.00291447 0.455528 0.00291447
0.00292973 0.456962 0.00292973
0.00291447 0.455909 0.00291447
0.0136873 0.453056 0.00291447
0.0920272 0.448997 0.00303655
0.193729 0.444022 0.00320439
0.292805 0.438849 0.00335698
0.379263 0.43415 0.00349432
0.438788 0.433799 0.00360113
0.423346 0.449897 0.00367742
0.381262 0.472206 0.00373846
0.405402 0.481163 0.00384527
0.462608 0.480491 0.00395209
0.525292 0.47274 0.00401312
0.60293 0.45803 0.00407416
0.681575 0.441138 0.00411994
0.743877 0.426886 0.0041352
0.799863 0.415137 0.00416571
0.849882 0.405386 0.00421149
0.89044 0.399893 0.00424201
0.928695 0.395315 0.00428779
0.961212 0.392813 0.00433356
0.982834 0.390478 0.00436408
0.993271 0.388327 0.00436408
0.995422 0.386084 0.00436408
0.995407 0.383764 0.00434882
0.995392 0.381323 0.00433356
0.00292973 0.456199 0.0117952
0.00292973 0.456199 0.0117952
0.00299077 0.467094 0.00534066
0.00308232 0.481468 0.00308232
0.00314336 0.491707 0.00314336
0.00318914 0.498177 0.00318914
0.00320439 0.500938 0.00320439
0.00320439 0.500755 0.00320439
0.00318914 0.498482 0.00318914
0.00317388 0.49482 0.00317388
0.0664073 0.490211 0.00326543
0.167224 0.484993 0.00341802
0.269337 0.480064 0.00358587
0.358328 0.47567 0.0037232
0.43801 0.471443 0.00384527
0.484016 0.471885 0.00393683
0.474708 0.488411 0.00402838
0.438422 0.512245 0.00410468
0.449134 0.522881 0.00419623
0.4822 0.525063 0.00427253
0.527703 0.522133 0.00433356
0.582055 0.5149 0.0043946
0.637934 0.504555 0.00444038
0.702449 0.490517 0.00447089
0.769924 0.474739 0.00450141
0.830701 0.461341 0.00453193
0.888029 0.449348 0.00456245
0.934615 0.441794 0.00459297
0.9691 0.436057 0.00462348
0.991165 0.432181 0.00463874
0.995712 0.429709 0.00463874
0.995697 0.427588 0.00462348
0.995682 0.425574 0.00460822
0.00328069 0.513008 0.00328069
0.00328069 0.513008 0.00328069
0.00334173 0.522286 0.00334173
0.00341802 0.534066 0.00341802
0.0034638 0.541726 0.0034638
0.00349432 0.545556 0.00349432
0.00349432 0.546395 0.00349432
0.00349432 0.544778 0.00349432
0.0034638 0.541436 0.0034638
0.00343328 0.536995 0.00343328
0.045304 0.532006 0.00347906
0.142473 0.527321 0.00364691
0.246784 0.522805 0.00381476
0.337758 0.518761 0.00395209
0.420142 0.51487 0.00408942
0.484596 0.51107 0.00418097
0.524102 0.51223 0.00427253
0.516762 0.528817 0.00436408
0.487007 0.551339 0.00445563
0.485542 0.56408 0.00453193
0.504509 0.569574 0.00459297
0.534722 0.57052 0.004654
0.567208 0.568658 0.00471504
0.612253 0.562829 0.00476081
0.663096 0.554879 0.00480659
0.727947 0.540597 0.00483711
0.794354 0.525643 0.00486763
0.861097 0.510597 0.00489815
0.922286 0.49781 0.00492866
0.977554 0.487373 0.00497444
0.99205 0.480629 0.00495918
0.996002 0.474983 0.00492866
0.995987 0.472038 0.00491341
0.00364691 0.570016 0.00364691
0.00364691 0.570016 0.00364691
0.00369268 0.577478 0.00369268
0.00375372 0.586435 0.00375372
0.00378424 0.591516 0.00378424
0.0037995 0.593072 0.0037995
0.00378424 0.591989 0.00378424
0.00376898 0.589151 0.00376898
0.00373846 0.584924 0.00373846
0.00370794 0.580148 0.00370794
0.0260929 0.57557 0.0037232
0.119554 0.571328 0.00387579
0.224842 0.56701 0.00404364
0.318044 0.563287 0.00419623
0.402838 0.55967 0.00434882
0.472755 0.55642 0.00445563
0.526833 0.552941 0.00453193
0.56527 0.554757 0.00462348
0.560922 0.56939 0.00469978
0.535714 0.589822 0.00479133
0.525078 0.604868 0.00486763
0.529671 0.614099 0.00492866
0.546441 0.617273 0.0049897
0.571984 0.618204 0.00503548
0.602029 0.617685 0.00509651
0.64567 0.612451 0.00514229
0.693919 0.605341 0.00518807
0.753765 0.593088 0.00521859
0.819501 0.578988 0.0052491
0.890669 0.563104 0.00529488
0.946868 0.549523 0.00531014
0.995438 0.536843 0.0053254
0.996017 0.528756 0.00526436
0.00396735 0.620737 0.00396735
0.00396735 0.620737 0.00396735
0.00401312 0.626459 0.00401312
0.0040589 0.632853 0.0040589
0.00407416 0.635691 0.00407416
0.00407416 0.635203 0.00407416
0.00404364 0.632715 0.00404364
0.00402838 0.628748 0.00402838
0.00399786 0.624262 0.00399786
0.00396735 0.619837 0.00396735
0.00952163 0.615625 0.00395209
0.0997482 0.61149 0.00408942
0.205676 0.607691 0.00427253
0.30106 0.604242 0.00444038
0.387549 0.600702 0.00457771
0.463142 0.597681 0.00469978
0.517143 0.594568 0.00477607
0.569802 0.591882 0.00486763
0.600748 0.594965 0.00494392
0.59884 0.608072 0.00502022
0.581155 0.625635 0.00509651
0.565042 0.641718 0.00517281
0.561379 0.651545 0.00523384
0.570275 0.657877 0.00527962
0.586191 0.661952 0.00534066
0.614008 0.662348 0.00540169
0.64567 0.661402 0.00544747
0.686839 0.656977 0.00550851
0.735378 0.649485 0.00555428
0.791012 0.638956 0.0055848
0.857542 0.624887 0.00561532
0.925414 0.609842 0.0056611
0.968383 0.595682 0.00564584
0.00425727 0.666102 0.00425727
0.00425727 0.666102 0.00425727
0.00428779 0.670344 0.00428779
0.0043183 0.673991 0.0043183
0.0043183 0.674937 0.0043183
0.00430304 0.672908 0.00430304
0.00428779 0.669337 0.00428779
0.00425727 0.665187 0.00425727
0.00422675 0.661006 0.00422675
0.00421149 0.656825 0.00421149
0.00520333 0.652857 0.00418097
0.0831311 0.648951 0.00430304
0.187945 0.645502 0.00448615
0.285344 0.642313 0.00463874
0.373693 0.63917 0.00479133
0.452613 0.63621 0.00492866
0.508415 0.633402 0.00502022
0.562707 0.630365 0.00509651
0.60766 0.629038 0.00517281
0.631785 0.63357 0.0052491
0.632959 0.644846 0.0053254
0.62208 0.659358 0.00540169
0.607309 0.673167 0.00544747
0.599908 0.684855 0.00550851
0.597208 0.694942 0.00556954
0.61146 0.699718 0.00563058
0.629938 0.703487 0.00569162
0.658259 0.703761 0.00575265
0.692653 0.701793 0.00579843
0.732754 0.697673 0.00584421
0.784039 0.688991 0.00588998
0.83856 0.679362 0.00593576
0.900282 0.665583 0.00596628
0.00453193 0.70721 0.00453193
0.00453193 0.70721 0.00453193
0.00454719 0.710018 0.00454719
0.00456245 0.711772 0.00456245
0.00454719 0.710582 0.00454719
0.00453193 0.707469 0.00453193
0.00450141 0.703716 0.00450141
0.00448615 0.699748 0.00448615
0.00445563 0.695811 0.00445563
0.00442512 0.691951 0.00442512
0.00440986 0.688151 0.00440986
0.0685893 0.684688 0.00450141
0.17229 0.681376 0.00468452
0.271336 0.67834 0.00485237
0.361212 0.675502 0.00500496
0.442283 0.672694 0.00514229
0.500755 0.670115 0.00523384
0.555398 0.667231 0.0053254
0.604181 0.664881 0.00540169
0.64271 0.664546 0.00546273
0.663355 0.669734 0.00553903
0.668162 0.679072 0.00561532
0.65922 0.690898 0.0056611
0.647059 0.704295 0.00572213
0.633356 0.718166 0.00579843
0.632364 0.728206 0.00585946
0.635859 0.736828 0.0059205
0.652216 0.741222 0.00598154
0.674784 0.743542 0.00602731
0.703288 0.743786 0.00608835
0.740307 0.740597 0.00613413
0.781201 0.736049 0.0061799
0.835416 0.726772 0.00622568
0.00476081 0.743603 0.00476081
0.00476081 0.743603 0.00476081
0.00477607 0.745098 0.00477607
0.00477607 0.745068 0.00477607
0.00476081 0.742565 0.00476081
0.0047303 0.73901 0.0047303
0.00471504 0.735439 0.00471504
0.00468452 0.731701 0.00468452
0.004654 0.727993 0.004654
0.00463874 0.724422 0.00463874
0.00460822 0.720821 0.00460822
0.0558022 0.717479 0.00468452
0.158663 0.714534 0.00486763
0.258961 0.711604 0.00503548
0.350057 0.708965 0.00518807
0.432731 0.706371 0.00534066
0.494072 0.70399 0.00543221
0.548989 0.701259 0.00552377
0.598047 0.699031 0.00560006
0.642603 0.696849 0.00567636
0.676738 0.697566 0.00573739
0.697322 0.701625 0.00581369
0.701396 0.709133 0.00585946
0.693828 0.721096 0.0059205
0.679454 0.735332 0.0059968
0.667109 0.749264 0.00605783
0.658396 0.762051 0.00611887
0.662394 0.770626 0.0061799
0.673701 0.776776 0.00624094
0.692241 0.780468 0.00630198
0.718791 0.781323 0.00636301
0.748577 0.781079 0.00640879
0.788022 0.776898 0.00645457
0.00494392 0.771588 0.00494392
0.00494392 0.771588 0.00494392
0.00494392 0.772076 0.00494392
0.00492866 0.770596 0.00492866
0.00491341 0.767727 0.00491341
0.00489815 0.764538 0.00489815
0.00486763 0.761105 0.00486763
0.00485237 0.757488 0.00485237
0.00482185 0.754025 0.00482185
0.00480659 0.750622 0.00480659
0.00479133 0.747265 0.00479133
0.0458228 0.743938 0.00483711
0.148196 0.741314 0.00502022
0.249287 0.738491 0.00518807
0.341253 0.735958 0.00535592
0.425177 0.733501 0.00549325
0.48893 0.731334 0.00560006
0.54406 0.728649 0.00569162
0.593286 0.726528 0.00576791
0.638056 0.72462 0.00584421
0.67718 0.723552 0.00590524
0.706798 0.724559 0.00596628
0.721889 0.728222 0.00602731
0.725231 0.736461 0.00608835
0.721309 0.747204 0.00614939
0.706264 0.762264 0.00621042
0.692012 0.777096 0.00628672
0.684169 0.7897 0.00634775
0.684886 0.799435 0.00640879
0.694255 0.806226 0.00646983
0.713802 0.809613 0.00653086
0.73698 0.811841 0.0065919
0.767941 0.810864 0.00663767
0.00511177 0.799451 0.00511177
0.00511177 0.799451 0.00511177
0.00511177 0.799283 0.00511177
0.00511177 0.797299 0.00511177
0.00508125 0.794461 0.00508125
0.005066 0.791424 0.005066
0.00505074 0.78819 0.00505074
0.00502022 0.784772 0.00502022
0.00500496 0.781552 0.00500496
0.0049897 0.778317 0.0049897
0.00495918 0.775235 0.00495918
0.0357977 0.772076 0.00500496
0.137377 0.769619 0.00517281
0.239292 0.76701 0.00535592
0.33228 0.764706 0.00552377
0.417563 0.762417 0.0056611
0.483711 0.760311 0.00578317
0.539193 0.757885 0.00585946
0.588617 0.755886 0.00595102
0.633585 0.75407 0.00602731
0.6748 0.752407 0.00608835
0.709346 0.751766 0.00614939
0.732158 0.752728 0.00619516
0.745495 0.757473 0.0062562
0.752819 0.764279 0.00631724
0.743526 0.777401 0.00637827
0.732204 0.791287 0.00645457
0.718425 0.806073 0.0065156
0.710765 0.818769 0.00657664
0.709468 0.829221 0.00665293
0.71986 0.835798 0.00671397
0.734447 0.841047 0.00677501
0.758114 0.842817 0.00682078
0.00529488 0.826276 0.00529488
0.00529488 0.826276 0.00529488
0.00527962 0.825696 0.00527962
0.00527962 0.823804 0.00527962
0.00526436 0.821225 0.00526436
0.00523384 0.818204 0.00523384
0.00521859 0.815183 0.00521859
0.00520333 0.812024 0.00520333
0.00517281 0.809033 0.00517281
0.00515755 0.805966 0.00515755
0.00514229 0.803128 0.00514229
0.0260624 0.800229 0.00515755
0.126711 0.797879 0.00534066
0.229435 0.79556 0.00552377
0.323522 0.7935 0.00569162
0.410163 0.791424 0.00582895
0.47863 0.789288 0.00595102
0.534539 0.787198 0.00604257
0.584161 0.785351 0.00613413
0.629282 0.783642 0.00619516
0.670787 0.781979 0.00627146
0.707652 0.780575 0.00633249
0.735882 0.779629 0.00637827
0.758541 0.781079 0.00643931
0.777035 0.783917 0.00648508
0.778485 0.793256 0.00654612
0.774701 0.804364 0.00660716
0.759014 0.820249 0.00668345
0.744686 0.835386 0.00675975
0.731945 0.849821 0.00682078
0.732433 0.859785 0.00688182
0.737499 0.868299 0.00694286
0.754757 0.872465 0.00700389
