public/sampleLut/11.cube
TITLE "Generated by Resolve"
LUT_3D_SIZE 9
0.00869764 0.00869764 0.00869764
0.0251469 0.0251469 0.0251469
0.0927901 0.0763867 0.0819257
0.239002 0.0872206 0.110979
0.390036 0.0732433 0.111116
0.546822 0.0535439 0.103182
0.671748 0.036347 0.0940871
0.805966 0.0161746 0.082002
0.950545 0.0018616 0.0675212
0.0431067 0.0447547 0.0445258
0.0579843 0.0682078 0.0670787
0.163622 0.119783 0.109117
0.38732 0.11574 0.100282
0.554894 0.0983749 0.086183
0.72166 0.0769513 0.0680095
0.856199 0.0582132 0.0518044
0.980194 0.0382696 0.0346532
0.993072 0.0171054 0.0167849
0.0351263 0.132815 0.0934768
0.00819409 0.185122 0.100359
0.0984207 0.229618 0.0746929
0.396857 0.22565 0.0184176
0.640223 0.196918 0.00247196
0.845441 0.169863 0.00268559
0.991196 0.150912 0.00285344
0.99382 0.133577 0.00274662
0.993713 0.117815 0.00263981
0.00196841 0.30106 0.0740826
0.00227359 0.349599 0.0459907
0.00531014 0.376318 0.00250248
0.323857 0.366293 0.00296025
0.416815 0.395697 0.00332647
0.763622 0.330098 0.00355535
0.891981 0.317708 0.0037232
0.994919 0.306447 0.00384527
0.994827 0.292622 0.00375372
0.00328069 0.513008 0.00328069
0.0034638 0.541726 0.0034638
0.0034638 0.541436 0.0034638
0.246784 0.522805 0.00381476
0.524102 0.51223 0.00427253
0.504509 0.569574 0.00459297
0.663096 0.554879 0.00480659
0.922286 0.49781 0.00492866
0.995987 0.472038 0.00491341
0.00453193 0.70721 0.00453193
0.00454719 0.710582 0.00454719
0.00445563 0.695811 0.00445563
0.17229 0.681376 0.00468452
0.500755 0.670115 0.00523384
0.663355 0.669734 0.00553903
0.633356 0.718166 0.00579843
0.674784 0.743542 0.00602731
0.835416 0.726772 0.00622568
0.00529488 0.826276 0.00529488
0.00526436 0.821225 0.00526436
0.00517281 0.809033 0.00517281
0.126711 0.797879 0.00534066
0.47863 0.789288 0.00595102
0.670787 0.781979 0.00627146
0.777035 0.783917 0.00648508
0.744686 0.835386 0.00675975
0.754757 0.872465 0.00700389
0.00598154 0.93344 0.00598154
0.00595102 0.930159 0.00595102
0.00590524 0.92137 0.00590524
0.0881666 0.913481 0.00601205
0.461509 0.908141 0.00668345
0.656397 0.902907 0.00701915
0.784741 0.899626 0.00723278
0.884321 0.90605 0.00746166
0.858412 0.953048 0.0395972
0.00637827 0.997452 0.00637827
0.00637827 0.997452 0.00637827
0.00637827 0.997452 0.00637827
0.0539406 0.997543 0.00646983
0.442115 0.997955 0.00721752
0.650919 0.99588 0.0148623
0.79205 0.987503 0.075227
0.907332 0.976974 0.192905
0.966476 0.973007 0.422782
0.00883497 0.00883497 0.00883497
0.0266117 0.026627 0.026627
0.0948196 0.0774243 0.0902113
0.247013 0.0855573 0.138888
0.400473 0.0698711 0.15201
0.557168 0.0489052 0.153964
0.683619 0.03093 0.15172
0.818235 0.00994888 0.14612
0.963912 0.0019379 0.137804
0.0447852 0.0468452 0.0473182
0.0590066 0.0706035 0.0729381
0.1523 0.119326 0.140581
0.37351 0.116915 0.156786
0.548867 0.0978561 0.148089
0.718929 0.074876 0.133928
0.85507 0.0556649 0.121202
0.980056 0.035462 0.106828
0.993103 0.0140688 0.0911116
0.032166 0.135943 0.110796
0.00643931 0.186954 0.134798
0.0970779 0.228031 0.134447
0.421683 0.21648 0.102693
0.656153 0.189441 0.0625162
0.844099 0.165133 0.03888
0.976974 0.149218 0.0264591
0.993835 0.135485 0.0168612
0.993744 0.122896 0.0115511
0.00201419 0.303288 0.121965
0.00231937 0.350362 0.109728
0.00268559 0.374395 0.0655222
0.320348 0.362905 0.0230106
0.509468 0.367239 0.00393683
0.765042 0.325795 0.00424201
0.897642 0.313985 0.00384527
0.994873 0.299992 0.0037995
0.994797 0.286198 0.0037232
0.00332647 0.514412 0.0589914
0.00347906 0.541176 0.0285344
0.00344854 0.539361 0.00402838
0.240909 0.520806 0.00395209
0.523308 0.509819 0.00425727
0.53286 0.558556 0.00457771
0.748684 0.522179 0.00476081
0.95967 0.480751 0.00489815
0.995972 0.470314 0.00489815
0.00453193 0.706905 0.0047303
0.00454719 0.709194 0.00454719
0.00444038 0.694316 0.00444038
0.167575 0.680217 0.00466926
0.498314 0.669322 0.00521859
0.662165 0.668681 0.00552377
0.637171 0.715801 0.00578317
0.708446 0.731106 0.00601205
0.907988 0.698634 0.00619516
0.00527962 0.824659 0.00527962
0.0052491 0.819959 0.0052491
0.00517281 0.807889 0.00517281
0.122728 0.797253 0.0053254
0.476967 0.789029 0.00595102
0.669261 0.781765 0.00627146
0.777523 0.783078 0.00648508
0.74461 0.835233 0.00674449
0.778485 0.86421 0.00700389
0.00596628 0.932189 0.00596628
0.00595102 0.929183 0.00595102
0.00588998 0.920699 0.00588998
0.0848554 0.9131 0.0059968
0.459785 0.908095 0.00668345
0.655299 0.903105 0.00701915
0.783902 0.900008 0.00723278
0.885206 0.906279 0.00747692
0.858686 0.953185 0.0399939
0.00637827 0.997452 0.00637827
0.00637827 0.997452 0.00637827
0.00637827 0.997452 0.00637827
0.0513619 0.997543 0.00646983
0.440696 0.998093 0.00721752
0.652934 0.996033 0.0154879
0.794858 0.987182 0.0861067
0.909514 0.975143 0.275196
0.9664 0.972168 0.52398
0.00967422 0.00967422 0.00967422
0.0529335 0.0511635 0.0557107
0.0959029 0.0781567 0.10425
0.255985 0.0826429 0.190478
0.411399 0.0644541 0.22417
0.566644 0.0425116 0.240803
0.694667 0.0230564 0.248554
0.82945 0.00341802 0.252247
0.971115 0.00201419 0.25301
0.0459602 0.0482795 0.0501869
0.0583963 0.071397 0.0810559
0.147616 0.118044 0.192477
0.375891 0.111803 0.252598
0.553399 0.0903487 0.261082
0.723751 0.0659495 0.260182
0.860456 0.0457923 0.256352
0.983764 0.0248417 0.249912
0.993149 0.00497444 0.241428
0.0287327 0.138537 0.14316
0.00457771 0.18735 0.197986
0.101274 0.22266 0.245441
0.410086 0.210163 0.245518
0.622675 0.187411 0.231891
0.799146 0.166125 0.217899
0.929183 0.150851 0.207553
0.993957 0.136355 0.19765
0.993866 0.122652 0.188266
0.00207523 0.304219 0.208499
0.00238041 0.348882 0.223468
0.00262455 0.369757 0.212482
0.312367 0.355398 0.185702
0.57966 0.335134 0.171145
0.781964 0.315145 0.144305
0.919982 0.30222 0.132967
0.994904 0.291508 0.126513
0.994842 0.282338 0.122606
0.00340276 0.513237 0.192905
0.00355535 0.537865 0.179721
0.00352483 0.534127 0.155093
0.227985 0.516091 0.141299
0.520455 0.50425 0.129931
0.624994 0.521752 0.0881971
0.834699 0.482719 0.118929
0.963134 0.473869 0.113283
0.995987 0.463066 0.0959793
0.00459297 0.703761 0.138857
0.00459297 0.704356 0.129168
0.00448615 0.689921 0.118624
0.155673 0.676249 0.110002
0.492271 0.665797 0.104326
0.657603 0.66508 0.093431
0.654505 0.705364 0.0511788
0.798871 0.69453 0.0408637
0.985855 0.65069 0.0761425
0.00531014 0.820279 0.10782
0.00527962 0.815549 0.104387
0.00520333 0.80412 0.0972152
0.112047 0.793713 0.0919051
0.471656 0.786099 0.0894636
0.664454 0.779339 0.0869001
0.776135 0.779507 0.0812085
0.749218 0.82977 0.0375982
0.838575 0.840238 0.0186618
0.0059968 0.928374 0.0848554
0.00598154 0.925704 0.0835737
0.0059205 0.917845 0.0797894
0.075349 0.910597 0.0778058
0.453666 0.905852 0.0786145
0.651316 0.901595 0.0785229
0.780423 0.898238 0.078706
0.883619 0.904082 0.0742504
0.861082 0.949248 0.0832074
0.00642405 0.997497 0.0645914
0.00642405 0.997497 0.0654154
0.00642405 0.997497 0.0650492
0.0426642 0.997513 0.0666819
0.434684 0.997513 0.072694
0.656443 0.994202 0.119738
0.803037 0.982452 0.256733
0.913893 0.97145 0.462821
0.967483 0.971984 0.688243
0.0124971 0.0124971 0.0124971
0.0471962 0.0467689 0.0519722
0.0979477 0.0792096 0.122942
0.264897 0.0788434 0.25391
0.421469 0.0584421 0.307317
0.574685 0.0353246 0.336156
0.702739 0.0147555 0.353307
0.838132 0.00183108 0.366125
0.974533 0.00210575 0.375387
0.0429236 0.0442969 0.0464485
0.0577707 0.0728923 0.0925307
0.197559 0.112688 0.273518
0.375799 0.106126 0.35584
0.555261 0.0831006 0.380011
0.725628 0.057496 0.389731
0.861387 0.0367132 0.393256
0.984314 0.0155795 0.393408
0.993225 0.00242618 0.390539
0.0251621 0.140902 0.181064
0.00318914 0.186923 0.266361
0.0815442 0.218021 0.364691
0.394324 0.203738 0.391638
0.614862 0.180117 0.386542
0.791516 0.158679 0.376532
0.920165 0.143572 0.368338
0.994018 0.129809 0.359625
0.993927 0.116548 0.350713
0.00213626 0.303838 0.299779
0.00244144 0.346181 0.342535
0.00256352 0.363943 0.363745
0.304372 0.347417 0.352102
0.570596 0.32874 0.339574
0.750408 0.314092 0.330785
0.873518 0.304265 0.325002
0.986969 0.294865 0.319478
0.994995 0.285817 0.314122
0.00347906 0.510735 0.331868
0.00363165 0.533135 0.334951
0.00358587 0.528206 0.32166
0.212894 0.510445 0.308736
0.51667 0.497597 0.298497
0.706767 0.484794 0.291936
0.846342 0.473854 0.275547
0.980087 0.462577 0.263859
0.996017 0.452857 0.25803
0.00466926 0.699565 0.302373
0.00466926 0.699001 0.296468
0.00456245 0.68484 0.286305
0.142321 0.67155 0.277806
0.485512 0.661357 0.272374
0.653056 0.660655 0.261997
0.705196 0.682734 0.230121
0.907103 0.649622 0.251789
0.997192 0.63566 0.257969
0.00538643 0.815061 0.275319
0.00535592 0.810727 0.272053
0.00529488 0.799664 0.265248
0.0999924 0.789685 0.26009
0.466026 0.782498 0.257832
0.658991 0.77583 0.255375
0.774517 0.775189 0.250629
0.771618 0.817441 0.209689
0.953887 0.795071 0.213077
0.00607309 0.923705 0.25272
0.00605783 0.921401 0.251698
0.00601205 0.913909 0.248035
0.0644083 0.907118 0.246357
0.44596 0.902831 0.247105
0.646464 0.898955 0.247211
0.776287 0.896178 0.247623
0.880446 0.900923 0.2495
0.876539 0.939574 0.271962
0.00653086 0.997604 0.232914
0.00653086 0.997604 0.233738
0.00653086 0.997604 0.2336
0.0325322 0.996445 0.23537
0.427451 0.996643 0.241596
0.6645 0.98999 0.310307
0.81442 0.977005 0.448661
0.920302 0.969162 0.628687
0.97026 0.973785 0.807538
0.01738 0.01738 0.01738
0.0375982 0.0379644 0.0402075
0.209857 0.0744335 0.239277
0.281071 0.0732586 0.350591
0.43949 0.0499733 0.426688
0.59295 0.0252232 0.469917
0.72163 0.00329595 0.497368
0.856962 0.00196841 0.519005
0.981338 0.00222782 0.535744
0.044831 0.0465095 0.0513161
0.0577859 0.0775311 0.116136
0.378225 0.0782025 0.4224
0.380865 0.0990768 0.499687
0.561669 0.0736858 0.539864
0.732876 0.046891 0.560021
0.86772 0.0256657 0.569467
0.988144 0.00578317 0.573953
0.993347 0.00231937 0.574228
0.018677 0.146715 0.24184
0.00262455 0.184878 0.318029
0.0588846 0.214893 0.524086
0.431693 0.187472 0.562966
0.608377 0.171679 0.57409
0.785534 0.150439 0.565179
0.912963 0.135714 0.55668
0.994095 0.122194 0.547005
0.994003 0.109819 0.536385
0.00222782 0.305852 0.413443
0.00251774 0.344839 0.486
0.00263981 0.358587 0.538231
0.278477 0.339788 0.560159
0.560662 0.322515 0.520928
0.7411 0.30869 0.5084
0.863539 0.299458 0.500114
0.979721 0.29044 0.491981
0.995071 0.281666 0.484199
0.00357061 0.509056 0.484703
0.00370794 0.52903 0.503334
0.00366217 0.522408 0.49781
0.198062 0.504875 0.482948
0.513085 0.491081 0.471794
0.699992 0.479683 0.46392
0.82327 0.471962 0.459312
0.9514 0.464698 0.455039
0.99617 0.457176 0.450507
0.00474556 0.695155 0.467964
0.00474556 0.693767 0.464759
0.00463874 0.679835 0.453605
0.129 0.666773 0.443839
0.478553 0.657084 0.437125
0.656855 0.653361 0.426886
0.780819 0.648753 0.420127
0.933318 0.635447 0.417304
0.997223 0.626795 0.405402
0.00546273 0.809842 0.438544
0.00543221 0.805585 0.435645
0.00537118 0.795178 0.428656
0.0882277 0.785672 0.423087
0.459663 0.778576 0.420111
0.653117 0.772 0.417166
0.772717 0.77026 0.412909
0.834073 0.790234 0.385382
0.998093 0.760113 0.411902
0.00614939 0.919158 0.41416
0.00613413 0.916899 0.413199
0.00608835 0.909667 0.409583
0.0530861 0.903365 0.40763
0.438025 0.899397 0.408316
0.641352 0.895766 0.408331
0.771817 0.8934 0.408698
0.876997 0.897185 0.417365
0.910765 0.923354 0.446708
0.00663767 0.997711 0.3935
0.00663767 0.997711 0.394491
0.00663767 0.996765 0.394202
0.0216983 0.995254 0.395972
0.419532 0.995697 0.40238
0.676722 0.985031 0.484703
0.828016 0.972625 0.608667
0.928252 0.968566 0.753643
0.974289 0.977005 0.886687
0.0211643 0.0211643 0.0211643
0.0403143 0.0409094 0.0451667
0.294987 0.0531472 0.325887
0.296132 0.0667887 0.458991
0.455543 0.0413367 0.55491
0.611307 0.0144045 0.613672
0.741207 0.0018616 0.652171
0.876951 0.002121 0.68333
0.988937 0.00234989 0.70869
0.0477913 0.0501717 0.0598764
0.0570687 0.0813001 0.142794
0.375235 0.0683299 0.583719
0.414298 0.0846418 0.643992
0.568353 0.0638437 0.709056
0.740246 0.0360266 0.740139
0.87451 0.0143587 0.75642
0.992462 0.00263981 0.766308
0.993469 0.00239567 0.770733
0.0176547 0.145541 0.273426
0.00393683 0.17673 0.330861
0.0437781 0.210361 0.697902
0.652201 0.123339 0.706874
0.602564 0.163378 0.774975
0.780026 0.142153 0.768215
0.906157 0.128191 0.760159
0.994186 0.115358 0.750195
0.994095 0.103227 0.738994
0.00233463 0.309545 0.545754
0.00262455 0.344564 0.6486
0.0027924 0.366049 0.694545
0.254475 0.332769 0.788846
0.578225 0.310353 0.712077
0.733623 0.303151 0.709178
0.855817 0.294133 0.700389
0.974472 0.285466 0.691981
0.995163 0.276875 0.683665
0.00367742 0.508705 0.662348
0.00381476 0.525505 0.696071
0.00375372 0.516533 0.697383
0.184237 0.499596 0.681971
0.501503 0.48513 0.693126
0.693202 0.475135 0.660777
0.81622 0.468086 0.654566
0.943572 0.460822 0.6486
0.996277 0.45391 0.642817
0.00485237 0.69102 0.662898
0.00482185 0.68809 0.661341
0.0047303 0.674693 0.650233
0.116762 0.662272 0.640116
0.472358 0.652995 0.632776
0.663828 0.644846 0.627497
0.791608 0.638956 0.62121
0.91931 0.63357 0.618433
0.997375 0.628672 0.616114
0.00555428 0.804669 0.632181
0.00552377 0.800763 0.629801
0.00546273 0.79089 0.622339
0.0766766 0.78143 0.615793
0.452232 0.774853 0.611765
0.647974 0.768704 0.607843
0.773602 0.765499 0.604166
0.904295 0.760571 0.600534
0.998154 0.753689 0.587091
0.00624094 0.914672 0.603189
0.00622568 0.912657 0.602838
0.0061799 0.905989 0.598779
0.0425574 0.900038 0.595819
0.430488 0.89662 0.595499
0.637125 0.893614 0.594614
0.768383 0.891157 0.59498
0.878096 0.893141 0.60528
0.958297 0.898619 0.637263
0.00675975 0.997436 0.576928
0.00675975 0.997223 0.578729
0.00674449 0.995483 0.578241
0.0122072 0.994064 0.579034
0.417197 0.99469 0.587411
0.698512 0.979065 0.665187
0.848829 0.969299 0.760174
0.939788 0.969985 0.859174
0.980804 0.982284 0.945632
0.0238499 0.0238499 0.0238499
0.0425422 0.0433814 0.0500038
0.330495 0.0411383 0.402762
0.334569 0.0547494 0.532174
0.46421 0.0354009 0.644495
0.62118 0.00706493 0.713314
0.751736 0.00192264 0.759274
0.887678 0.00221256 0.796887
0.993317 0.00244144 0.828626
0.0497139 0.0526894 0.0672465
0.0561379 0.0834058 0.163561
0.321721 0.0728161 0.673365
0.561379 0.0438087 0.701076
0.571359 0.0570993 0.825513
0.743664 0.0285344 0.864118
0.877501 0.00660716 0.884947
0.993545 0.00254826 0.898817
0.993561 0.00248722 0.906905
0.0219883 0.138415 0.262074
0.00469978 0.170932 0.356115
0.0329595 0.206729 0.81648
0.689479 0.101503 0.889265
0.59997 0.15697 0.91458
0.775723 0.136645 0.911513
0.900999 0.122942 0.904982
0.994247 0.110414 0.895949
0.994156 0.0987716 0.885588
0.00241093 0.31165 0.643717
0.00270085 0.343954 0.7673
0.00297551 0.385702 0.780011
0.238071 0.327581 0.94699
0.755657 0.260212 0.795438
0.728389 0.299275 0.858045
0.850355 0.290333 0.849744
0.970748 0.281819 0.841947
0.995239 0.273533 0.834073
0.00376898 0.508415 0.798932
0.00389105 0.522744 0.842069
0.00383001 0.512551 0.847257
0.159396 0.498833 0.825513
0.492927 0.481071 0.858488
0.70428 0.467735 0.804883
0.811719 0.464805 0.804898
0.939055 0.458 0.79881
0.996353 0.451209 0.792691
0.00492866 0.687953 0.812421
0.00489815 0.68423 0.811185
0.00480659 0.671122 0.800046
0.10808 0.659052 0.789654
0.468193 0.649943 0.78204
0.671305 0.638407 0.776638
0.786328 0.636973 0.770993
0.912978 0.631739 0.766888
0.997467 0.627008 0.762737
0.00563058 0.801007 0.78024
0.00560006 0.797421 0.778286
0.00553903 0.787808 0.770611
0.0686046 0.778561 0.763592
0.44683 0.772396 0.759289
0.644327 0.766567 0.754818
0.772656 0.762066 0.751873
0.899931 0.758846 0.749126
0.997467 0.755428 0.748257
0.00631724 0.91133 0.749233
0.00630198 0.909514 0.749249
0.0062562 0.902861 0.745281
0.0353246 0.897475 0.74197
0.425055 0.894499 0.7411
0.63418 0.891966 0.740032
0.767285 0.888899 0.741329
0.887129 0.888228 0.750561
0.974227 0.89073 0.775296
0.00683604 0.996307 0.721202
0.00683604 0.996155 0.723156
0.00683604 0.994583 0.722652
0.00918593 0.993301 0.723354
0.42121 0.992874 0.732799
0.721355 0.974746 0.790372
0.867964 0.968139 0.854994
0.950927 0.972915 0.920439
0.986801 0.987228 0.974227
0.0264134 0.0264134 0.0264591
0.0448005 0.0459602 0.0558938
0.346868 0.0328527 0.488838
0.442054 0.0251011 0.584375
0.471534 0.0291905 0.735348
0.629847 0.00315862 0.81387
0.761288 0.00201419 0.866941
0.897444 0.00230411 0.910277
0.993591 0.00251774 0.946441
0.0515602 0.0552529 0.0762646
0.0548104 0.0854658 0.187121
0.263218 0.0807507 0.742565
0.690394 0.0068513 0.772229
0.573632 0.050248 0.940963
0.745922 0.0212253 0.976761
0.87924 0.00294499 0.993133
0.993622 0.00254826 0.993622
0.993622 0.00254826 0.993622
0.0275883 0.129778 0.249561
0.00509651 0.166461 0.384497
0.0228733 0.20293 0.931456
0.644877 0.101747 0.993591
0.705821 0.123735 0.992889
0.771176 0.131334 0.994018
0.895598 0.117845 0.994171
0.994278 0.105699 0.994278
0.994202 0.0944686 0.994202
0.00247196 0.312642 0.737987
0.00276188 0.344961 0.864942
0.00311284 0.396521 0.889815
0.22211 0.322805 0.994202
0.825818 0.23151 0.951614
0.726482 0.294774 0.981842
0.845212 0.286824 0.976226
0.967147 0.278355 0.970672
0.9953 0.270069 0.96524
0.00384527 0.507408 0.924666
0.00395209 0.519783 0.969299
0.00387579 0.508278 0.974121
0.0223697 0.523064 0.910643
0.484688 0.476875 0.991623
0.811826 0.432914 0.908675
0.807401 0.461555 0.942336
0.934569 0.454719 0.936873
0.996429 0.448066 0.931304
0.0049897 0.684657 0.950042
0.00495918 0.680491 0.948608
0.00488289 0.667918 0.938231
0.099733 0.656184 0.928603
0.447761 0.651926 0.911467
0.640574 0.642054 0.935302
0.813855 0.625452 0.901259
0.909072 0.62945 0.908095
0.997543 0.62472 0.904555
0.00569162 0.797406 0.920577
0.00567636 0.794079 0.918395
0.00561532 0.784604 0.911284
0.0609751 0.776043 0.905028
0.441413 0.769924 0.90132
0.63888 0.764996 0.896651
0.768887 0.759396 0.907256
0.896178 0.757046 0.892973
0.996201 0.753994 0.891264
0.00637827 0.908019 0.892195
0.00637827 0.906447 0.892058
0.00633249 0.900298 0.888395
0.0277867 0.894896 0.88542
0.419974 0.892668 0.885496
0.631449 0.890211 0.885069
0.767346 0.887251 0.884169
0.889632 0.88632 0.88632
0.973449 0.893462 0.89395
0.0069276 0.995193 0.866484
0.0069276 0.995102 0.868467
0.00691234 0.993683 0.868132
0.00691234 0.992615 0.869047
0.431662 0.990127 0.875151
0.748379 0.971069 0.896437
0.888457 0.968444 0.927123
0.962951 0.977371 0.962112
0.992523 0.992325 0.990341
0.0289006 0.0289006 0.0292973
0.047013 0.0485847 0.0630045
0.345357 0.0288243 0.584619
0.557504 0.00148013 0.641093
0.480156 0.0224613 0.831327
0.638575 0.00181582 0.920104
0.770047 0.00210575 0.975692
0.90602 0.00238041 0.992554
0.993622 0.00254826 0.993622
0.053315 0.057908 0.0874495
0.0532235 0.0872053 0.212894
0.201022 0.0891737 0.782849
0.779751 0.00207523 0.894484
0.610773 0.0343786 0.993088
0.747478 0.0135805 0.99321
0.880385 0.00251774 0.993393
0.993622 0.00254826 0.993622
0.993622 0.00254826 0.993622
0.0283513 0.126802 0.266209
0.00497444 0.163622 0.417929
0.0154726 0.198978 0.99118
0.564691 0.113558 0.993515
0.907485 0.0665751 0.993866
0.766629 0.125658 0.993973
0.889754 0.112764 0.994125
0.993881 0.101137 0.994247
0.994171 0.0899062 0.994171
0.00254826 0.313802 0.829541
0.00283818 0.352071 0.913725
0.00320439 0.401144 0.985656
0.205234 0.317906 0.994125
0.815213 0.222843 0.99469
0.800153 0.270832 0.994965
0.839811 0.283299 0.995117
0.963485 0.27483 0.9953
0.9953 0.266423 0.9953
0.00387579 0.505989 0.994949
0.00395209 0.516487 0.995026
0.00387579 0.50547 0.994949
0.0041352 0.546273 0.993835
0.476478 0.472633 0.995636
0.908507 0.399939 0.991318
0.815793 0.454795 0.99617
0.930022 0.451621 0.996368
0.996445 0.44506 0.996445
0.00500496 0.681086 0.996078
0.00497444 0.676677 0.996048
0.00489815 0.664195 0.995956
0.0910964 0.652705 0.996048
0.358953 0.667506 0.99173
0.625254 0.641306 0.996994
0.93167 0.588403 0.988174
0.905333 0.626902 0.997436
0.997528 0.621942 0.997574
0.00572213 0.793683 0.996796
0.00570687 0.790463 0.996765
0.00564584 0.78117 0.996719
0.0529946 0.773083 0.99675
0.435782 0.767391 0.997436
0.600107 0.775402 0.992325
0.75877 0.757839 0.997879
0.945876 0.740978 0.994171
0.995071 0.751827 0.995895
0.00642405 0.904677 0.995422
0.00642405 0.903319 0.995438
0.00637827 0.897215 0.994003
0.020325 0.892515 0.992859
0.414588 0.89044 0.9935
0.628992 0.888136 0.993408
0.766232 0.885985 0.988067
0.894469 0.884474 0.980636
0.970886 0.8981 0.970397
0.00700389 0.99411 0.986191
0.00700389 0.994064 0.986938
0.00698863 0.992767 0.986679
0.00698863 0.99173 0.987121
0.443809 0.987198 0.982879
0.774456 0.968902 0.967407
0.906691 0.969924 0.970214
0.972763 0.981872 0.982528
0.995621 0.995529 0.995636
