public/sampleLut/11.cube
TITLE "Generated by Resolve"
LUT_3D_SIZE 5
0.00869764 0.00869764 0.00869764
0.0927901 0.0763867 0.0819257
0.390036 0.0732433 0.111116
0.671748 0.036347 0.0940871
0.950545 0.0018616 0.0675212
0.0351263 0.132815 0.0934768
0.0984207 0.229618 0.0746929
0.640223 0.196918 0.00247196
0.991196 0.150912 0.00285344
0.993713 0.117815 0.00263981
0.00328069 0.513008 0.00328069
0.0034638 0.541436 0.0034638
0.524102 0.51223 0.00427253
0.663096 0.554879 0.00480659
0.995987 0.472038 0.00491341
0.00529488 0.826276 0.00529488
0.00517281 0.809033 0.00517281
0.47863 0.789288 0.00595102
0.777035 0.783917 0.00648508
0.754757 0.872465 0.00700389
0.00637827 0.997452 0.00637827
0.00637827 0.997452 0.00637827
0.442115 0.997955 0.00721752
0.79205 0.987503 0.075227
0.966476 0.973007 0.422782
0.00967422 0.00967422 0.00967422
0.0959029 0.0781567 0.10425
0.411399 0.0644541 0.22417
0.694667 0.0230564 0.248554
0.971115 0.00201419 0.25301
0.0287327 0.138537 0.14316
0.101274 0.22266 0.245441
0.622675 0.187411 0.231891
0.929183 0.150851 0.207553
0.993866 0.122652 0.188266
0.00340276 0.513237 0.192905
0.00352483 0.534127 0.155093
0.520455 0.50425 0.129931
0.834699 0.482719 0.118929
0.995987 0.463066 0.0959793
0.00531014 0.820279 0.10782
0.00520333 0.80412 0.0972152
0.471656 0.786099 0.0894636
0.776135 0.779507 0.0812085
0.838575 0.840238 0.0186618
0.00642405 0.997497 0.0645914
0.00642405 0.997497 0.0650492
0.434684 0.997513 0.072694
0.803037 0.982452 0.256733
0.967483 0.971984 0.688243
0.01738 0.01738 0.01738
0.209857 0.0744335 0.239277
0.43949 0.0499733 0.426688
0.72163 0.00329595 0.497368
0.981338 0.00222782 0.535744
0.018677 0.146715 0.24184
0.0588846 0.214893 0.524086
0.608377 0.171679 0.57409
0.912963 0.135714 0.55668
0.994003 0.109819 0.536385
0.00357061 0.509056 0.484703
0.00366217 0.522408 0.49781
0.513085 0.491081 0.471794
0.82327 0.471962 0.459312
0.99617 0.457176 0.450507
0.00546273 0.809842 0.438544
0.00537118 0.795178 0.428656
0.459663 0.778576 0.420111
0.772717 0.77026 0.412909
0.998093 0.760113 0.411902
0.00663767 0.997711 0.3935
0.00663767 0.996765 0.394202
0.419532 0.995697 0.40238
0.828016 0.972625 0.608667
0.974289 0.977005 0.886687
0.0238499 0.0238499 0.0238499
0.330495 0.0411383 0.402762
0.46421 0.0354009 0.644495
0.751736 0.00192264 0.759274
0.993317 0.00244144 0.828626
0.0219883 0.138415 0.262074
0.0329595 0.206729 0.81648
0.59997 0.15697 0.91458
0.900999 0.122942 0.904982
0.994156 0.0987716 0.885588
0.00376898 0.508415 0.798932
0.00383001 0.512551 0.847257
0.492927 0.481071 0.858488
0.811719 0.464805 0.804898
0.996353 0.451209 0.792691
0.00563058 0.801007 0.78024
0.00553903 0.787808 0.770611
0.44683 0.772396 0.759289
0.772656 0.762066 0.751873
0.997467 0.755428 0.748257
0.00683604 0.996307 0.721202
0.00683604 0.994583 0.722652
0.42121 0.992874 0.732799
0.867964 0.968139 0.854994
0.986801 0.987228 0.974227
0.0289006 0.0289006 0.0292973
0.345357 0.0288243 0.584619
0.480156 0.0224613 0.831327
0.770047 0.00210575 0.975692
0.993622 0.00254826 0.993622
0.0283513 0.126802 0.266209
0.0154726 0.198978 0.99118
0.907485 0.0665751 0.993866
0.889754 0.112764 0.994125
0.994171 0.0899062 0.994171
0.00387579 0.505989 0.994949
0.00387579 0.50547 0.994949
0.476478 0.472633 0.995636
0.815793 0.454795 0.99617
0.996445 0.44506 0.996445
0.00572213 0.793683 0.996796
0.00564584 0.78117 0.996719
0.435782 0.767391 0.997436
0.75877 0.757839 0.997879
0.995071 0.751827 0.995895
0.00700389 0.99411 0.986191
0.00698863 0.992767 0.986679
0.443809 0.987198 0.982879
0.906691 0.969924 0.970214
0.995621 0.995529 0.995636
