public/sampleLut/12.cube
TITLE "Blockbuster-V2_3p00"
LUT_3D_SIZE 33
# S-Log3/Sony S-Gamut3.cine -> LA - Blockbuster type2/LA - Blockbuster type2, CineEI Shift 3.00, Black Level 0.46% IRE, Input 109% -> Output 100% - Created with LUTCalc v3.1.2 by Ben Turley September 2017
0.000000 0.000000 0.000000
0.000000 0.000000 0.000000
0.000000 0.000000 0.000000
0.975483 0.000000 0.000000
0.183458 0.000000 0.000000
0.276100 0.051710 0.000000
0.350023 0.311909 0.000000
0.265441 0.410814 0.000000
0.359288 0.304577 0.001220
0.490414 0.386439 0.018460
0.631559 0.177162 0.033614
0.767804 0.006182 0.043325
0.833757 0.000000 0.052626
0.846225 0.029113 0.059692
0.839807 0.158776 0.068528
0.859313 0.196665 0.077169
0.909532 0.098226 0.071302
0.897204 0.096865 0.068249
0.894839 0.149375 0.069744
0.963456 0.231940 0.070064
0.986729 0.184576 0.057976
0.985529 0.318603 0.105095
0.985637 0.434879 0.129608
0.985663 0.434492 0.124308
0.985663 0.434620 0.124308
0.985663 0.434747 0.124308
0.985663 0.434874 0.124308
0.985663 0.435002 0.124308
0.985663 0.435129 0.124308
0.985663 0.435256 0.124308
0.985663 0.435383 0.124308
0.985663 0.435510 0.124308
0.985663 0.435637 0.124308
0.000000 0.000000 0.000000
0.000000 0.000000 0.000000
0.000000 0.000000 0.000000
0.943562 0.000000 0.000000
0.164206 0.007766 0.000000
0.232897 0.171664 0.000000
0.305830 0.526476 0.000000
0.259243 0.487026 0.000000
0.361399 0.317572 0.001779
0.500981 0.341464 0.018886
0.639301 0.153077 0.033888
0.765992 0.008905 0.043868
0.831530 0.000550 0.053141
0.846311 0.033286 0.060369
0.843831 0.158768 0.069364
0.864009 0.196973 0.077794
0.910999 0.105294 0.072518
0.899286 0.102141 0.069509
0.898973 0.152754 0.070751
0.964579 0.234179 0.070935
0.986722 0.185499 0.060110
0.985529 0.323002 0.106489
0.985637 0.436293 0.129858
0.985663 0.434492 0.124308
0.985663 0.434620 0.124308
0.985663 0.434747 0.124308
0.985663 0.434874 0.124308
0.985663 0.435002 0.124308
0.985663 0.435129 0.124308
0.985663 0.435256 0.124308
0.985663 0.435383 0.124308
0.985663 0.435510 0.124308
0.985663 0.435637 0.124308
0.000000 0.000000 0.000000
0.000000 0.000000 0.000000
0.000000 0.000000 0.000000
0.896965 0.000000 0.000000
0.145696 0.042604 0.000000
0.197557 0.415752 0.000000
0.266836 0.715380 0.000000
0.253068 0.560754 0.000000
0.363517 0.330976 0.002313
0.511573 0.297730 0.019325
0.647472 0.132404 0.034165
0.764171 0.010758 0.044412
0.829297 0.003276 0.053657
0.846396 0.037600 0.061063
0.847942 0.158760 0.070188
0.868471 0.197282 0.078422
0.912470 0.112511 0.073686
0.901323 0.107143 0.070739
0.902928 0.156248 0.071730
0.965680 0.236471 0.071784
0.986716 0.186432 0.062448
0.985529 0.327419 0.107899
0.985637 0.437707 0.130107
0.985663 0.434492 0.124308
0.985663 0.434620 0.124308
0.985663 0.434747 0.124308
0.985663 0.434874 0.124308
0.985663 0.435002 0.124308
0.985663 0.435129 0.124308
0.985663 0.435256 0.124308
0.985663 0.435383 0.124308
0.985663 0.435510 0.124308
0.985663 0.435637 0.124308
0.000000 0.000000 0.000000
0.000000 0.000000 0.000000
0.000000 0.000000 0.000000
0.426336 0.017333 0.000000
0.177824 0.021807 0.000000
0.280869 0.003025 0.000000
0.354360 0.001733 0.000000
0.364860 0.102187 0.000000
0.434728 0.157144 0.005836
0.534475 0.221397 0.019941
0.648286 0.154922 0.034579
0.760669 0.011250 0.045520
0.830523 0.008277 0.054261
0.847216 0.043927 0.061969
0.850737 0.159518 0.071076
0.871907 0.199859 0.079082
0.913948 0.123637 0.074741
0.903009 0.113836 0.071994
0.905751 0.159889 0.072659
0.967135 0.237983 0.072645
0.986704 0.186892 0.064625
0.985529 0.331728 0.109960
0.985637 0.440055 0.130624
0.985663 0.434492 0.124308
0.985663 0.434620 0.124308
0.985663 0.434747 0.124308
0.985663 0.434874 0.124308
0.985663 0.435002 0.124308
0.985663 0.435129 0.124308
0.985663 0.435256 0.124308
0.985663 0.435383 0.124308
0.985663 0.435510 0.124308
0.985663 0.435637 0.124308
0.000000 0.076668 0.000000
0.016996 0.072367 0.000000
0.169659 0.067505 0.000000
0.063153 0.096349 0.000862
0.175512 0.091668 0.000000
0.280343 0.100271 0.000000
0.373688 0.117606 0.000000
0.464477 0.131464 0.005878
0.545604 0.109476 0.018446
0.606784 0.105527 0.030311
0.675546 0.080252 0.036600
0.764188 0.015318 0.045716
0.816693 0.017547 0.054529
0.838111 0.066536 0.062841
0.846190 0.187123 0.074380
0.875796 0.201647 0.079847
0.915741 0.123347 0.074755
0.905377 0.119156 0.073129
0.909817 0.165608 0.073737
0.967644 0.241322 0.074301
0.986680 0.188363 0.067041
0.985529 0.335945 0.111278
0.985637 0.441203 0.130791
0.985663 0.434492 0.124308
0.985663 0.434620 0.124308
0.985663 0.434747 0.124308
0.985663 0.434874 0.124308
0.985663 0.435002 0.124308
0.985663 0.435129 0.124308
0.985663 0.435256 0.124308
0.985663 0.435383 0.124308
0.985663 0.435510 0.124308
0.985663 0.435637 0.124308
0.011073 0.122921 0.008273
0.090831 0.120822 0.005457
0.275952 0.118751 0.003586
0.062061 0.142825 0.019032
0.228114 0.226883 0.035361
0.311266 0.162427 0.009470
0.423020 0.173632 0.004997
0.541981 0.189279 0.031013
0.615130 0.202600 0.037993
0.691016 0.205141 0.052839
0.743219 0.183601 0.055817
0.780744 0.111178 0.057985
0.825375 0.030961 0.057595
0.845534 0.066637 0.064317
0.851838 0.186411 0.075432
0.881274 0.199864 0.079809
0.912200 0.125484 0.074451
0.906236 0.113970 0.072601
0.915067 0.172194 0.075627
0.969863 0.248089 0.075688
0.986651 0.190491 0.069334
0.985530 0.341454 0.112263
0.985637 0.439837 0.130444
0.985663 0.434492 0.124308
0.985663 0.434620 0.124308
0.985663 0.434747 0.124308
0.985663 0.434874 0.124308
0.985663 0.435002 0.124308
0.985663 0.435129 0.124308
0.985663 0.435256 0.124308
0.985663 0.435383 0.124308
0.985663 0.435510 0.124308
0.985663 0.435637 0.124308
0.001994 0.169111 0.019013
0.079617 0.169337 0.014733
0.320381 0.169562 0.010883
0.072781 0.195320 0.030429
0.299882 0.315574 0.059620
0.376915 0.276778 0.040671
0.458099 0.235816 0.009316
0.568716 0.240513 0.038200
0.660110 0.256527 0.053954
0.745634 0.272378 0.068864
0.798905 0.285187 0.077389
0.834279 0.283900 0.082357
0.846629 0.208797 0.082656
0.862754 0.087642 0.069645
0.865076 0.162009 0.075390
0.888819 0.202306 0.080638
0.916553 0.137638 0.076174
0.910780 0.125370 0.073905
0.923280 0.207951 0.081626
0.971645 0.260322 0.078587
0.986568 0.188160 0.070879
0.985531 0.345016 0.114118
0.985637 0.438928 0.130169
0.985663 0.434492 0.124308
0.985663 0.434620 0.124308
0.985663 0.434747 0.124308
0.985663 0.434874 0.124308
0.985663 0.435002 0.124308
0.985663 0.435129 0.124308
0.985663 0.435256 0.124308
0.985663 0.435383 0.124308
0.985663 0.435510 0.124308
0.985663 0.435637 0.124308
0.006877 0.202203 0.023696
0.094085 0.207461 0.017483
0.332316 0.212745 0.012001
0.081716 0.240549 0.031624
0.348478 0.393749 0.066441
0.488529 0.428236 0.087124
0.552429 0.323333 0.028685
0.621731 0.299751 0.046753
0.700445 0.318908 0.066296
0.781523 0.334021 0.079425
0.827944 0.343980 0.089123
0.892554 0.359060 0.097806
0.926182 0.367843 0.104467
0.948144 0.312048 0.103082
0.910972 0.238816 0.090390
0.898290 0.221751 0.085604
0.921164 0.164728 0.080840
0.918015 0.139498 0.076339
0.930077 0.220497 0.083497
0.973725 0.251560 0.079566
0.986440 0.212002 0.077867
0.985531 0.353567 0.114936
0.985637 0.440266 0.130159
0.985663 0.434493 0.124308
0.985663 0.434620 0.124308
0.985663 0.434747 0.124308
0.985663 0.434874 0.124308
0.985663 0.435002 0.124308
0.985663 0.435129 0.124308
0.985663 0.435256 0.124308
0.985663 0.435383 0.124308
0.985663 0.435510 0.124308
0.985663 0.435637 0.124308
0.000000 0.193175 0.019580
0.037116 0.203012 0.013390
0.179697 0.213151 0.009053
0.207623 0.293224 0.016920
0.392294 0.467252 0.072671
0.552650 0.530320 0.119280
0.686199 0.530406 0.075656
0.708018 0.341174 0.035448
0.762015 0.380728 0.084580
0.792295 0.391810 0.089842
0.861172 0.407413 0.101176
0.890639 0.409865 0.103906
0.940634 0.431791 0.114675
0.971867 0.444666 0.123789
0.985833 0.410884 0.126740
0.968699 0.299403 0.108220
0.945274 0.188920 0.087389
0.930739 0.153021 0.080225
0.939271 0.231417 0.085668
0.975863 0.257954 0.083932
0.986442 0.227145 0.083321
0.985531 0.349969 0.113800
0.985637 0.436405 0.129037
0.985663 0.434493 0.124308
0.985663 0.434620 0.124308
0.985663 0.434747 0.124308
0.985663 0.434874 0.124308
0.985663 0.435001 0.124308
0.985663 0.435128 0.124308
0.985663 0.435255 0.124308
0.985663 0.435382 0.124308
0.985663 0.435509 0.124308
0.985663 0.435636 0.124308
0.000000 0.204444 0.029438
0.000000 0.217165 0.019386
0.002775 0.229919 0.012945
0.216204 0.345297 0.021568
0.340853 0.505929 0.074561
0.566956 0.583654 0.124795
0.672507 0.620480 0.138178
0.740534 0.460360 0.071623
0.798007 0.355303 0.040771
0.831706 0.442905 0.106125
0.858522 0.458863 0.106547
0.922911 0.472092 0.117899
0.949290 0.479519 0.123806
0.980857 0.501429 0.133566
0.991517 0.516248 0.139767
0.993234 0.507883 0.139329
0.977026 0.379081 0.119258
0.945809 0.222735 0.092744
0.950037 0.238919 0.090275
0.978250 0.269808 0.089876
0.986441 0.226835 0.089001
0.985532 0.361206 0.118501
0.985637 0.444360 0.130467
0.985663 0.434493 0.124308
0.985663 0.434620 0.124308
0.985663 0.434747 0.124308
0.985663 0.434873 0.124308
0.985663 0.434999 0.124308
0.985663 0.435125 0.124308
0.985663 0.435252 0.124308
0.985663 0.435378 0.124308
0.985663 0.435504 0.124308
0.985663 0.435630 0.124308
0.000000 0.229199 0.056531
0.000000 0.245271 0.041286
0.000075 0.263490 0.029537
0.232151 0.409532 0.033158
0.327003 0.535589 0.057242
0.535846 0.619693 0.125784
0.656538 0.663267 0.147563
0.742062 0.623601 0.084024
0.808109 0.454989 0.095473
0.844756 0.407745 0.057950
0.909556 0.499546 0.121404
0.928721 0.526187 0.125111
0.968774 0.538624 0.134948
0.988387 0.549386 0.142515
0.991523 0.567203 0.145756
0.991027 0.586659 0.149276
0.990135 0.573400 0.146950
0.979643 0.408383 0.121462
0.970023 0.259666 0.095419
0.982304 0.284340 0.095579
0.986443 0.252418 0.100702
0.985533 0.376137 0.124870
0.985637 0.452757 0.131950
0.985663 0.434493 0.124308
0.985663 0.434621 0.124308
0.985663 0.434748 0.124308
0.985663 0.434875 0.124308
0.985663 0.435002 0.124308
0.985663 0.435130 0.124308
0.985663 0.435257 0.124308
0.985663 0.435384 0.124308
0.985663 0.435511 0.124308
0.985663 0.435638 0.124308
0.000000 0.301654 0.085601
0.000000 0.318246 0.064310
0.011374 0.335464 0.045924
0.236176 0.479181 0.060024
0.392755 0.588330 0.097300
0.516669 0.645753 0.128119
0.589350 0.688525 0.144200
0.695599 0.702538 0.147234
0.786075 0.662676 0.089390
0.847743 0.545281 0.102796
0.911773 0.482900 0.076998
0.944973 0.545838 0.123408
0.966344 0.584651 0.141222
0.986003 0.600706 0.149127
0.988575 0.611169 0.151848
0.989237 0.623329 0.152062
0.987336 0.633413 0.152525
0.987090 0.636929 0.156246
0.987279 0.610499 0.150558
0.987294 0.451823 0.124278
0.986493 0.307732 0.111819
0.985534 0.409952 0.132190
0.985638 0.468986 0.134876
0.985663 0.434494 0.124308
0.985663 0.434621 0.124308
0.985663 0.434748 0.124308
0.985663 0.434875 0.124308
0.985663 0.435003 0.124308
0.985663 0.435130 0.124308
0.985663 0.435257 0.124308
0.985663 0.435384 0.124308
0.985663 0.435511 0.124308
0.985663 0.435638 0.124308
0.000000 0.412250 0.139137
0.006594 0.425909 0.109972
0.031881 0.439570 0.084802
0.241873 0.551663 0.099265
0.351646 0.602429 0.099969
0.467731 0.662908 0.139839
0.561619 0.708839 0.160003
0.645773 0.735291 0.165847
0.728403 0.741464 0.158748
0.799848 0.728565 0.121234
0.866798 0.628154 0.109749
0.931853 0.575343 0.083618
0.970163 0.606922 0.129752
0.986456 0.637081 0.155960
0.989928 0.656215 0.159308
0.988368 0.670749 0.160928
0.987810 0.681864 0.161614
0.987397 0.672637 0.159362
0.986987 0.616259 0.151082
0.985998 0.496773 0.135870
0.985690 0.375250 0.129219
0.985534 0.476777 0.146350
0.985638 0.477563 0.136604
0.985663 0.434494 0.124308
0.985663 0.434622 0.124308
0.985663 0.434748 0.124308
0.985663 0.434874 0.124308
0.985663 0.435000 0.124308
0.985663 0.435127 0.124308
0.985663 0.435253 0.124308
0.985663 0.435379 0.124308
0.985663 0.435505 0.124308
0.985663 0.435631 0.124308
0.006729 0.531789 0.200991
0.026423 0.541966 0.165799
0.066998 0.551974 0.135697
0.262369 0.625000 0.137518
0.348285 0.638094 0.120160
0.438742 0.698381 0.165841
0.514331 0.726146 0.174744
0.611248 0.759521 0.193912
0.681744 0.771786 0.192658
0.762888 0.788625 0.189873
0.823392 0.784022 0.170724
0.881261 0.715922 0.140558
0.943403 0.660806 0.099554
0.982461 0.668461 0.136769
0.990431 0.691960 0.166413
0.988340 0.714986 0.169347
0.988057 0.732578 0.173192
0.988062 0.711688 0.170253
0.987208 0.638860 0.155038
0.984637 0.551182 0.143715
0.983880 0.525875 0.141546
0.985060 0.573231 0.160922
0.985639 0.496696 0.140100
0.985663 0.434495 0.124308
0.985663 0.434622 0.124308
0.985663 0.434749 0.124308
0.985663 0.434876 0.124308
0.985663 0.435004 0.124308
0.985663 0.435131 0.124308
0.985663 0.435258 0.124308
0.985663 0.435385 0.124308
0.985663 0.435512 0.124308
0.985663 0.435639 0.124308
0.028175 0.630615 0.264494
0.062112 0.639039 0.225610
0.110328 0.647980 0.192878
0.282286 0.692795 0.192881
0.357886 0.702058 0.181892
0.431629 0.730233 0.182749
0.500540 0.765810 0.213786
0.577700 0.785805 0.223969
0.663637 0.806665 0.232716
0.728617 0.817782 0.233299
0.797780 0.832191 0.231347
0.846325 0.827657 0.216270
0.899712 0.786047 0.171456
0.952826 0.735022 0.120237
0.985514 0.726583 0.143810
0.990689 0.740619 0.173923
0.988166 0.768218 0.177763
0.988359 0.768000 0.180515
0.987717 0.697102 0.168422
0.986588 0.579669 0.149805
0.985724 0.481214 0.138131
0.983123 0.416778 0.123496
0.984911 0.439664 0.126870
0.985663 0.434478 0.124308
0.985663 0.434623 0.124308
0.985663 0.434749 0.124308
0.985663 0.434875 0.124308
0.985663 0.435002 0.124308
0.985663 0.435128 0.124308
0.985663 0.435254 0.124308
0.985663 0.435380 0.124308
0.985663 0.435506 0.124308
0.985663 0.435632 0.124308
0.069372 0.710645 0.330183
0.109845 0.720198 0.293528
0.162381 0.728921 0.260754
0.309600 0.757396 0.257484
0.383806 0.766318 0.243309
0.440541 0.774071 0.233701
0.502531 0.795134 0.248564
0.557766 0.818813 0.267436
0.634824 0.835366 0.275141
0.703626 0.851601 0.281641
0.755173 0.860413 0.283780
0.819223 0.873445 0.282817
0.872613 0.871140 0.271227
0.920628 0.840271 0.219748
0.961323 0.791175 0.147337
0.985814 0.773383 0.157558
0.989789 0.790889 0.181986
0.988227 0.792192 0.182462
0.987781 0.754213 0.177311
0.987760 0.676450 0.164343
0.987419 0.535137 0.148654
0.985474 0.423860 0.135990
0.978607 0.328680 0.122771
0.983592 0.403197 0.124789
0.985663 0.434603 0.124308
0.985663 0.434750 0.124308
0.985663 0.434876 0.124308
0.985663 0.435003 0.124308
0.985663 0.435129 0.124308
0.985663 0.435255 0.124308
0.985663 0.435381 0.124308
0.985663 0.435507 0.124308
0.985663 0.435633 0.124308
0.129824 0.788530 0.395873
0.171739 0.793725 0.364125
0.224307 0.799167 0.333901
0.351145 0.817440 0.328555
0.409746 0.822590 0.319947
0.452664 0.826040 0.314474
0.509818 0.830914 0.308306
0.563548 0.853804 0.325615
0.615264 0.867590 0.332938
0.682695 0.881514 0.338324
0.736111 0.893117 0.344832
0.785148 0.901460 0.349056
0.843974 0.911453 0.348772
0.898507 0.910498 0.335746
0.940990 0.889384 0.273239
0.970454 0.842143 0.178385
0.986453 0.821640 0.169541
0.988907 0.811636 0.185217
0.988359 0.811641 0.186229
0.988238 0.774571 0.179788
0.987889 0.684636 0.167876
0.987225 0.504593 0.149358
0.982810 0.282652 0.117949
0.982266 0.270007 0.119074
0.985453 0.396468 0.124000
0.986171 0.438256 0.123197
0.986850 0.476206 0.121940
0.987487 0.514119 0.120689
0.988080 0.550448 0.119449
0.988626 0.586155 0.118224
0.989116 0.619170 0.117019
0.989537 0.652495 0.115836
0.989905 0.683257 0.114681
0.195936 0.850181 0.460713
0.240133 0.855307 0.435160
0.294578 0.860245 0.409528
0.399639 0.870215 0.404392
0.442134 0.873428 0.394922
0.477367 0.875866 0.391678
0.521544 0.879031 0.387696
0.571423 0.885405 0.387382
0.616151 0.902769 0.398554
0.669494 0.910704 0.401335
0.718462 0.921373 0.405333
0.767490 0.929809 0.411687
0.814968 0.936617 0.417302
0.872507 0.945533 0.415185
0.922852 0.945776 0.398108
0.959381 0.930637 0.332568
0.980107 0.889756 0.214145
0.989007 0.858426 0.187755
0.988794 0.857023 0.191322
0.989151 0.851571 0.194138
0.988589 0.820236 0.186847
0.988053 0.733192 0.173557
0.985721 0.495803 0.141453
0.972931 0.152971 0.094970
0.975093 0.202240 0.097176
0.976063 0.352153 0.105114
0.976913 0.526635 0.112427
0.977739 0.682388 0.121097
0.978539 0.799061 0.130269
0.979313 0.888583 0.138703
0.980063 0.953102 0.147250
0.980790 0.987462 0.156960
0.981494 0.996900 0.167231
0.273919 0.904869 0.522946
0.319378 0.908357 0.502676
0.369340 0.911834 0.482358
0.448237 0.918398 0.478113
0.487379 0.921022 0.469617
0.512168 0.922135 0.467793
0.543076 0.923584 0.465528
0.582809 0.925126 0.463128
0.625897 0.930945 0.464270
0.669541 0.940781 0.470000
0.709734 0.947006 0.471827
0.753603 0.953939 0.474556
0.798393 0.959389 0.479517
0.843711 0.964875 0.480894
0.899752 0.970215 0.474094
0.945871 0.971298 0.455226
0.974840 0.961127 0.389323
0.987094 0.926244 0.250319
0.990382 0.901933 0.206718
0.989154 0.890609 0.198638
0.988990 0.890386 0.201970
0.988811 0.882396 0.194726
0.988386 0.800078 0.179679
0.982282 0.542462 0.137829
0.969438 0.224267 0.102281
0.956588 0.193032 0.075841
0.940924 0.166252 0.053068
0.922893 0.141822 0.034074
0.902460 0.119714 0.019845
0.879363 0.100330 0.011108
0.854829 0.081422 0.004446
0.827815 0.065747 0.000002
0.798981 0.051434 0.000000
0.359914 0.948543 0.576602
0.403223 0.950590 0.563217
0.447459 0.952577 0.550096
0.504902 0.955813 0.547974
0.542324 0.957449 0.535500
0.559444 0.957870 0.534324
0.580166 0.958452 0.532887
0.606351 0.959047 0.531439
0.642815 0.959896 0.529344
0.680217 0.963657 0.530013
0.715334 0.968952 0.533136
0.748594 0.972681 0.534022
0.789409 0.976571 0.534702
0.827754 0.980272 0.535086
0.873261 0.983129 0.530593
0.924104 0.985705 0.520744
0.965159 0.986168 0.501597
0.985818 0.980710 0.439265
0.990704 0.954427 0.291208
0.990835 0.936157 0.229553
0.989615 0.931730 0.210169
0.989322 0.940651 0.216554
0.989156 0.932254 0.209136
0.988932 0.887748 0.201490
0.985070 0.730527 0.175491
0.979685 0.656228 0.156027
0.972651 0.571883 0.138442
0.964285 0.480277 0.121376
0.954509 0.385197 0.105770
0.943184 0.296317 0.091276
0.930730 0.222586 0.077998
0.916685 0.166633 0.065830
0.901871 0.121872 0.054271
0.445329 0.978847 0.623664
0.483605 0.979468 0.613962
0.521872 0.980073 0.603944
0.564690 0.981041 0.601543
0.600073 0.981974 0.589338
0.613720 0.982123 0.588643
0.627775 0.982231 0.587863
0.643964 0.982344 0.587095
0.667728 0.982522 0.586104
0.696634 0.982789 0.584678
0.730763 0.984498 0.585237
0.756352 0.986202 0.586463
0.787298 0.987567 0.586581
0.820483 0.989315 0.584853
0.856652 0.990581 0.581976
0.900488 0.991851 0.575670
0.945772 0.992708 0.562761
0.980239 0.992728 0.541529
0.991523 0.990367 0.486606
0.992524 0.975129 0.345854
0.992093 0.970568 0.277886
0.990305 0.965041 0.230745
0.990175 0.981567 0.252945
0.990123 0.979806 0.267956
0.989882 0.955739 0.284777
0.989728 0.983219 0.282569
0.989569 0.993623 0.280372
0.989401 1.002310 0.278177
0.989223 1.005697 0.275980
0.989033 1.007572 0.273778
0.988829 1.009446 0.271565
0.988614 1.011321 0.269337
0.988390 1.013194 0.267091
0.521656 0.991165 0.669334
0.554157 0.991443 0.660763
0.586549 0.991719 0.651532
0.619448 0.991910 0.650698
0.646779 0.992190 0.644744
0.663345 0.992323 0.641125
0.674838 0.992328 0.640816
0.686752 0.992315 0.640542
0.700883 0.992315 0.640137
0.720776 0.992313 0.639705
0.744861 0.992286 0.639117
0.771449 0.992626 0.639382
0.793200 0.993028 0.639122
0.818040 0.993406 0.638216
0.849800 0.993853 0.634086
0.885128 0.994398 0.626608
0.927327 0.994857 0.614030
0.966852 0.995203 0.597438
0.989500 0.995190 0.577069
0.994158 0.993440 0.533723
0.994228 0.988233 0.430338
0.993926 0.990716 0.390380
0.991992 0.981544 0.303715
0.992288 1.001026 0.333653
0.992025 1.002816 0.372322
0.991808 1.004587 0.422507
0.991550 1.005113 0.467237
0.991290 1.005126 0.511799
0.991028 1.005366 0.554473
0.990778 1.005700 0.596432
0.990537 1.006052 0.633803
0.990295 1.006404 0.673619
0.990045 1.006756 0.706630
0.609971 0.994424 0.709225
0.626924 0.994627 0.704370
0.645430 0.994833 0.699674
0.665228 0.994881 0.698487
0.689080 0.995113 0.692975
0.708025 0.995334 0.687407
0.715005 0.995342 0.686950
0.722918 0.995341 0.686711
0.734710 0.995343 0.686428
0.747027 0.995343 0.686136
0.762539 0.995336 0.685828
0.784344 0.995348 0.685337
0.805294 0.995463 0.684757
0.826198 0.995517 0.683021
0.850990 0.995580 0.680208
0.882470 0.995712 0.673394
0.917042 0.995741 0.663760
0.954899 0.995737 0.649920
0.984211 0.995698 0.627803
0.993142 0.995680 0.606533
0.995418 0.995108 0.580923
0.995232 0.993736 0.530848
0.994921 0.994834 0.491145
0.993970 0.991262 0.385001
0.994727 0.996953 0.416685
0.993236 0.999420 0.400116
0.991444 1.003961 0.383391
0.989572 1.005117 0.367221
0.986495 1.005268 0.351627
0.982071 1.005790 0.336126
0.976372 1.006357 0.320348
0.969443 1.006924 0.304969
0.961449 1.007491 0.290779
0.674985 0.995761 0.746194
0.686565 0.995901 0.743047
0.698620 0.996043 0.739900
0.707671 0.995947 0.739146
0.723796 0.996122 0.734929
0.740843 0.996288 0.731126
0.752773 0.996406 0.727594
0.757851 0.996422 0.727440
0.764673 0.996464 0.727123
0.773836 0.996518 0.726693
0.785883 0.996593 0.726240
0.799055 0.996676 0.725899
0.817857 0.996772 0.725179
0.839150 0.996765 0.723641
0.860881 0.996547 0.720420
0.885913 0.996288 0.716982
0.916632 0.996143 0.711527
0.948323 0.996049 0.698790
0.977405 0.995996 0.681126
0.992666 0.996010 0.658199
0.995149 0.997196 0.650187
0.995969 0.998680 0.644191
0.995876 0.998738 0.620088
0.995290 0.996806 0.530932
0.995005 0.995431 0.467371
0.994668 0.995357 0.411886
0.994332 0.995188 0.356231
0.993998 0.995018 0.303375
0.993655 0.994845 0.256740
0.993293 0.994675 0.216115
0.992906 0.994507 0.181358
0.992501 0.994341 0.151883
0.992081 0.994175 0.126593
0.726404 0.997130 0.778553
0.737705 0.997240 0.776137
0.747588 0.997353 0.773604
0.750302 0.997254 0.774036
0.759850 0.997370 0.770889
0.769739 0.997467 0.768594
0.783934 0.997619 0.765300
0.791198 0.997700 0.764074
0.795925 0.997762 0.763913
0.801649 0.997830 0.763697
0.809512 0.997967 0.763427
0.820130 0.998129 0.763145
0.833446 0.998381 0.762769
0.851128 0.998960 0.762214
0.871710 0.999112 0.760362
0.893370 0.997558 0.756544
0.917591 0.996826 0.752032
0.946747 0.996536 0.742601
0.974474 0.996340 0.727101
0.990166 0.996589 0.710837
0.995391 0.998497 0.698100
0.996540 1.002232 0.733206
0.996773 1.005553 0.753352
0.996729 1.005529 0.733966
0.995810 1.003069 0.592544
0.995728 1.000646 0.543783
0.995657 0.998375 0.494079
0.995587 0.997259 0.443433
0.995517 0.996360 0.392346
0.995447 0.995463 0.343612
0.995377 0.994585 0.296653
0.995307 0.993718 0.255087
0.995237 0.992750 0.218532
0.768103 0.999390 0.807873
0.777759 0.999701 0.805864
0.785911 1.000029 0.803869
0.786838 0.999769 0.804858
0.794170 1.000108 0.803663
0.801623 1.000105 0.802515
0.808821 1.000142 0.800745
0.821042 1.000267 0.797777
0.824630 1.000302 0.797499
0.828967 1.000276 0.797187
0.835101 1.000299 0.796770
0.843077 1.000300 0.796236
0.852493 1.000446 0.795664
0.864890 1.001929 0.794812
0.882041 1.003893 0.793376
0.902154 1.003699 0.790115
0.921921 0.999517 0.784184
0.945090 0.997389 0.778097
0.971772 0.996891 0.765956
0.990709 0.996933 0.746546
0.994469 0.999775 0.748031
0.996653 1.005238 0.775124
0.997361 1.005553 0.829167
0.997532 1.005553 0.848288
0.997318 1.007379 0.786086
0.995875 1.008740 0.599782
0.994838 1.009575 0.421304
0.993816 1.010410 0.253056
0.992678 1.011245 0.143283
0.991385 1.012079 0.071717
0.990102 1.012913 0.023671
0.988431 1.013747 0.003549
0.985949 1.014581 0.000000
0.800998 1.003474 0.837494
0.809383 1.003655 0.835731
0.817762 1.003820 0.833979
0.817814 1.003691 0.835445
0.826006 1.003841 0.835856
0.833446 1.003668 0.836134
0.834512 1.003456 0.835434
0.848840 1.003438 0.830785
0.851131 1.003382 0.830361
0.854579 1.003226 0.829917
0.860302 1.003040 0.829299
0.866339 1.002748 0.828470
0.870339 1.002586 0.827593
0.877292 1.003868 0.826263
0.892565 1.005121 0.824764
0.910449 1.005118 0.820905
0.926316 1.003929 0.811408
0.943395 0.998562 0.806820
0.968880 0.997389 0.800005
0.991342 0.997241 0.780836
0.993559 1.001247 0.790788
