public/sampleLut/12.cube
TITLE "Blockbuster-V2_3p00"
LUT_3D_SIZE 9
# S-Log3/Sony S-Gamut3.cine -> LA - Blockbuster type2/LA - Blockbuster type2, CineEI Shift 3.00, Black Level 0.46% IRE, Input 109% -> Output 100% - Created with LUTCalc v3.1.2 by Ben Turley September 2017
0.000000 0.000000 0.000000
0.183458 0.000000 0.000000
0.359288 0.304577 0.001220
0.833757 0.000000 0.052626
0.909532 0.098226 0.071302
0.986729 0.184576 0.057976
0.985663 0.434620 0.124308
0.985663 0.435129 0.124308
0.985663 0.435637 0.124308
0.000000 0.076668 0.000000
0.175512 0.091668 0.000000
0.545604 0.109476 0.018446
0.816693 0.017547 0.054529
0.915741 0.123347 0.074755
0.986680 0.188363 0.067041
0.985663 0.434620 0.124308
0.985663 0.435129 0.124308
0.985663 0.435637 0.124308
0.000000 0.193175 0.019580
0.392294 0.467252 0.072671
0.762015 0.380728 0.084580
0.940634 0.431791 0.114675
0.945274 0.188920 0.087389
0.986442 0.227145 0.083321
0.985663 0.434620 0.124308
0.985663 0.435128 0.124308
0.985663 0.435636 0.124308
0.000000 0.412250 0.139137
0.351646 0.602429 0.099969
0.728403 0.741464 0.158748
0.970163 0.606922 0.129752
0.987810 0.681864 0.161614
0.985690 0.375250 0.129219
0.985663 0.434622 0.124308
0.985663 0.435127 0.124308
0.985663 0.435631 0.124308
0.129824 0.788530 0.395873
0.409746 0.822590 0.319947
0.615264 0.867590 0.332938
0.843974 0.911453 0.348772
0.986453 0.821640 0.169541
0.987889 0.684636 0.167876
0.985453 0.396468 0.124000
0.988080 0.550448 0.119449
0.989905 0.683257 0.114681
0.445329 0.978847 0.623664
0.600073 0.981974 0.589338
0.667728 0.982522 0.586104
0.787298 0.987567 0.586581
0.945772 0.992708 0.562761
0.992093 0.970568 0.277886
0.989882 0.955739 0.284777
0.989223 1.005697 0.275980
0.988390 1.013194 0.267091
0.726404 0.997130 0.778553
0.759850 0.997370 0.770889
0.795925 0.997762 0.763913
0.833446 0.998381 0.762769
0.917591 0.996826 0.752032
0.995391 0.998497 0.698100
0.995810 1.003069 0.592544
0.995517 0.996360 0.392346
0.995237 0.992750 0.218532
0.863287 1.005111 0.891455
0.882898 1.005123 0.893671
0.898986 1.005122 0.888883
0.902798 1.004610 0.884517
0.934496 1.005236 0.864457
0.991372 1.003614 0.863893
1.004972 1.018647 1.001510
0.994340 1.026460 0.402585
0.989404 1.029797 0.020414
0.954029 1.006789 0.966618
0.964232 1.006842 0.971323
0.966695 1.006082 0.969200
0.953901 1.005250 0.965245
0.949493 1.007370 0.945369
0.984336 1.005099 0.965173
1.006337 1.033662 1.018129
0.996449 1.046734 0.792967
0.992086 1.050071 0.183581
0.000000 0.134274 0.561766
0.007788 0.041629 0.045004
0.360380 0.112610 0.043076
0.773779 0.054028 0.053405
0.899715 0.103838 0.069977
0.986444 0.169424 0.056133
0.985663 0.434620 0.124308
0.985663 0.435129 0.124308
0.985663 0.435637 0.124308
0.000000 0.080481 0.117322
0.065506 0.100328 0.102973
0.444339 0.130462 0.028388
0.764744 0.125271 0.056272
0.907211 0.130743 0.075021
0.986446 0.170706 0.062749
0.985663 0.434620 0.124308
0.985663 0.435129 0.124308
0.985663 0.435637 0.124308
0.087341 0.510995 0.516149
0.071546 0.344914 0.165757
0.545658 0.359597 0.084153
0.865124 0.408685 0.100609
0.932834 0.210637 0.088530
0.986429 0.179738 0.074333
0.985663 0.434620 0.124308
0.985663 0.435128 0.124308
0.985663 0.435636 0.124308
0.061200 0.684551 0.592020
0.157620 0.613429 0.284473
0.526217 0.694876 0.268206
0.860868 0.639045 0.149098
0.987321 0.652588 0.156680
0.985783 0.363179 0.123842
0.985663 0.434622 0.124308
0.985663 0.435127 0.124308
0.985663 0.435631 0.124308
0.159938 0.827573 0.599288
0.326139 0.834849 0.449810
0.558656 0.858398 0.429207
0.805796 0.905430 0.435259
0.979837 0.826954 0.193140
0.988107 0.705302 0.170239
0.985453 0.400163 0.124472
0.988076 0.550296 0.119470
0.989901 0.682942 0.114708
0.450881 0.980682 0.680645
0.589517 0.982993 0.628607
0.659494 0.983529 0.624506
0.781920 0.986940 0.620086
0.938879 0.992399 0.591040
0.992333 0.964340 0.295102
0.989879 0.952903 0.271858
0.989218 1.005801 0.251841
0.988378 1.013555 0.233488
0.700277 0.996633 0.794327
0.758941 0.997404 0.781398
0.795491 0.997809 0.773092
0.832963 0.998418 0.771837
0.916540 0.997233 0.762233
0.995366 0.998512 0.705521
0.995951 1.003278 0.626920
0.995594 0.995753 0.413428
0.995243 0.991160 0.218146
0.845894 1.005123 0.895719
0.882107 1.005121 0.894379
0.898980 1.005118 0.893263
0.902783 1.004623 0.889016
0.933908 1.005448 0.873585
0.991762 1.003568 0.868172
1.004935 1.018194 1.002662
0.994750 1.025785 0.500050
0.990264 1.028930 0.050871
0.943941 1.006664 0.964262
0.963711 1.006820 0.968477
0.966859 1.006045 0.970452
0.954122 1.005255 0.966663
0.949083 1.007783 0.952630
0.986120 1.005086 0.967350
1.006252 1.032793 1.017774
0.996975 1.045638 0.857512
0.992951 1.048782 0.295452
0.000000 0.279898 0.530184
0.000000 0.217712 0.149567
0.080117 0.240230 0.182277
0.477076 0.281123 0.177548
0.673472 0.340522 0.156035
0.985940 0.118485 0.046217
0.985663 0.434619 0.124308
0.985663 0.435127 0.124308
0.985663 0.435635 0.124308
0.000000 0.213718 0.330447
0.001755 0.280949 0.394496
0.134704 0.273303 0.223153
0.517383 0.298371 0.181718
0.747025 0.346735 0.171224
0.985928 0.124814 0.054469
0.985663 0.434620 0.124308
0.985663 0.435129 0.124308
0.985663 0.435637 0.124308
0.000000 0.225701 0.317619
0.014904 0.362245 0.391329
0.332460 0.445754 0.454906
0.760051 0.449338 0.377045
0.855951 0.367905 0.183621
0.985836 0.137797 0.065265
0.985663 0.434620 0.124308
0.985663 0.435129 0.124308
0.985663 0.435637 0.124308
0.067544 0.548354 0.620812
0.097468 0.685664 0.573199
0.383554 0.692432 0.477373
0.805203 0.691261 0.382750
0.972893 0.687906 0.266176
0.985814 0.340314 0.116341
0.985663 0.434622 0.124308
0.985663 0.435127 0.124308
0.985663 0.435631 0.124308
0.133281 0.851065 0.728444
0.181180 0.841933 0.637667
0.506712 0.865414 0.550884
0.760164 0.897608 0.543579
0.974165 0.849066 0.333696
0.988535 0.767821 0.182154
0.985546 0.405935 0.125001
0.987820 0.532713 0.117813
0.989547 0.649087 0.111469
0.386043 0.981403 0.748467
0.524596 0.983664 0.696346
0.654436 0.984752 0.664508
0.777341 0.986047 0.659605
0.927230 0.991839 0.633141
0.992912 0.955658 0.324208
0.989782 0.946036 0.245261
0.989102 1.005840 0.287447
0.988241 1.013945 0.332532
0.687580 0.996287 0.812090
0.744531 0.997109 0.799427
0.795173 0.997927 0.786939
0.832769 0.998516 0.785117
0.915614 0.997608 0.774337
0.995193 0.998562 0.720198
0.996226 1.004261 0.680885
0.995621 0.991522 0.402480
0.995032 0.961706 0.168424
0.846571 1.005105 0.899836
0.861759 1.005114 0.892569
0.899874 1.005080 0.886475
0.903227 1.004651 0.884903
0.934326 1.005618 0.884723
0.993233 1.003359 0.871537
1.004572 1.015977 1.001044
0.996098 1.023275 0.735320
0.993092 1.025589 0.215513
0.952181 1.006443 0.960950
0.945190 1.006663 0.957658
0.968032 1.005869 0.957185
0.954846 1.005265 0.956400
0.950507 1.008008 0.961310
0.990828 1.004998 0.967237
1.005795 1.028068 1.016613
0.999431 1.041265 0.985231
0.995602 1.043579 0.751479
0.038859 0.464098 0.532005
0.022938 0.393369 0.380483
0.013141 0.428205 0.244692
0.295082 0.439592 0.199845
0.667114 0.315742 0.010317
0.344885 0.323564 0.099464
0.985847 0.435390 0.124565
0.985663 0.435129 0.124308
0.985663 0.435637 0.124308
0.031758 0.417898 0.536668
0.043977 0.470389 0.635680
0.043925 0.439434 0.463099
0.345661 0.442341 0.212163
0.691971 0.349191 0.038069
0.372001 0.331100 0.104677
0.985663 0.434620 0.124308
0.985663 0.435129 0.124308
0.985663 0.435637 0.124308
0.032294 0.413644 0.569248
0.052507 0.506535 0.631691
0.142574 0.560817 0.703670
0.594894 0.538912 0.543202
0.745526 0.414738 0.141561
0.418180 0.335620 0.102278
0.985663 0.434620 0.124308
0.985663 0.435129 0.124308
0.985663 0.435637 0.124308
0.048478 0.481710 0.596658
0.075294 0.599130 0.658176
0.195366 0.667181 0.712326
0.730324 0.738840 0.740587
0.943511 0.747436 0.726902
0.930715 0.515744 0.355236
0.985663 0.434622 0.124308
0.985663 0.435127 0.124308
0.985663 0.435631 0.124308
0.134569 0.823472 0.839771
0.143990 0.863079 0.825488
0.256732 0.876237 0.794199
0.733496 0.893846 0.722192
0.961794 0.877400 0.616770
0.994308 0.857215 0.532013
0.986279 0.487123 0.133876
0.983758 0.253983 0.093042
0.980808 0.114876 0.059603
0.268623 0.982136 0.870441
0.360258 0.983799 0.831935
0.524338 0.986234 0.797792
0.768760 0.987171 0.745221
0.905915 0.990310 0.728672
0.994780 0.962108 0.502961
0.990593 0.953914 0.252130
0.979672 0.813361 0.105802
0.957561 0.569810 0.026069
0.641904 0.995450 0.860807
0.704470 0.996326 0.846125
0.761966 0.997162 0.830697
0.833723 0.998826 0.813908
0.913203 1.000466 0.805848
0.994588 0.998723 0.763499
0.996887 1.005553 0.786455
0.995688 0.847695 0.409348
0.994550 0.209570 0.104918
0.828961 1.004677 0.907486
0.866845 1.004890 0.899586
0.914621 1.005112 0.899971
0.907867 1.004130 0.889558
0.943568 1.009596 0.886812
0.991887 1.003799 0.866141
1.002998 1.005553 0.993897
1.000509 1.016975 1.000877
0.998163 1.016975 0.992392
0.945090 1.006103 0.945477
0.966300 1.006082 0.941580
0.988854 1.006686 0.951427
0.960626 1.005120 0.946647
0.966918 1.015631 0.947196
0.988433 1.005118 0.942007
1.005115 1.005553 1.011136
1.005100 1.030478 1.017167
1.004625 1.030478 1.015096
0.080981 0.613188 0.781841
0.081991 0.614562 0.812066
0.071023 0.578548 0.684858
0.165898 0.602679 0.487470
0.521498 0.586747 0.338207
0.610762 0.428836 0.110757
0.987646 0.086641 0.018220
1.007413 1.031443 1.060342
1.014060 1.082116 1.143844
0.084749 0.629659 0.783396
0.087186 0.636848 0.812575
0.083425 0.622917 0.805879
0.280005 0.607763 0.648870
0.583616 0.584817 0.381194
0.661364 0.441983 0.128354
0.987261 0.085595 0.014803
1.006888 1.031231 1.059854
1.013151 1.081745 1.143069
0.078978 0.602753 0.780962
0.091796 0.655152 0.813068
0.099493 0.677696 0.845285
0.441730 0.655507 0.822389
0.679045 0.596870 0.528002
0.730331 0.487366 0.152945
0.987223 0.089873 0.005811
1.006422 1.031587 1.056928
1.012233 1.082266 1.138047
0.084205 0.623436 0.787882
0.099378 0.684703 0.819708
0.116740 0.727598 0.848210
0.564292 0.772726 0.903594
0.872316 0.753961 0.842405
0.916200 0.640831 0.528983
0.987838 0.123206 0.001345
1.005346 1.030446 1.061554
1.009939 1.079075 1.148391
0.113908 0.743279 0.833757
0.121038 0.770237 0.849795
0.187303 0.800486 0.870592
0.605099 0.856796 0.903687
0.915570 0.904219 0.897783
0.995511 0.900753 0.892095
0.995139 0.609705 0.314342
1.005139 0.866821 0.878908
1.007616 0.986466 1.005439
0.174977 0.964758 0.964778
0.186902 0.973039 0.960481
0.287727 0.981371 0.953325
0.612898 0.989041 0.925973
0.899935 0.988753 0.867997
0.996011 0.978186 0.781609
0.995797 0.960479 0.716740
0.994581 0.884082 0.476664
0.993361 0.773553 0.229611
0.545563 0.994553 0.961323
0.601642 0.995158 0.954363
0.671887 0.995983 0.941706
0.774569 0.997405 0.919256
0.917145 1.003672 0.883493
0.992102 0.999730 0.856705
0.997592 1.005553 0.877199
0.996602 1.005553 0.763031
0.995584 1.005553 0.597548
0.855111 1.003390 0.943948
0.877219 1.003824 0.941252
0.918130 1.004166 0.942851
0.909435 1.004563 0.936361
0.953835 1.015417 0.912897
0.989497 1.003709 0.929353
1.003315 1.005553 0.995919
1.003414 1.005553 0.997650
1.002478 1.005553 0.994165
0.988811 1.005693 0.923226
0.990769 1.005673 0.926616
0.996149 1.005585 0.943918
0.983863 1.005430 0.951432
0.978642 1.027078 0.938283
0.984763 1.004951 0.975868
1.005127 1.005553 1.010007
1.005110 1.005553 1.012456
1.005124 1.005553 1.011365
0.124495 0.775825 0.945026
0.124735 0.776388 0.949739
0.123660 0.769524 0.955783
0.209897 0.761302 0.953932
0.559955 0.762378 0.867323
0.807270 0.841036 0.588701
1.001244 0.981482 0.198153
1.011459 1.024462 0.246910
1.019355 1.049508 0.299363
0.125942 0.782236 0.945870
0.126170 0.782730 0.950576
0.125822 0.780153 0.956856
0.228562 0.771588 0.961403
0.613888 0.755116 0.891575
0.824767 0.830957 0.611201
1.001286 0.980772 0.192612
1.011547 1.024822 0.234309
1.019530 1.050282 0.281494
0.126696 0.784941 0.946121
0.127757 0.788937 0.951582
0.129027 0.793311 0.958419
0.263870 0.787380 0.972312
0.708731 0.756101 0.948428
0.851108 0.814315 0.680227
1.001348 0.976199 0.195838
1.011893 1.026031 0.200503
1.020226 1.053079 0.205167
0.127360 0.789448 0.946762
0.130607 0.799336 0.953087
0.134315 0.814039 0.960819
0.316648 0.830632 0.980961
0.789015 0.823765 0.981341
0.943338 0.743332 0.878190
1.001496 0.957381 0.205482
1.013541 1.029922 0.106192
1.023560 1.062061 0.043326
0.132359 0.805924 0.951699
0.136119 0.822681 0.957783
0.139478 0.836343 0.962941
0.404452 0.873062 0.982531
0.841897 0.912640 0.987179
0.989911 0.893866 0.974753
1.000934 0.850353 0.608964
1.011263 1.007638 0.000000
1.018979 1.020767 0.000000
0.156030 0.886076 0.970987
0.184178 0.895763 0.973207
0.244672 0.909614 0.977312
0.550479 0.937933 0.985085
0.859855 0.969284 0.984056
0.990475 0.987226 0.977268
0.998100 0.983901 0.982516
0.997628 0.939818 0.984321
0.997253 0.862640 0.985951
0.433765 0.999198 0.993202
0.475450 1.001564 0.993823
0.538372 1.003559 0.994477
0.652338 1.003956 0.994704
0.854917 1.004303 0.992865
0.990624 1.005246 0.976485
1.001436 1.005689 0.955100
1.001634 1.002362 0.928979
1.001830 0.993841 0.896657
0.730303 1.005127 1.003692
0.752512 1.005111 1.004357
0.785075 1.011486 1.005119
0.795960 1.014955 1.004752
0.926042 1.014283 0.993355
0.994751 1.007526 0.990054
1.003704 1.005689 0.978972
1.004000 1.007518 0.987326
1.004170 1.007518 0.986802
0.905547 1.005943 1.006237
0.917970 1.006038 1.006398
0.931864 1.019122 1.007404
0.899850 1.026072 1.006447
0.972928 1.024605 0.993807
0.998960 1.009858 0.995432
1.004669 1.005689 0.990626
1.004849 1.009682 0.997203
1.004930 1.009682 0.996999
0.098321 0.886648 0.984664
0.110195 0.886308 0.985164
0.125501 0.885973 0.985716
0.154944 0.878555 0.987326
0.645187 0.857063 0.995856
0.904856 0.899218 0.995942
1.001380 0.826996 0.994455
1.017291 0.828357 0.992432
1.031168 0.829709 0.990065
0.099667 0.887271 0.984781
0.111288 0.886936 0.985278
0.127427 0.886593 0.985826
0.162590 0.880506 0.987624
0.655158 0.860059 0.995864
0.904056 0.888382 0.996489
1.001380 0.827010 0.994459
1.017291 0.828375 0.992433
1.031168 0.829731 0.990061
0.101747 0.888410 0.984916
0.112841 0.888070 0.985409
0.129747 0.887715 0.985978
0.174140 0.883609 0.988198
0.673698 0.865528 0.995879
0.918098 0.851257 0.998731
1.001385 0.827049 0.994476
1.017288 0.828445 0.992447
1.031162 0.829830 0.990071
0.108846 0.889790 0.984651
0.123558 0.890563 0.985447
0.139211 0.891778 0.986381
0.203960 0.893526 0.989224
0.722439 0.880000 0.996005
0.951785 0.864282 1.000449
1.001498 0.827184 0.994568
1.017225 0.828572 0.992562
1.031025 0.829951 0.990190
0.163939 0.895549 0.987630
0.156758 0.899387 0.987491
0.152305 0.902669 0.987276
0.293413 0.915767 0.991513
0.782708 0.929218 0.996390
0.981922 0.920581 0.997093
1.001706 0.828588 0.997386
1.016895 0.832686 0.970774
1.030304 0.836782 0.868349
0.160437 0.912232 0.987771
0.177745 0.915915 0.988482
0.218445 0.922660 0.990018
0.482345 0.937992 0.994672
0.806893 0.967948 0.997490
0.988103 0.990474 0.998291
1.001564 0.982116 0.998498
1.001255 0.935553 0.998750
1.000943 0.855897 0.999035
0.460373 0.957565 0.993275
0.505251 0.959623 0.993571
0.580311 0.963741 0.994140
0.721581 0.972735 0.994903
0.890631 0.985194 0.994784
0.990077 0.992689 0.995235
1.005553 1.005553 0.999934
1.005553 1.005553 0.998582
1.005553 1.005553 0.997764
0.820364 0.995800 0.995160
0.840583 0.995874 0.995124
0.860593 0.995169 0.994296
0.902159 0.994727 0.993210
0.968511 0.998864 0.992979
0.994289 1.000499 0.994368
1.005553 1.005553 0.997132
1.005553 1.005553 0.996575
1.005553 1.005553 0.996011
0.983443 1.006948 0.997052
0.987510 1.006873 0.996731
0.987347 1.006201 0.994463
0.988837 1.005380 0.991154
0.994324 1.006637 0.990790
0.998113 1.005585 0.993500
1.005553 1.005553 0.995460
1.005553 1.005553 0.994902
1.005553 1.005553 0.994377
0.000000 0.946490 0.959729
0.000000 0.945589 0.962492
0.000000 0.942730 0.968640
0.179178 0.940419 0.985990
0.702009 0.944795 0.997067
0.993049 0.818739 1.011249
1.000899 0.873621 1.008120
1.017322 0.874780 1.008239
1.031237 0.875961 1.008011
0.000000 0.946608 0.960108
0.000000 0.945720 0.962855
0.000000 0.942869 0.968841
0.182141 0.941353 0.986079
0.706462 0.944337 0.997070
0.989635 0.851991 1.011303
1.000906 0.873615 1.008116
1.017322 0.874770 1.008237
1.031236 0.875951 1.008009
0.000000 0.946312 0.960994
0.000000 0.945431 0.963703
0.000000 0.942621 0.969208
0.189902 0.940946 0.985432
0.710632 0.936916 0.997052
0.966251 0.964275 1.014224
1.000936 0.873594 1.008106
1.017319 0.874720 1.008230
1.031230 0.875897 1.008003
0.000000 0.936439 0.962339
0.000000 0.936429 0.965728
0.015564 0.934652 0.971942
0.253408 0.947305 0.988761
0.721873 0.933809 0.996740
0.969032 0.932260 1.005667
1.000466 0.873441 1.008072
1.017311 0.874566 1.008386
1.031212 0.875739 1.008264
0.437595 0.960825 0.993851
0.340553 0.961877 0.992180
0.141021 0.957453 0.986909
0.313058 0.956939 0.992294
0.740379 0.950106 0.998040
0.976253 0.960161 1.005113
0.997655 0.917959 1.007185
1.017470 0.834475 1.006777
1.031559 0.783698 1.005127
0.181468 0.950354 0.989041
0.193292 0.955983 0.989214
0.210820 0.950114 0.987789
0.431412 0.957547 0.996086
0.756668 0.979811 1.005108
0.985787 0.995020 1.005051
1.002676 0.978332 1.005110
1.002752 0.935619 1.005257
1.002679 0.862445 1.005399
0.548830 0.872512 0.995373
0.580708 0.869008 0.995548
0.610061 0.846296 0.995510
0.785608 0.825083 0.996914
0.924459 0.854549 0.996986
0.991171 0.937522 0.998458
1.005051 1.005106 1.008158
1.006398 1.006336 1.010885
1.007397 1.007263 1.012285
0.859986 0.966191 0.998549
0.874699 0.968501 0.998347
0.881813 0.975522 0.997134
0.925208 0.981619 0.995591
0.989268 0.990160 0.995610
0.994930 0.983997 0.994147
1.006398 1.006336 1.022123
1.005553 1.005553 1.026482
1.005553 1.005553 1.028363
0.990211 0.996108 1.004195
0.991710 0.996875 1.003694
0.991077 1.002397 0.998255
0.990993 1.005076 0.994150
1.004851 1.005839 0.994099
0.999126 0.995407 0.991176
1.007397 1.007263 1.029454
1.005553 1.005553 1.034327
1.005553 1.005553 1.036209
0.000000 0.982447 0.919251
0.000000 0.981741 0.925775
0.000000 0.978968 0.941704
0.205982 0.979255 0.984477
0.752444 0.988668 0.998533
1.007232 0.721729 1.019690
1.000417 0.913569 1.014016
1.017322 0.914567 1.014545
1.031237 0.915603 1.014318
0.000000 0.982373 0.920027
0.000000 0.981674 0.926506
0.000000 0.978901 0.942008
0.204544 0.979517 0.984317
0.752670 0.987887 0.998524
1.005632 0.811454 1.019702
1.000431 0.913552 1.014008
1.017322 0.914543 1.014540
1.031236 0.915579 1.014312
0.000000 0.981740 0.922267
0.000000 0.981029 0.928600
0.000000 0.978229 0.942609
0.208001 0.977935 0.981938
0.745543 0.980531 0.998427
0.989952 0.996327 1.025136
1.000484 0.913485 1.013982
1.017319 0.914424 1.014520
1.031230 0.915457 1.014293
0.000000 0.969835 0.927027
0.000000 0.969436 0.934337
0.000000 0.966464 0.949372
0.312742 0.981063 0.988236
0.721302 0.970962 0.997414
0.981786 0.976120 1.007685
0.999489 0.913112 1.013882
1.017311 0.914051 1.014709
1.031212 0.915081 1.014588
0.738341 0.990558 0.998684
0.590193 0.990477 0.995476
0.130900 0.987371 0.986565
0.334098 0.982751 0.993030
0.689863 0.967003 1.001982
0.969352 0.984444 1.006688
0.995862 0.974520 1.011201
1.017470 0.879370 1.012735
1.031559 0.832326 1.010689
0.208487 0.976567 0.990023
0.210939 0.981659 0.989802
0.204778 0.971034 0.984559
0.380200 0.972779 0.997533
0.695639 0.987737 1.006092
0.982986 1.000743 1.005707
1.003491 0.973879 1.006358
1.003654 0.931995 1.006815
1.003608 0.857087 1.006995
0.628421 0.746956 0.997495
0.650016 0.733722 0.997586
0.637513 0.650187 0.996948
0.838554 0.539873 1.000149
0.952091 0.575869 1.000986
0.992315 0.795779 1.004627
0.999720 1.001138 1.012738
1.006398 1.006336 1.017065
1.007397 1.007263 1.018465
0.897106 0.876749 1.004423
0.906670 0.880391 1.004243
0.899600 0.894957 1.001483
0.950947 0.904351 0.997869
0.994970 0.934494 0.998202
0.995685 0.907438 0.995345
1.006398 1.006336 1.034728
1.005553 1.005553 1.041498
1.005553 1.005553 1.043380
0.994307 0.973125 1.005119
0.995151 0.975970 1.005117
0.993198 0.985438 1.003717
0.994814 0.989484 0.996331
1.005968 0.994169 0.996503
1.001390 0.963853 0.992691
1.007397 1.007263 1.042058
1.005553 1.005553 1.049344
1.005553 1.005553 1.051226
