public/sampleLut/12.cube
TITLE "Blockbuster-V2_3p00"
LUT_3D_SIZE 5
# S-Log3/Sony S-Gamut3.cine -> LA - Blockbuster type2/LA - Blockbuster type2, CineEI Shift 3.00, Black Level 0.46% IRE, Input 109% -> Output 100% - Created with LUTCalc v3.1.2 by Ben Turley September 2017
0.000000 0.000000 0.000000
0.359288 0.304577 0.001220
0.909532 0.098226 0.071302
0.985663 0.434620 0.124308
0.985663 0.435637 0.124308
0.000000 0.193175 0.019580
0.762015 0.380728 0.084580
0.945274 0.188920 0.087389
0.985663 0.434620 0.124308
0.985663 0.435636 0.124308
0.129824 0.788530 0.395873
0.615264 0.867590 0.332938
0.986453 0.821640 0.169541
0.985453 0.396468 0.124000
0.989905 0.683257 0.114681
0.726404 0.997130 0.778553
0.795925 0.997762 0.763913
0.917591 0.996826 0.752032
0.995810 1.003069 0.592544
0.995237 0.992750 0.218532
0.954029 1.006789 0.966618
0.966695 1.006082 0.969200
0.949493 1.007370 0.945369
1.006337 1.033662 1.018129
0.992086 1.050071 0.183581
0.000000 0.279898 0.530184
0.080117 0.240230 0.182277
0.673472 0.340522 0.156035
0.985663 0.434619 0.124308
0.985663 0.435635 0.124308
0.000000 0.225701 0.317619
0.332460 0.445754 0.454906
0.855951 0.367905 0.183621
0.985663 0.434620 0.124308
0.985663 0.435637 0.124308
0.133281 0.851065 0.728444
0.506712 0.865414 0.550884
0.974165 0.849066 0.333696
0.985546 0.405935 0.125001
0.989547 0.649087 0.111469
0.687580 0.996287 0.812090
0.795173 0.997927 0.786939
0.915614 0.997608 0.774337
0.996226 1.004261 0.680885
0.995032 0.961706 0.168424
0.952181 1.006443 0.960950
0.968032 1.005869 0.957185
0.950507 1.008008 0.961310
1.005795 1.028068 1.016613
0.995602 1.043579 0.751479
0.080981 0.613188 0.781841
0.071023 0.578548 0.684858
0.521498 0.586747 0.338207
0.987646 0.086641 0.018220
1.014060 1.082116 1.143844
0.078978 0.602753 0.780962
0.099493 0.677696 0.845285
0.679045 0.596870 0.528002
0.987223 0.089873 0.005811
1.012233 1.082266 1.138047
0.113908 0.743279 0.833757
0.187303 0.800486 0.870592
0.915570 0.904219 0.897783
0.995139 0.609705 0.314342
1.007616 0.986466 1.005439
0.545563 0.994553 0.961323
0.671887 0.995983 0.941706
0.917145 1.003672 0.883493
0.997592 1.005553 0.877199
0.995584 1.005553 0.597548
0.988811 1.005693 0.923226
0.996149 1.005585 0.943918
0.978642 1.027078 0.938283
1.005127 1.005553 1.010007
1.005124 1.005553 1.011365
0.098321 0.886648 0.984664
0.125501 0.885973 0.985716
0.645187 0.857063 0.995856
1.001380 0.826996 0.994455
1.031168 0.829709 0.990065
0.101747 0.888410 0.984916
0.129747 0.887715 0.985978
0.673698 0.865528 0.995879
1.001385 0.827049 0.994476
1.031162 0.829830 0.990071
0.163939 0.895549 0.987630
0.152305 0.902669 0.987276
0.782708 0.929218 0.996390
1.001706 0.828588 0.997386
1.030304 0.836782 0.868349
0.460373 0.957565 0.993275
0.580311 0.963741 0.994140
0.890631 0.985194 0.994784
1.005553 1.005553 0.999934
1.005553 1.005553 0.997764
0.983443 1.006948 0.997052
0.987347 1.006201 0.994463
0.994324 1.006637 0.990790
1.005553 1.005553 0.995460
1.005553 1.005553 0.994377
0.000000 0.982447 0.919251
0.000000 0.978968 0.941704
0.752444 0.988668 0.998533
1.000417 0.913569 1.014016
1.031237 0.915603 1.014318
0.000000 0.981740 0.922267
0.000000 0.978229 0.942609
0.745543 0.980531 0.998427
1.000484 0.913485 1.013982
1.031230 0.915457 1.014293
0.738341 0.990558 0.998684
0.130900 0.987371 0.986565
0.689863 0.967003 1.001982
0.995862 0.974520 1.011201
1.031559 0.832326 1.010689
0.628421 0.746956 0.997495
0.637513 0.650187 0.996948
0.952091 0.575869 1.000986
0.999720 1.001138 1.012738
1.007397 1.007263 1.018465
0.994307 0.973125 1.005119
0.993198 0.985438 1.003717
1.005968 0.994169 0.996503
1.007397 1.007263 1.042058
1.005553 1.005553 1.051226
