public/sampleLut/15.cube
TITLE "Generated by Resolve"
LUT_3D_SIZE 9
0 0 0
0 0 0
0 0 0
0 0 0
0 0 0
0 0 0
0 0 0
0 0 0
0 0 0
0 0 0
0 0 0
0 0 0
0 0 0
0 0 0
0 0 0
0 0 0
0 0 0
0.352682 0 0
0 0 0
0 0 0
0 0 0
0 0 0
0 0 0
0.0439612 0 0
0.431907 0 0
0.711635 0 0
1 0 0
0 0 0
0 0 0
0 0 0
0 0 0
0.192172 0 0
0.554238 0 0
0.846494 0 0
1 0 0
1 0 0
0 0.11548 0
0 0.209628 0
0 0.298314 0
0 0.352926 0
0.366629 0.366629 0
0.706371 0.349813 0
1 0.305486 0
1 0.221363 0
1 0.101717 0
0 0.641886 0
0 0.671717 0
0 0.696834 0
0 0.713787 0
0.207523 0.712474 0
0.692607 0.692592 0
1 0.655116 0
1 0.605356 0
1 0.549249 0
0 1 0
0 1 0
0 1 0
0 1 0
0 1 0
0.540383 1 0
0.961151 0.961151 0
1 0.908293 0
1 0.855329 0
0 1 0
0 1 0
0 1 0
0 1 0
0 1 0
0.3075 1 0
0.800336 1 0
1 1 0
1 1 0
0 1 0
0 1 0
0 1 0
0 1 0
0 1 0
0.0603494 1 0
0.659831 1 0
1 1 0
1 1 0
0 0 0
0 0 0
0 0 0
0 0 0
0 0 0
0 0 0
0 0 0
0 0 0
0 0 0
0 0 0
0 0 0
0 0 0
0 0 0
0 0 0
0 0 0
0 0 0
0 0 0
0.433127 0 0
0 0 0
0 0 0
0 0 0
0 0 0
0 0 0
0.092668 0 0
0.47747 0 0
0.747784 0 0
1 0 0
0 0 0
0 0 0
0 0 0
0 0 0
0.212451 0 0
0.571115 0 0
0.869322 0 0
1 0 0
1 0 0
0 0.138415 0
0 0.226932 0
0 0.307958 0
0 0.353552 0
0.359396 0.35938 0
0.706676 0.336294 0
1 0.283024 0
1 0.188876 0
1 0.0616464 0
0 0.648493 0
0 0.67277 0
0 0.695888 0
0 0.710262 0
0.172503 0.705104 0
0.680888 0.680888 0
1 0.640131 0
1 0.588785 0
1 0.532662 0
0 1 0
0 1 0
0 1 0
0 1 0
0 1 0
0.524865 0.994186 0
0.94461 0.944595 0
1 0.892027 0
1 0.840604 0
0 1 0
0 1 0
0 1 0
0 1 0
0 1 0
0.288182 1 0
0.788037 1 0
1 1 0
1 1 0
0 1 0
0 1 0
0 1 0
0 1 0
0 1 0
0.0330663 1 0
0.647028 1 0
1 1 0
1 1 0
0 0 0
0 0 0
0 0 0
0 0 0
0 0 0
0 0 0
0 0 0
0 0 0
0 0 0
0 0 0
0 0 0
0 0 0
0 0 0
0 0 0
0 0 0
0 0 0
0.0661326 0 0
0.507683 0 0
0 0 0
0 0 0
0 0 0
0 0 0
0 0 0
0.145068 0 0
0.520531 0 0
0.787228 0 0
1 0 0
0 0 0
0 0 0
0 0 0
0 0 0
0.237201 0 0
0.590417 0 0
0.894102 0 0
1 0 0
1 0 0
0 0.164523 0
0 0.248478 0
0 0.320729 0
0 0.357916 0
0.356909 0.356909 0
0.710536 0.32813 0
1 0.266011 0
1 0.1635 0
1 0.0302586 0
0 0.65716 0
0 0.677043 0
0 0.698512 0
0 0.710338 0
0.145022 0.701381 0
0.673243 0.673243 0
1 0.629862 0
1 0.577432 0
1 0.522408 0
0 1 0
0 1 0
0 1 0
0 1 0
0 1 0
0.512886 0.983322 0
0.933532 0.933532 0
1 0.881453 0
1 0.831785 0
0 1 0
0 1 0
0 1 0
0 1 0
0 1 0
0.280339 1 0
0.781186 1 0
1 1 0
1 1 0
0 1 0
0 1 0
0 1 0
0 1 0
0 1 0
0.0164645 1 0
0.639277 1 0
1 1 0
1 1 0
0 0 0
0 0 0
0 0 0
0 0 0
0 0 0
0 0 0
0 0 0
0 0 0
0 0 0
0 0 0
0 0 0
0 0 0
0 0 0
0 0 0
0 0 0
0 0 0
0.152514 0 0
0.557519 0 0
0 0 0
0 0 0
0 0 0
0 0 0
0 0 0
0.195285 0 0
0.549569 0 0
0.826566 0 0
1 0 0
0 0 0
0 0 0
0 0 0
0 0 0
0.259236 0 0
0.607752 0 0
0.915618 0 0
1 0 0
1 0 0
0 0.187808 0
0 0.266545 0
0 0.329397 0
0 0.358511 0
0.351202 0.351202 0
0.712749 0.316182 0
1 0.243977 0
1 0.133745 0
1 0 0
0 0.663294 0
0 0.679789 0
0 0.699336 0
0 0.708217 0
0.113466 0.695247 0
0.663401 0.663401 0
1 0.617807 0
1 0.564614 0
1 0.507393 0
0 1 0
0 1 0
0 1 0
0 1 0
0 1 0
0.495811 0.970947 0
0.921096 0.921096 0
1 0.869841 0
1 0.82211 0
0 1 0
0 1 0
0 1 0
0 1 0
0 1 0
0.26978 1 0
0.773281 1 0
1 1 0
1 1 0
0 1 0
0 1 0
0 1 0
0 1 0
0 1 0
0 1 0
0.630274 1 0
1 1 0
1 1 0
0 0 0
0 0 0
0 0 0
0 0 0
0 0 0
0 0 0
0 0 0
0 0 0
0 0 0
0 0 0
0 0 0
0 0 0
0 0 0
0 0 0
0 0 0
0 0 0
0.234852 0 0
0.603677 0 0
0 0 0
0 0 0
0 0 0
0 0 0
0 0 0
0.240909 0 0.0196536
0.57702 0 0.117723
0.863493 0 0.189059
1 0 0.230518
0 0 0
0 0 0
0 0 0.0812543
0 0 0.190112
0.274327 0 0.274327
0.620798 0 0.323064
0.931456 0 0.332799
1 0 0.309819
1 0 0.255543
0 0.205386 0.205371
0 0.276997 0.276997
0 0.330526 0.330526
0 0.351812 0.351812
0.338277 0.338277 0.338277
0.710781 0.295354 0.295354
1 0.21207 0.21207
1 0.0943313 0.0943465
1 0 0
0 0.66482 0.295171
0 0.67863 0.26685
0 0.69575 0.236011
0 0.701122 0.175402
0.0724804 0.683894 0.0724804
0.648539 0.648539 0
1 0.601099 0
1 0.547402 0
1 0.483513 0
0 1 0.0322423
0 1 0
0 1 0
0 1 0
0 0.999527 0
0.471611 0.954086 0
0.904387 0.904387 0
1 0.854429 0
1 0.808728 0
0 1 0
0 1 0
0 1 0
0 1 0
0 1 0
0.249989 1 0
0.760067 1 0
1 1 0
1 1 0
0 1 0
0 1 0
0 1 0
0 1 0
0 1 0
0 1 0
0.617258 1 0
1 1 0
1 1 0
0 0 0
0 0 0
0 0 0
0 0 0
0 0 0
0 0 0
0 0 0
0 0 0
0 0 0
0 0 0
0 0 0
0 0 0
0 0 0
0 0 0
0 0 0
0 0 0
0.313649 0 0
0.64831 0 0.172198
0 0 0
0 0 0
0 0 0
0 0 0
0 0 0.100145
0.283192 0 0.283192
0.602594 0 0.421775
0.899123 0 0.519463
1 0 0.572076
0 0 0
0 0 0.179614
0 0 0.361791
0 0 0.494362
0.284413 0 0.572549
0.630747 0 0.630747
0.943358 0 0.664775
1 0 0.676387
1 0 0.675914
0 0.219059 0.520241
0 0.282185 0.586938
0 0.326528 0.646632
0 0.340414 0.684779
0.32047 0.32047 0.701259
0.706203 0.267445 0.706203
1 0.17464 0.696742
1 0.0493782 0.669642
1 0 0.625742
0 0.663615 0.6636
0 0.67509 0.67509
0 0.689387 0.689372
0 0.690898 0.690898
0.0264744 0.669398 0.669398
0.630961 0.630945 0.630945
1 0.58204 0.58204
1 0.528923 0.528923
1 0.455192 0.455207
0 1 0.633478
0 1 0.604318
0 1 0.581079
0 1 0.5514
0 0.980835 0.509682
0.443122 0.935119 0.443122
0.885817 0.885817 0.369512
1 0.837598 0.30457
1 0.79382 0.243488
0 1 0.446387
0 1 0.379019
0 1 0.338796
0 1 0.304814
0 1 0.267781
0.225925 1 0.22591
0.744854 1 0.160052
1 1 0.07364
1 1 0
0 1 0.13167
0 1 0.106188
0 1 0.109957
0 1 0.0723583
0 1 0.010132
0 1 0
0.602335 1 0
1 1 0
1 1 0
0 0 0
0 0 0
0 0 0
0 0 0
0 0 0
0 0 0
0 0 0
0 0 0
0 0 0
0 0 0
0 0 0
0 0 0
0 0 0
0 0 0
0 0 0
0 0 0
0.38088 0 0.213977
0.691691 0 0.427939
0 0 0
0 0 0
0 0 0
0 0 0.0792554
0 0 0.338231
0.319661 0 0.521996
0.626871 0 0.626871
0.933364 0 0.729168
1 0 0.818875
0 0 0.186389
0 0 0.425055
0 0 0.573648
0 0 0.688548
0.289952 0 0.799283
0.637858 0 0.891279
0.951934 0 0.951934
1 0 0.987747
1 0 1
0 0.229038 0.722271
0 0.282551 0.8271
0 0.31809 0.918318
0 0.325017 0.980865
0.297887 0.297902 1
0.699367 0.233433 1
1 0.132128 1
1 0.000396735 1
1 0 1
0 0.660609 0.968795
0 0.669535 1
0 0.680613 1
0 0.678019 1
0 0.65243 1
0.611353 0.611368 1
1 0.561379 1
1 0.506096 0.978073
1 0.423133 0.923125
0 1 1
0 1 1
0 1 1
0 0.999344 0.999344
0 0.960525 0.960525
0.4112 0.914733 0.914733
0.866178 0.866178 0.866178
1 0.819989 0.819989
1 0.777966 0.777966
0 1 0.916533
0 1 0.877684
0 1 0.853483
0 1 0.828092
0 1 0.797009
0.199542 1 0.765545
0.728328 1 0.728328
1 1 0.687602
1 1 0.644892
0 1 0.742306
0 1 0.716594
0 1 0.705852
0 1 0.686946
0 1 0.657633
0 1 0.623514
0.586114 1 0.586114
0.984619 1 0.546242
1 1 0.501778
0 0 0
0 0 0
0 0 0
0 0 0
0 0 0
0 0 0
0 0 0
0 0 0
0 0 0
0 0 0
0 0 0
0 0 0
0 0 0
0 0 0
0 0 0
0.0233768 0 0.14966
0.441108 0 0.441108
0.733913 0 0.605707
0 0 0
0 0 0
0 0 0
0 0 0.294896
0 0 0.536858
0.351324 0 0.684062
0.650416 0 0.824552
0.96611 0 0.96611
1 0 1
0 0 0.409918
0 0 0.598291
0 0 0.750088
0 0 0.902327
0.291096 0 1
0.642298 0 1
0.957534 0 1
1 0 1
1 0 1
0 0.235126 0.951064
0 0.27834 1
0 0.305531 1
0 0.305882 1
0.269642 0.269657 1
0.69041 0.195163 1
1 0.0852064 1
1 0 1
1 0 1
0 0.656016 1
0 0.662058 1
0 0.669566 1
0 0.66276 1
0 0.633433 1
0.590188 0.590188 1
1 0.539483 1
1 0.475013 1
1 0.387823 1
0 1 1
0 1 1
0 1 1
0 0.978485 1
0 0.939025 1
0.37644 0.893339 1
0.84596 0.84596 1
1 0.801938 1
1 0.76144 1
0 1 1
0 1 1
0 1 1
0 1 1
0 1 1
0.168841 1 1
0.710811 1 1
1 1 1
1 1 1
0 1 1
0 1 1
0 1 1
0 1 1
0 1 1
0 1 1
0.568887 1 1
0.967468 1 0.967468
1 1 0.925673
0 0 0
0 0 0
0 0 0
0 0 0
0 0 0
0 0 0
0 0 0
0 0 0
0 0 0
0 0 0
0 0 0
0 0 0
0 0 0
0 0 0
0 0 0
0.0836957 0 0.365866
0.493385 0 0.600839
0.775021 0 0.775021
0 0 0
0 0 0
0 0 0.140795
0 0 0.497002
0.00308232 0 0.687297
0.379248 0 0.867552
0.673167 0 1
0.996796 0 1
1 0 1
0 0 0.575891
0 0 0.761593
0 0 0.947295
0 0 1
0.287938 0 1
0.64419 0 1
0.960861 0 1
1 0 1
1 0 1
0 0.237125 1
0 0.269642 1
0 0.28867 1
0 0.282216 1
0.236133 0.236149 1
0.679393 0.152819 1
1 0.0344091 1
1 0 1
1 0 1
0 0.649866 1
0 0.652705 1
0 0.656367 1
0 0.64535 1
0 0.612696 1
0.567742 0.567758 1
0.985992 0.517891 1
1 0.44036 1
1 0.349737 1
0 1 1
0 0.997543 1
0 0.981964 1
0 0.956405 1
0 0.916594 1
0.339467 0.871244 1
0.825467 0.825467 1
1 0.783551 1
1 0.744411 1
0 1 1
0 1 1
0 1 1
0 1 1
0 1 1
0.129809 1 1
0.69247 1 1
1 1 1
1 1 1
0 1 1
0 1 1
0 1 1
0 1 1
0 1 1
0 1 1
0.550835 1 1
0.949508 1 1
1 1 1
