public/sampleLut/15.cube
TITLE "Generated by Resolve"
LUT_3D_SIZE 5
0 0 0
0 0 0
0 0 0
0 0 0
0 0 0
0 0 0
0 0 0
0 0 0
0.431907 0 0
1 0 0
0 0.11548 0
0 0.298314 0
0.366629 0.366629 0
1 0.305486 0
1 0.101717 0
0 1 0
0 1 0
0 1 0
0.961151 0.961151 0
1 0.855329 0
0 1 0
0 1 0
0 1 0
0.659831 1 0
1 1 0
0 0 0
0 0 0
0 0 0
0 0 0
0 0 0
0 0 0
0 0 0
0 0 0
0.520531 0 0
1 0 0
0 0.164523 0
0 0.320729 0
0.356909 0.356909 0
1 0.266011 0
1 0.0302586 0
0 1 0
0 1 0
0 1 0
0.933532 0.933532 0
1 0.831785 0
0 1 0
0 1 0
0 1 0
0.639277 1 0
1 1 0
0 0 0
0 0 0
0 0 0
0 0 0
0 0 0
0 0 0
0 0 0
0 0 0
0.57702 0 0.117723
1 0 0.230518
0 0.205386 0.205371
0 0.330526 0.330526
0.338277 0.338277 0.338277
1 0.21207 0.21207
1 0 0
0 1 0.0322423
0 1 0
0 0.999527 0
0.904387 0.904387 0
1 0.808728 0
0 1 0
0 1 0
0 1 0
0.617258 1 0
1 1 0
0 0 0
0 0 0
0 0 0
0 0 0
0 0 0
0 0 0
0 0 0
0 0 0.338231
0.626871 0 0.626871
1 0 0.818875
0 0.229038 0.722271
0 0.31809 0.918318
0.297887 0.297902 1
1 0.132128 1
1 0 1
0 1 1
0 1 1
0 0.960525 0.960525
0.866178 0.866178 0.866178
1 0.777966 0.777966
0 1 0.742306
0 1 0.705852
0 1 0.657633
0.586114 1 0.586114
1 1 0.501778
0 0 0
0 0 0
0 0 0
0 0 0
0 0 0
0 0 0
0 0 0.140795
0.00308232 0 0.687297
0.673167 0 1
1 0 1
0 0.237125 1
0 0.28867 1
0.236133 0.236149 1
1 0.0344091 1
1 0 1
0 1 1
0 0.981964 1
0 0.916594 1
0.825467 0.825467 1
1 0.744411 1
0 1 1
0 1 1
0 1 1
0.550835 1 1
1 1 1
