public/sampleLut/15.cube
TITLE "Generated by Resolve"
LUT_3D_SIZE 33
0 0 0
0 0 0
0 0 0
0 0 0
0 0 0
0 0 0
0 0 0
0 0 0
0 0 0
0 0 0
0 0 0
0 0 0
0 0 0
0 0 0
0 0 0
0 0 0
0 0 0
0 0 0
0 0 0
0 0 0
0 0 0
0 0 0
0 0 0
0 0 0
0 0 0
0 0 0
0 0 0
0 0 0
0 0 0
0 0 0
0 0 0
0 0 0
0 0 0
0 0 0
0 0 0
0 0 0
0 0 0
0 0 0
0 0 0
0 0 0
0 0 0
0 0 0
0 0 0
0 0 0
0 0 0
0 0 0
0 0 0
0 0 0
0 0 0
0 0 0
0 0 0
0 0 0
0 0 0
0 0 0
0 0 0
0 0 0
0 0 0
0 0 0
0 0 0
0 0 0
0 0 0
0 0 0
0 0 0
0 0 0
0 0 0
0 0 0
0 0 0
0 0 0
0 0 0
0 0 0
0 0 0
0 0 0
0 0 0
0 0 0
0 0 0
0 0 0
0 0 0
0 0 0
0 0 0
0 0 0
0 0 0
0 0 0
0 0 0
0 0 0
0 0 0
0 0 0
0 0 0
0 0 0
0 0 0
0 0 0
0 0 0
0 0 0
0 0 0
0 0 0
0 0 0
0 0 0
0 0 0
0 0 0
0 0 0
0 0 0
0 0 0
0 0 0
0 0 0
0 0 0
0 0 0
0 0 0
0 0 0
0 0 0
0 0 0
0 0 0
0 0 0
0 0 0
0 0 0
0 0 0
0 0 0
0 0 0
0 0 0
0 0 0
0 0 0
0 0 0
0 0 0
0 0 0
0 0 0
0 0 0
0 0 0
0 0 0
0 0 0
0 0 0
0 0 0
0 0 0
0 0 0
0.0311437 0 0
0 0 0
0 0 0
0 0 0
0 0 0
0 0 0
0 0 0
0 0 0
0 0 0
0 0 0
0 0 0
0 0 0
0 0 0
0 0 0
0 0 0
0 0 0
0 0 0
0 0 0
0 0 0
0 0 0
0 0 0
0 0 0
0 0 0
0 0 0
0 0 0
0 0 0
0 0 0
0 0 0
0 0 0
0 0 0
0.000915541 0 0
0.111727 0 0
0.230915 0 0
0.352682 0 0
0 0 0
0 0 0
0 0 0
0 0 0
0 0 0
0 0 0
0 0 0
0 0 0
0 0 0
0 0 0
0 0 0
0 0 0
0 0 0
0 0 0
0 0 0
0 0 0
0 0 0
0 0 0
0 0 0
0 0 0
0 0 0
0 0 0
0 0 0
0 0 0
0 0 0
0 0 0
0 0 0
0.0637369 0 0
0.171969 0 0
0.289219 0 0
0.398657 0 0
0.496773 0 0
0.567147 0 0
0 0 0
0 0 0
0 0 0
0 0 0
0 0 0
0 0 0
0 0 0
0 0 0
0 0 0
0 0 0
0 0 0
0 0 0
0 0 0
0 0 0
0 0 0
0 0 0
0 0 0
0 0 0
0 0 0
0 0 0
0 0 0
0 0 0
0 0 0
0 0 0
0.0087892 0 0
0.106432 0 0
0.211673 0 0
0.323445 0 0
0.425208 0 0
0.51603 0 0
0.579736 0 0
0.648356 0 0
0.720989 0 0
0 0 0
0 0 0
0 0 0
0 0 0
0 0 0
0 0 0
0 0 0
0 0 0
0 0 0
0 0 0
0 0 0
0 0 0
0 0 0
0 0 0
0 0 0
0 0 0
0 0 0
0 0 0
0 0 0
0 0 0
0 0 0
0 0 0
0.0349126 0 0
0.129381 0 0
0.231693 0 0
0.338048 0 0
0.435142 0 0
0.520836 0 0
0.582452 0 0
0.649393 0 0
0.720287 0 0
0.795239 0 0
0.874296 0 0
0 0 0
0 0 0
0 0 0
0 0 0
0 0 0
0 0 0
0 0 0
0 0 0
0 0 0
0 0 0
0 0 0
0 0 0
0 0 0
0 0 0
0 0 0
0 0 0
0 0 0
0 0 0
0 0 0
0 0 0
0.0439612 0 0
0.135225 0 0
0.234272 0 0
0.337316 0 0
0.431907 0 0
0.516945 0 0
0.577173 0 0
0.642435 0 0
0.711635 0 0
0.784848 0 0
0.862303 0 0
0.945129 0 0
1 0 0
0 0 0
0 0 0
0 0 0
0 0 0
0 0 0
0 0 0
0 0 0
0 0 0
0 0 0
0 0 0
0 0 0
0 0 0
0 0 0
0 0 0
0 0 0
0 0 0
0 0 0
0 0 0
0.0312505 0 0
0.118654 0 0
0.213443 0 0
0.315358 0 0
0.409613 0 0
0.496315 0 0
0.55993 0 0
0.623224 0 0
0.690455 0 0
0.762051 0 0
0.838911 0 0
0.921202 0 0
1 0 0
1 0 0
1 0 0
0 0 0
0 0 0
0 0 0
0 0 0
0 0 0
0 0 0
0 0 0
0 0 0
0 0 0
0 0 0
0 0 0
0 0 0
0 0 0
0 0 0
0 0 0
0 0 0
0 0 0
0.0788128 0 0
0.169039 0 0
0.267964 0 0
0.365225 0 0
0.45539 0 0
0.530755 0 0
0.591287 0 0
0.65687 0 0
0.727428 0 0
0.803128 0 0
0.884031 0 0
0.970077 0 0
1 0 0
1 0 0
1 0 0
1 0 0
0 0 0
0 0 0
0 0 0
0 0 0
0 0 0
0 0 0
0 0 0
0 0 0
0 0 0
0 0 0
0 0 0
0 0 0
0 0 0
0 0 0
0 0 0
0.0163272 0 0
0.101411 0 0
0.193957 0 0
0.295155 0 0
0.390448 0 0
0.479026 0 0
0.547814 0 0
0.611765 0 0
0.680583 0 0
0.754299 0 0
0.832883 0 0
0.916136 0 0
1 0 0
1 0 0
1 0 0
1 0 0
1 0 0
1 0 0
0 0 0
0 0 0
0 0 0
0 0 0
0 0 0
0 0 0
0 0 0
0 0 0
0 0 0
0 0 0
0 0 0
0 0 0
0 0 0
0 0 0
0.0110933 0 0
0.0978103 0 0
0.192172 0 0
0.295674 0 0
0.393713 0 0
0.484993 0 0
0.554238 0 0
0.620493 0 0
0.691432 0 0
0.766842 0 0
0.846494 0 0
0.930037 0 0
1 0 0
1 0 0
1 0 0
1 0 0
1 0 0
1 0 0
1 0 0
0 0 0
0 0 0
0 0 0
0 0 0
0 0 0
0 0 0
0 0 0
0 0 0
0 0 0
0 0 0
0 0 0
0 0 0
0 0 0
0 0 0
0.0670939 0 0
0.163531 0 0
0.270085 0.00410468 0
0.374838 0.00827039 0
0.471382 0.0101472 0
0.546471 0.00965896 0
0.613886 0.00680552 0
0.685496 0.00163272 0
0.761028 0 0
0.840146 0 0
0.922484 0 0
1 0 0
1 0 0
1 0 0
1 0 0
1 0 0
1 0 0
1 0 0
1 0 0
0 0 0
0 0 0
0 0 0
0 0 0
0 0 0
0 0 0
0 0 0
0 0 0
0 0.0195926 0
0 0.0391852 0
0 0.0563211 0
0 0.0715801 0
0 0.0849317 0
0.00784314 0.0962692 0
0.105501 0.105501 0
0.212406 0.112505 0
0.327031 0.117159 0
0.431876 0.119432 0
0.523079 0.119326 0
0.589212 0.116899 0
0.660456 0.11223 0
0.735149 0.10547 0
0.812955 0.0967727 0
0.893629 0.0862745 0
0.976883 0.0741588 0
1 0.0605478 0
1 0.0453498 0
1 0.0281834 0
1 0.00894179 0
1 0 0
1 0 0
1 0 0
1 0 0
0 0 0
0 0 0
0 0.0195926 0
0 0.0430457 0
0 0.0654765 0
0 0.0870069 0
0 0.107881 0
0 0.128634 0
0 0.15111 0
0 0.171115 0
0 0.188357 0
0 0.203235 0
0 0.215793 0
0.014374 0.226047 0
0.121782 0.233799 0
0.239033 0.239017 0
0.358404 0.241688 0
0.464866 0.241871 0
0.546212 0.239719 0
0.616724 0.23537 0
0.69041 0.228977 0
0.766995 0.220752 0
0.846281 0.210895 0
0.928862 0.19939 0
1 0.186007 0
1 0.170642 0
1 0.153201 0
1 0.133577 0
1 0.111666 0
1 0.0873884 0
1 0.0607309 0
1 0.0316625 0
1 0.000244144 0
0 0.11548 0
0 0.140536 0
0 0.164431 0
0 0.18732 0
0 0.209628 0
0 0.231785 0
0 0.253788 0
0 0.275532 0
0 0.298314 0
0 0.316884 0
0 0.331716 0
0 0.343648 0
0 0.352926 0
0 0.359716 0
0.114504 0.364157 0
0.24065 0.366415 0
0.366629 0.366629 0
0.476677 0.364935 0
0.556878 0.361501 0
0.629908 0.35642 0
0.706371 0.349813 0
0.78645 0.341558 0
0.870329 0.331533 0
0.95816 0.319585 0
1 0.305486 0
1 0.28867 0
1 0.26894 0
1 0.246372 0
1 0.221363 0
1 0.194522 0
1 0.165637 0
1 0.13463 0
1 0.101717 0
0 0.275181 0
0 0.299947 0
0 0.322606 0
0 0.343801 0
0 0.363638 0
0 0.382208 0
0 0.399558 0
0 0.416098 0
0 0.433524 0
0 0.447364 0
0 0.457786 0
0 0.465568 0
0 0.471107 0
0 0.474632 0
0.0875105 0.476371 0
0.221027 0.476493 0
0.356146 0.475242 0
0.472847 0.472831 0
0.557794 0.469169 0
0.634867 0.464195 0
0.715801 0.457755 0
0.800702 0.449744 0
0.889723 0.440024 0
0.982956 0.428458 0
1 0.414862 0
1 0.3991 0
1 0.381033 0
1 0.360555 0
1 0.337606 0
1 0.312154 0
1 0.283452 0
1 0.251469 0
1 0.217884 0
0 0.428977 0
0 0.448631 0
0 0.46659 0
0 0.482826 0
0 0.497368 0
0 0.510384 0
0 0.52076 0
0 0.528618 0
0 0.537133 0
0 0.544366 0
0 0.549493 0
0 0.553079 0
0 0.555383 0
0 0.556771 0
0.0441291 0.557366 0
0.183932 0.557122 0
0.329641 0.556054 0
0.456703 0.554086 0
0.551217 0.551217 0
0.632639 0.547387 0
0.718181 0.54255 0
0.807904 0.53669 0
0.901793 0.530327 0
0.999802 0.523079 0
1 0.513069 0
1 0.499138 0
1 0.483162 0
1 0.465141 0
1 0.445106 0
1 0.423041 0
1 0.399039 0
1 0.37319 0
1 0.345571 0
0 0.547616 0
0 0.558892 0
0 0.569162 0
0 0.578393 0
0 0.586679 0
0 0.594141 0
0 0.601007 0
0 0.607691 0
0 0.615579 0
0 0.62153 0
0 0.625879 0
0 0.629145 0
0 0.631464 0
0 0.632868 0
0 0.633371 0
0.125933 0.632929 0
0.282231 0.63154 0
0.424674 0.629129 0
0.535454 0.625681 0
0.621149 0.621149 0
0.71107 0.615503 0
0.805051 0.608728 0
0.902892 0.600855 0
1 0.591928 0
1 0.581964 0
1 0.571084 0
1 0.559365 0
1 0.546899 0
1 0.533974 0
1 0.521584 0
1 0.504173 0
1 0.483619 0
1 0.46157 0
0 0.641886 0
0 0.650904 0
0 0.658778 0
0 0.66566 0
0 0.671717 0
0 0.677165 0
0 0.682643 0
0 0.688731 0
0 0.696834 0
0 0.703243 0
0 0.707927 0
0 0.711406 0
0 0.713787 0
0 0.715099 0
0 0.715343 0
0.0442512 0.714488 0
0.207523 0.712474 0
0.371969 0.709285 0
0.508186 0.704906 0
0.598871 0.699336 0
0.692607 0.692592 0
0.789899 0.684718 0
0.890425 0.675776 0
0.99379 0.665888 0
1 0.655116 0
1 0.64358 0
1 0.631373 0
1 0.618601 0
1 0.605356 0
1 0.59173 0
1 0.577798 0
1 0.563622 0
1 0.549249 0
0 0.734829 0
0 0.741207 0
0 0.746822 0
0 0.752346 0
0 0.757916 0
0 0.763638 0
0 0.769635 0
0 0.776257 0
0 0.785016 0
0 0.791867 0
0 0.796735 0
0 0.800168 0
0 0.802258 0
0 0.803037 0
0 0.802502 0
0 0.800641 0
0.112963 0.797436 0
0.295644 0.79295 0
0.455116 0.787152 0
0.566354 0.780163 0
0.663203 0.772061 0
0.762966 0.762966 0
0.865278 0.752941 0
0.969757 0.742138 0
1 0.730648 0
1 0.718563 0
1 0.705959 0
1 0.692958 0
1 0.679622 0
1 0.66601 0
1 0.652186 0
1 0.638209 0
1 0.62414 0
0 0.826886 0
0 0.833082 0
0 0.839231 0
0 0.845365 0
0 0.851484 0
0 0.857694 0
0 0.864103 0
0 0.871046 0
0 0.880125 0
0 0.886931 0
0 0.891356 0
0 0.89398 0
0 0.894972 0
0 0.894408 0
0 0.892302 0
0 0.88867 0
0.00492866 0.883696 0
0.195758 0.877455 0
0.383673 0.870024 0
0.527474 0.861555 0
0.625818 0.85214 0
0.727428 0.841917 0
0.830976 0.830961 0
0.936156 0.819409 0
1 0.80734 0
1 0.794827 0
1 0.781964 0
1 0.768795 0
1 0.755398 0
1 0.741833 0
1 0.72813 0
1 0.714351 0
1 0.700511 0
0 0.926375 0
0 0.933227 0
0 0.939925 0
0 0.946456 0
0 0.952789 0
0 0.958968 0
0 0.965103 0
0 0.971542 0
0 0.979995 0
0 0.985687 0
0 0.988602 0
0 0.989364 0
0 0.988312 0
0 0.98558 0
0 0.981338 0
0 0.975708 0
0 0.968856 0
0.0915236 0.960906 0
0.297154 0.95198 0
0.47042 0.942229 0
0.583963 0.931731 0
0.686885 0.920623 0
0.791272 0.908949 0
0.896849 0.896834 0
1 0.884352 0
1 0.87155 0
1 0.858488 0
1 0.845243 0
1 0.831861 0
1 0.818357 0
1 0.804807 0
1 0.791257 0
1 0.777798 0
0 1 0
0 1 0
0 1 0
0 1 0
0 1 0
0 1 0
0 1 0
0 1 0
0 1 0
0 1 0
0 1 0
0 1 0
0 1 0
0 1 0
0 1 0
0 1 0
0 1 0
0 1 0
0.197467 1 0
0.397757 1 0
0.540383 1 0
0.64416 0.998581 0
0.749004 0.986404 0
0.854734 0.973907 0
0.961151 0.961151 0
1 0.948165 0
1 0.935012 0
1 0.921706 0
1 0.908293 0
1 0.894865 0
1 0.881498 0
1 0.868284 0
1 0.855329 0
0 1 0
0 1 0
0 1 0
0 1 0
0 1 0
0 1 0
0 1 0
0 1 0
0 1 0
0 1 0
0 1 0
0 1 0
0 1 0
0 1 0
0 1 0
0 1 0
0 1 0
0 1 0
0.101259 1 0
0.316838 1 0
0.491203 1 0
0.601144 1 0
0.706188 1 0
0.811826 1 0
0.91783 1 0
1 1 0
1 1 0
1 0.996994 0
1 0.98352 0
1 0.970184 0
1 0.957092 0
1 0.94432 0
1 0.931899 0
0 1 0
0 1 0
0 1 0
0 1 0
0 1 0
0 1 0
0 1 0
0 1 0
0 1 0
0 1 0
0 1 0
0 1 0
0 1 0
0 1 0
0 1 0
0 1 0
0 1 0
0 1 0
0.00972 1 0
0.227604 1 0
0.426535 1 0
0.559548 1 0
0.664637 1 0
0.769924 1 0
0.875029 1 0
0.979583 1 0
1 1 0
1 1 0
1 1 0
1 1 0
1 1 0
1 1 0
1 1 0
0 1 0
0 1 0
0 1 0
0 1 0
0 1 0
0 1 0
0 1 0
0 1 0
0 1 0
