public/sampleLut/16.cube
TITLE "Generated by Resolve"
LUT_3D_SIZE 9
0 0 0
0.00015259 0.00015259 0.00015259
0.00808728 0.00637827 0.00637827
0.026978 0.0145418 0.0145418
0.0625467 0.0213321 0.0213321
0.122362 0.024033 0.0240482
0.214191 0.0201877 0.0201877
0.345754 0.00743114 0.00743114
0.522774 0 0
0.0012665 0.0012665 0.0012665
0.00189212 0.00189212 0.00187686
0.0124208 0.00962844 0.00958267
0.0345312 0.0181888 0.0180667
0.0747845 0.0246738 0.0244602
0.140948 0.0264744 0.0261387
0.240589 0.02121 0.020737
0.38117 0.00666819 0.00604257
0.567636 0 0
0.0332494 0.0407263 0.0332494
0.035523 0.0428016 0.0348363
0.0648966 0.0556649 0.0438697
0.118563 0.06392 0.0477302
0.203372 0.0654765 0.0444648
0.325292 0.0585946 0.0324865
0.488334 0.0420386 0.0107576
0.69398 0.0152895 0
0.941176 0 0
0.0575723 0.112718 0.0575875
0.0614633 0.116106 0.0588388
0.111482 0.129946 0.0597238
0.199695 0.134844 0.0516518
0.327138 0.130404 0.0346532
0.494255 0.116396 0.00891127
0.699413 0.0931868 0
0.938903 0.0616617 0
1 0.0232853 0
0.0473487 0.217578 0.0475624
0.0536812 0.222156 0.0480049
0.12607 0.234958 0.041001
0.245106 0.236103 0.024506
0.403952 0.227329 0.000671397
0.597391 0.209979 0
0.819287 0.185672 0
1 0.156283 0
1 0.124041 0
0.00834669 0.348913 0.00894179
0.0187991 0.354177 0.00978103
0.113329 0.36437 0.0033875
0.255436 0.362264 0
0.431632 0.351446 0
0.632395 0.334447 0
0.851347 0.313207 0
1 0.288426 0
1 0.260716 0
0 0.491981 0
0 0.497169 0
0.10248 0.503868 0
0.256794 0.500435 0
0.437949 0.490532 0
0.640284 0.47567 0
0.859876 0.456886 0
1 0.434989 0
1 0.410788 0
0 0.635477 0
0 0.64126 0
0.103197 0.649027 0
0.260914 0.647196 0
0.44416 0.639124 0
0.646571 0.62649 0
0.863554 0.610498 0
1 0.592233 0
1 0.572702 0
0 0.785519 0
0 0.792035 0
0.112703 0.800381 0
0.273793 0.799542 0
0.45771 0.793057 0.00323491
0.657343 0.782803 0.00717174
0.867811 0.770184 0.0100862
1 0.756191 0.0120546
1 0.741436 0.0130159
0.00106813 0.00106813 0.00109865
0.00151064 0.00151064 0.00157168
0.0115053 0.00895705 0.00950637
0.0328679 0.0173953 0.0187076
0.0719921 0.0238956 0.026215
0.136629 0.0258183 0.0294041
0.234424 0.0207675 0.0258335
0.372808 0.0065156 0.0132448
0.557 0 0
0.00334173 0.00335698 0.00352483
0.00421149 0.00419623 0.00440986
0.0167391 0.0128481 0.0136263
0.0417182 0.0215457 0.0231479
0.0861219 0.0276036 0.0302586
0.157855 0.0284428 0.0323949
0.264195 0.0218204 0.0272526
0.412329 0.00560006 0.012665
0.606531 0 0
0.0371862 0.0459297 0.0406043
0.0397345 0.0481575 0.0424964
0.0713664 0.0609445 0.0528267
0.128847 0.0686046 0.0576791
0.218631 0.0691997 0.0552377
0.346227 0.0610971 0.0439765
0.515038 0.0432593 0.0229648
0.725978 0.0153353 0
0.977401 0 0
0.0603189 0.120073 0.0701305
0.0646067 0.123583 0.0717632
0.117433 0.136965 0.0742046
0.209628 0.141054 0.0674601
0.341421 0.135668 0.0517281
0.512627 0.12076 0.0272679
0.721096 0.096849 0
0.962631 0.0649577 0
1 0.0266575 0
0.0485847 0.226398 0.0661936
0.0555276 0.231067 0.0670939
0.130892 0.243244 0.0619669
0.253208 0.243656 0.0471656
0.414939 0.234257 0.024979
0.610361 0.216526 0
0.832914 0.192187 0
1 0.163226 0
1 0.131914 0
0.0102998 0.358175 0.0345159
0.021622 0.363485 0.0358892
0.118822 0.373068 0.0314336
0.263096 0.370489 0.0192111
0.440467 0.359487 0.0030518
0.641276 0.342657 0
0.860471 0.32163 0
1 0.297124 0
1 0.269718 0
0 0.500557 0.0055848
0 0.505745 0.010071
0.110857 0.512291 0.0164645
0.265644 0.508995 0.013611
0.447135 0.499275 0.00476081
0.649638 0.484642 0
0.8692 0.466117 0
1 0.444572 0
1 0.420829 0
0 0.644175 0
0 0.650111 0.0059205
0.112703 0.657954 0.0159457
0.270832 0.656245 0.0174258
0.454246 0.648371 0.0139315
0.656535 0.635996 0.00743114
0.872938 0.620371 0
1 0.602609 0
1 0.583673 0
0 0.794446 0.0016022
0 0.801083 0.0104677
0.124193 0.809445 0.0269169
0.285603 0.808728 0.0364996
0.469368 0.802487 0.0427253
0.668406 0.79263 0.0471199
0.877974 0.780514 0.0502632
1 0.767071 0.0522774
1 0.752865 0.0530709
0.00303655 0.00303655 0.0034638
0.00369268 0.00366217 0.00421149
0.0156252 0.0120089 0.0142061
0.0397345 0.0205539 0.0251774
0.0828412 0.026566 0.0343481
0.152819 0.0274815 0.0390936
0.257069 0.0209964 0.0370184
0.402792 0.00500496 0.0259251
0.594522 0 0.00421149
0.00604257 0.00608835 0.00703441
0.00715648 0.0071107 0.00825513
0.0216526 0.0164187 0.0195163
0.0497292 0.0250858 0.030869
0.0985885 0.0305028 0.039704
0.175982 0.0302434 0.043473
0.28957 0.021973 0.0397803
0.445411 0.00392157 0.0267033
0.647395 0 0.00285344
0.0410925 0.0512245 0.0517739
0.0439155 0.0535744 0.0541695
0.0778821 0.0661479 0.0669718
0.139223 0.0730602 0.0741436
0.233997 0.0725261 0.0738994
0.367163 0.0630961 0.064744
0.541558 0.0438849 0.0458228
0.757488 0.0147402 0.0169528
1 0 0
0.0625467 0.127016 0.0905318
0.0672465 0.130663 0.0928206
0.12285 0.143435 0.0981613
0.218906 0.146609 0.0940414
0.354833 0.1402 0.080766
0.529854 0.124361 0.0586557
0.741253 0.0997482 0.0285191
0.984436 0.0675517 0
1 0.0293584 0
0.0491646 0.23444 0.0966201
0.056733 0.239185 0.0982223
0.134966 0.25066 0.0959182
0.260426 0.250278 0.0836194
0.424796 0.240253 0.0637522
0.621881 0.222187 0.0381018
0.8448 0.197894 0.00857557
1 0.169436 0
1 0.138979 0
0.0116579 0.3664 0.0742199
0.0238651 0.37174 0.0762646
0.123613 0.380697 0.0740978
0.269871 0.377676 0.0638895
0.448203 0.366552 0.0495613
0.64918 0.349905 0.0328069
0.868574 0.329107 0.0122835
1 0.304875 0
1 0.277806 0
0 0.507973 0.0526589
0.00204471 0.513146 0.0577249
0.118318 0.519738 0.0644846
0.273564 0.516594 0.0618753
0.455375 0.507057 0.0532998
0.658015 0.492653 0.0404212
0.87747 0.474418 0.0244144
1 0.453254 0.00631724
1 0.429999 0
0 0.651942 0.0484474
0.000335698 0.65803 0.0550851
0.12137 0.665934 0.0653239
0.279911 0.664378 0.0671092
0.463462 0.656703 0.0639963
0.665583 0.644617 0.0579538
0.881361 0.629389 0.0504158
1 0.612161 0.0424811
1 0.593851 0.0348363
0 0.802426 0.052018
0.00827039 0.809201 0.0611582
0.135027 0.817578 0.0779278
0.296681 0.817029 0.0878614
0.480262 0.811063 0.0943923
0.678691 0.801633 0.0989242
0.887327 0.790051 0.101961
1 0.777188 0.10367
1 0.763561 0.104051
0.00547799 0.00547799 0.00703441
0.00631724 0.00627146 0.00808728
0.0200656 0.0152285 0.0205539
0.0469673 0.0237125 0.033875
0.0941482 0.029099 0.0453956
0.169314 0.0289158 0.0525521
0.280262 0.0208438 0.0528267
0.433143 0.00303655 0.0441291
0.63212 0 0.0248875
0.00910964 0.00917067 0.0119478
0.0104524 0.0103914 0.0135805
0.0269017 0.0201419 0.0274052
0.0581064 0.0285954 0.0412604
0.111559 0.0332189 0.0525521
0.194827 0.0316777 0.0587625
0.315404 0.0217288 0.0574807
0.478767 0.00178531 0.0468147
0.68809 0 0.0254368
0.0448463 0.0564736 0.0665751
0.0479438 0.0589609 0.0696574
0.0842756 0.0711681 0.0858015
0.149508 0.0772259 0.0961776
0.249195 0.0754864 0.0990005
0.387747 0.0646677 0.0928206
0.567437 0.0440833 0.0767681
0.78793 0.0137636 0.0507362
1 0 0.015259
0.0643626 0.133654 0.11751
0.0694896 0.137377 0.120653
0.127871 0.149493 0.129686
0.22768 0.151675 0.128908
0.367575 0.144244 0.1187
0.546105 0.127489 0.0994583
0.760128 0.102235 0.0720378
1 0.0697795 0.0377966
1 0.0318151 0
0.0492866 0.241917 0.135897
0.0575265 0.246723 0.138384
0.138582 0.25745 0.13933
0.267018 0.256306 0.12987
0.433799 0.245686 0.112505
0.632319 0.227344 0.089128
0.855283 0.203174 0.0616922
1 0.175341 0.0323796
1 0.145495 0.00248722
0.012726 0.373861 0.123781
0.0258488 0.379217 0.126558
0.128054 0.387594 0.12668
0.276143 0.384192 0.118379
0.455207 0.373022 0.105684
0.656458 0.356573 0.0893416
0.876051 0.336019 0.0690929
1 0.312062 0.0457008
1 0.285328 0.0198672
0 0.514595 0.109209
0.00828565 0.51989 0.114519
0.125216 0.526589 0.121462
0.280934 0.523613 0.119081
0.463081 0.51426 0.110765
0.665812 0.500099 0.098146
0.8851 0.48217 0.0824445
1 0.461402 0.0647135
1 0.438682 0.0460059
0 0.659098 0.106188
0.00781262 0.665354 0.113024
0.129549 0.673335 0.123445
0.288502 0.671916 0.12546
0.472175 0.664454 0.122637
0.674052 0.652674 0.116899
0.889174 0.637888 0.109682
1 0.62121 0.102022
1 0.603555 0.0944533
0 0.809796 0.110948
0.0179751 0.816709 0.120317
0.14548 0.825116 0.13724
0.307393 0.824735 0.147341
0.49073 0.819104 0.153918
0.688487 0.810147 0.158312
0.896223 0.799115 0.160998
1 0.786847 0.162188
1 0.773785 0.161959
0.00822461 0.00822461 0.0120546
0.00926223 0.00917067 0.013489
0.0247807 0.018555 0.0288548
0.0545205 0.0268254 0.0451514
0.105867 0.0314336 0.0597391
0.186465 0.0300145 0.0699931
0.303853 0.0202945 0.0734112
0.463767 0.00062562 0.0678721
0.669612 0 0.0518349
0.0124361 0.0125429 0.0186313
0.0140078 0.0139162 0.0207828
0.0323796 0.0239261 0.0377203
0.0668345 0.0320134 0.0547341
0.124941 0.0357061 0.0692302
0.214145 0.0327764 0.0786145
0.341604 0.021088 0.0805371
0.51223 0 0.0730144
0.728511 0 0.0548104
0.0484474 0.0616312 0.0853437
0.0518349 0.0642405 0.0892653
0.090547 0.0759899 0.10956
0.159655 0.0810864 0.123903
0.264164 0.0780804 0.130495
0.407965 0.0658579 0.127901
0.592599 0.0439307 0.115282
0.817273 0.0124819 0.0925307
1 0 0.0602426
0.0657969 0.139956 0.150912
0.0713664 0.143771 0.155093
0.132494 0.155123 0.168399
0.235966 0.156298 0.17142
0.379629 0.147845 0.164675
0.561456 0.13022 0.148577
0.777768 0.104402 0.124056
1 0.0717784 0.0924849
1 0.0341497 0.0556497
0.0490883 0.248844 0.183185
0.0579995 0.253697 0.186648
0.141802 0.263661 0.191043
0.27306 0.261784 0.184497
0.442069 0.250629 0.169665
0.641749 0.23209 0.148455
0.864515 0.208148 0.122942
1 0.181033 0.0953231
1 0.151568 0.0658885
0.0136568 0.380697 0.181643
0.0277256 0.386069 0.185168
0.132296 0.393881 0.187411
0.282032 0.390158 0.180758
0.461723 0.379034 0.169162
0.66331 0.362799 0.153063
0.88304 0.342489 0.133059
1 0.318822 0.109911
1 0.29247 0.0843519
0 0.520729 0.172946
0.0141146 0.526192 0.178439
0.131716 0.532998 0.18555
0.287877 0.530175 0.183352
0.470314 0.521019 0.175235
0.673121 0.507103 0.162829
0.892226 0.489509 0.147372
1 0.469169 0.129915
1 0.447013 0.111513
0 0.665797 0.170916
0.0149691 0.672206 0.177951
0.137377 0.680262 0.188479
0.296742 0.678996 0.190631
0.480507 0.671778 0.187976
0.682109 0.660334 0.182422
0.896513 0.646006 0.175341
1 0.629908 0.167712
1 0.612924 0.159991
0 0.816693 0.176516
0.0274815 0.823743 0.186099
0.155703 0.832197 0.202991
0.31783 0.832029 0.213062
0.500862 0.826764 0.219455
0.697948 0.818296 0.223453
0.904753 0.807843 0.225589
1 0.796155 0.226108
1 0.783673 0.225162
0.0112154 0.0112154 0.0187839
0.0124361 0.0122988 0.0207218
0.0296941 0.0219272 0.0395514
0.0623484 0.0298466 0.0594492
0.117952 0.0335393 0.0777905
0.203983 0.0307622 0.0918135
0.327764 0.0193484 0.0990768
0.494469 0 0.0973526
0.706874 0 0.0851148
0.0159457 0.0160983 0.0274205
0.0177462 0.0176242 0.0302129
0.0380713 0.0277256 0.0508888
0.0758373 0.0353094 0.0717632
0.138521 0.037995 0.090135
0.233799 0.0335088 0.103441
0.368048 0.0200198 0.109224
0.545617 0 0.105501
0.76846 0 0.0910201
0.0518044 0.0666819 0.108553
0.0555123 0.0693828 0.113527
0.0966354 0.0805676 0.138643
0.169635 0.0846265 0.157549
0.278889 0.0803082 0.168475
0.42768 0.0666972 0.16994
0.617029 0.0434577 0.161105
0.845502 0.0109712 0.141939
1 0 0.113008
0.0668193 0.145922 0.190814
0.0728771 0.149783 0.196216
0.136751 0.160342 0.214176
0.243778 0.16051 0.221317
0.391043 0.151049 0.218219
0.575875 0.132616 0.205371
0.794186 0.10631 0.183749
1 0.0736248 0.154788
1 0.0364538 0.120302
0.0485847 0.255283 0.237964
0.0582132 0.260151 0.242496
0.144717 0.269383 0.25037
0.278645 0.266804 0.246693
0.449683 0.255192 0.234226
0.650278 0.23653 0.214984
0.872541 0.212924 0.191058
1 0.186496 0.164584
1 0.157305 0.135393
0.0145266 0.386954 0.246815
0.0295567 0.39234 0.251041
0.1364 0.399649 0.2551
0.287648 0.395697 0.24976
0.467872 0.38468 0.238712
0.669734 0.368673 0.222827
0.889586 0.348608 0.203037
1 0.325246 0.180102
1 0.299275 0.154772
0 0.526497 0.242741
0.0196078 0.532113 0.248417
0.137896 0.539025 0.25565
0.294484 0.536355 0.25362
0.477195 0.527413 0.24564
0.680049 0.513771 0.233387
0.898894 0.496513 0.218082
1 0.476631 0.200793
1 0.45507 0.182559
0 0.672129 0.241535
0.0218509 0.678691 0.248722
0.144961 0.686824 0.259281
0.304707 0.685725 0.261494
0.488533 0.678752 0.258885
0.689815 0.667674 0.253346
0.903487 0.653849 0.246235
1 0.638361 0.238407
1 0.622034 0.230274
0.00671397 0.823178 0.247623
0.0368811 0.830365 0.257343
0.16582 0.838895 0.274067
0.328069 0.838972 0.283879
0.51075 0.834119 0.289876
0.707103 0.826169 0.293278
0.913024 0.816312 0.294697
1 0.805203 0.294423
1 0.793286 0.292683
0.0143435 0.0143435 0.0276036
0.0157626 0.0155642 0.0301213
0.0347601 0.0252995 0.0530098
0.0704204 0.0327153 0.0771801
0.13019 0.0354314 0.0998856
0.22182 0.0311742 0.118425
0.351873 0.0179904 0.130129
0.525139 0 0.132784
0.74377 0 0.124819
0.0195621 0.0197757 0.0387427
0.0216068 0.0214237 0.0423438
0.0438849 0.0314946 0.0674144
0.0850538 0.038407 0.0928359
0.152499 0.0399329 0.115785
0.253697 0.033875 0.133654
0.394553 0.0185397 0.143877
0.578836 0 0.144457
0.807782 0 0.134127
0.054902 0.0715648 0.136614
0.0589303 0.0743267 0.142824
0.102495 0.0848554 0.173388
0.179355 0.0878157 0.197406
0.293233 0.0821698 0.213092
0.446845 0.0671702 0.218936
0.640558 0.0426947 0.21416
0.87245 0.00924697 0.198688
1 0 0.173175
0.0674754 0.151522 0.237339
0.0740215 0.155428 0.244099
0.140612 0.165148 0.266972
0.251102 0.164309 0.278386
0.401785 0.153887 0.278996
0.589395 0.134722 0.269383
0.8094 0.108003 0.250553
1 0.0753796 0.223987
1 0.0388037 0.191577
0.0478218 0.261234 0.299901
0.0582132 0.266117 0.305531
0.147341 0.274617 0.316777
0.283818 0.271412 0.315785
0.456687 0.259403 0.305425
0.657923 0.240742 0.287831
0.879423 0.217594 0.265126
1 0.191653 0.239216
1 0.162753 0.210269
0.0153964 0.392691 0.318547
0.0314336 0.398093 0.323415
0.140459 0.404959 0.328923
0.29308 0.400854 0.324422
0.473701 0.390021 0.313634
0.675837 0.374228 0.297932
0.895781 0.354437 0.278294
1 0.331411 0.255528
1 0.305837 0.230335
0.00299077 0.531929 0.317861
0.0248417 0.537713 0.323705
0.143786 0.544732 0.331029
0.300816 0.542229 0.329091
0.483772 0.533501 0.321202
0.686641 0.520134 0.309026
0.90518 0.503258 0.293767
1 0.483864 0.276524
1 0.462928 0.25832
0.00260929 0.678096 0.317296
0.0285496 0.684825 0.324636
0.152361 0.693034 0.335119
0.312474 0.692119 0.33727
0.496345 0.68542 0.334569
0.697246 0.674739 0.328878
0.91014 0.661433 0.321523
1 0.646571 0.313283
1 0.630915 0.30457
0.0150607 0.829313 0.323507
0.0462196 0.836652 0.333288
0.175845 0.845289 0.349645
0.338186 0.84564 0.358999
0.520424 0.841215 0.36437
0.716045 0.833829 0.36701
0.921096 0.824552 0.36759
1 0.814038 0.366445
1 0.80267 0.363851
0.0175784 0.0175784 0.0388495
0.0191958 0.0189059 0.0421149
0.0399329 0.0285954 0.0697032
0.078645 0.0353857 0.0988174
0.142763 0.0369879 0.126558
0.239857 0.0311894 0.150195
0.376089 0.0162356 0.166903
0.555673 0 0.174411
0.780133 0 0.171084
0.0232395 0.0235142 0.0530556
0.0255131 0.0252842 0.0576028
0.0497749 0.0351415 0.0878004
0.0944228 0.0412757 0.118471
0.166674 0.0415351 0.146609
0.273747 0.0338293 0.169619
0.421042 0.0166476 0.184802
0.611688 0 0.190097
0.846281 0 0.184222
0.0576944 0.0762341 0.169955
0.0620584 0.079057 0.1776
0.10808 0.088838 0.214145
0.188785 0.0906386 0.243702
0.307195 0.08365 0.264469
0.4654 0.0673075 0.274922
0.663203 0.0416419 0.274281
0.898131 0.00733959 0.262547
1 0 0.240375
0.0677348 0.156741 0.290593
0.0747997 0.160662 0.298817
0.144106 0.169543 0.326757
0.257969 0.167712 0.342489
0.411872 0.15639 0.346746
0.602045 0.136553 0.340215
0.823423 0.10956 0.323949
1 0.0771038 0.299519
1 0.0412451 0.268833
0.0468605 0.266697 0.368688
0.0580148 0.271611 0.375448
0.149722 0.279423 0.389853
0.288594 0.275639 0.391257
0.463081 0.26334 0.382681
0.664775 0.24477 0.366308
0.885267 0.222171 0.344366
1 0.196567 0.3187
1 0.167956 0.289952
0.0163272 0.397955 0.396231
0.0333867 0.403372 0.401633
0.144518 0.409873 0.408103
0.298253 0.405737 0.403967
0.479255 0.395102 0.393332
0.68162 0.379538 0.377783
0.90164 0.360021 0.358267
1 0.337346 0.335592
1 0.312215 0.310475
0.00723278 0.537072 0.397772
0.0298314 0.543023 0.403769
0.149447 0.550149 0.411154
0.306905 0.547829 0.409247
0.490105 0.53933 0.401373
0.692973 0.526253 0.389151
0.911116 0.509773 0.373846
1 0.490898 0.356497
1 0.470634 0.33814
0.00830091 0.683772 0.397635
0.0350958 0.690654 0.405081
0.159609 0.69897 0.415396
0.320089 0.698238 0.41735
0.503975 0.691829 0.414405
0.704448 0.681575 0.408392
0.916518 0.668818 0.400565
1 0.654612 0.391745
1 0.639612 0.382269
0.0234073 0.835157 0.40351
0.0555276 0.842634 0.413291
0.185809 0.851408 0.429084
0.348165 0.852094 0.437766
0.529931 0.848142 0.442344
0.724788 0.841306 0.444099
0.928985 0.832624 0.443732
1 0.82269 0.441672
1 0.811872 0.438193
0.0208591 0.0208591 0.0529335
0.0226749 0.0222934 0.0570687
0.045182 0.0317998 0.0900587
0.0870069 0.0378271 0.124819
0.155505 0.0382239 0.158206
0.258015 0.030808 0.187488
0.400275 0.0140383 0.209689
0.585916 0 0.2224
0.8159 0 0.224018
0.0268864 0.0272526 0.0708171
0.0294194 0.0291142 0.0765087
0.0557107 0.0386511 0.112535
0.103792 0.0439307 0.148959
0.180957 0.0427863 0.183062
0.293828 0.0333715 0.211719
0.447349 0.0143587 0.232258
0.644083 0 0.242573
0.883864 0 0.241352
0.0601511 0.0806439 0.208972
0.0648661 0.0834974 0.21825
0.11339 0.0924697 0.261234
0.197894 0.0930953 0.296666
0.320699 0.0847639 0.322728
0.483284 0.0671092 0.337881
0.684855 0.0403601 0.341405
0.922469 0.00531014 0.333303
1 0 0.31429
0.0676127 0.161563 0.350652
0.0752117 0.165499 0.360464
0.147234 0.173526 0.393484
0.264347 0.170733 0.413428
0.421286 0.158572 0.421195
0.613764 0.138155 0.417487
0.836255 0.110979 0.403479
1 0.0788281 0.380789
1 0.0438239 0.351385
0.0457008 0.271717 0.444068
0.0576486 0.276631 0.451926
0.151888 0.283803 0.469184
0.293019 0.279515 0.472602
0.46894 0.267018 0.46537
0.670848 0.248661 0.449729
0.890578 0.226596 0.428077
1 0.201236 0.402594
1 0.172946 0.373999
0.01738 0.402777 0.479271
0.0355077 0.408225 0.4851
0.148638 0.41442 0.491997
0.303197 0.410376 0.487953
0.48455 0.399939 0.47744
0.687144 0.384619 0.461982
0.90721 0.365377 0.442512
1 0.343069 0.419852
1 0.31841 0.394736
0.0112917 0.54197 0.482033
0.0346532 0.548089 0.488182
0.154925 0.555322 0.495552
0.31281 0.553185 0.493614
0.496193 0.544915 0.485649
0.699016 0.532158 0.47332
0.916747 0.516106 0.457801
1 0.497795 0.440208
1 0.478233 0.42153
0.0138705 0.689174 0.482078
0.0415351 0.696223 0.489601
0.166766 0.704646 0.499626
0.327596 0.704128 0.501244
0.511452 0.698039 0.497856
0.711467 0.688228 0.491325
0.922667 0.676051 0.482856
1 0.662486 0.473259
1 0.648157 0.462928
0.0317388 0.840757 0.487144
0.0649119 0.848386 0.496864
0.195758 0.857313 0.511894
0.358038 0.858366 0.519722
0.539284 0.854917 0.523339
0.733379 0.848676 0.524117
0.936767 0.840574 0.522759
1 0.83122 0.519722
1 0.820935 0.515328
