public/sampleLut/16.cube
TITLE "Generated by Resolve"
LUT_3D_SIZE 33
0 0 0
0 0 0
0 0 0
0 0 0
0.00015259 0.00015259 0.00015259
0.00125124 0.00122072 0.00122072
0.00296025 0.00271611 0.00271611
0.00523384 0.00445563 0.00445563
0.00808728 0.00637827 0.00637827
0.0116121 0.00839246 0.00839246
0.0158694 0.0104524 0.0104524
0.0209659 0.0125277 0.0125277
0.026978 0.0145418 0.0145418
0.0340276 0.0164797 0.0164797
0.042237 0.0182803 0.0182803
0.0516976 0.019913 0.019913
0.0625467 0.0213321 0.0213321
0.0749065 0.0225071 0.0225071
0.0889143 0.0233616 0.0233616
0.104692 0.0238956 0.0238956
0.122362 0.024033 0.0240482
0.142046 0.0237736 0.0237736
0.163897 0.0230564 0.0230564
0.188006 0.0218357 0.0218357
0.214191 0.0201877 0.0201877
0.243107 0.0178988 0.0179141
0.274601 0.0150454 0.0150454
0.308797 0.0115511 0.0115511
0.345754 0.00743114 0.00743114
0.38558 0.00263981 0.00263981
0.428305 0 0
0.474022 0 0
0.522774 0 0
0 0 0
0 0 0
0 0 0
0 0 0
0.000167849 0.000167849 0.000167849
0.00129702 0.0012665 0.0012665
0.00302129 0.00276188 0.00276188
0.00531014 0.00451667 0.00451667
0.00819409 0.00643931 0.00643931
0.0117342 0.0084535 0.0084535
0.0160067 0.0105287 0.0105287
0.0211337 0.0125887 0.0125887
0.0271763 0.0146181 0.0146181
0.0342718 0.0165408 0.0165408
0.0424964 0.0183413 0.0183413
0.0520027 0.0199588 0.0199741
0.0628977 0.0213779 0.0213779
0.0753185 0.0225376 0.0225376
0.0893721 0.0233921 0.0233921
0.105196 0.0238956 0.0238956
0.122927 0.024033 0.024033
0.142687 0.0237583 0.0237583
0.164614 0.0230259 0.0230259
0.188785 0.0217899 0.0217899
0.215045 0.0201267 0.0201267
0.244038 0.0178225 0.0178225
0.275608 0.0149386 0.0149386
0.309895 0.0114443 0.0114443
0.346944 0.00729381 0.00729381
0.386831 0.00247196 0.00248722
0.429664 0 0
0.475471 0 0
0.52433 0 0
0 0 0
0 0 0
0 0 0
0 0 0
0.000198367 0.000198367 0.000198367
0.00134279 0.00129702 0.00129702
0.00308232 0.00280766 0.00280766
0.00538643 0.00457771 0.00457771
0.00828565 0.00650034 0.00650034
0.011841 0.00851453 0.00851453
0.0161593 0.0105898 0.0105898
0.0213016 0.0126497 0.0126497
0.0273747 0.0146639 0.0146639
0.0345006 0.0166018 0.0166018
0.042771 0.0183871 0.0183871
0.0523232 0.0200198 0.0200198
0.0632639 0.0214237 0.0214237
0.0757305 0.0225681 0.0225681
0.0898299 0.0234073 0.0234073
0.105714 0.0239109 0.0239109
0.123507 0.024033 0.024033
0.143328 0.023743 0.023743
0.165316 0.0229953 0.0229953
0.189563 0.0217441 0.0217441
0.215885 0.0200656 0.0200656
0.244953 0.0177462 0.0177462
0.276631 0.014847 0.014847
0.310994 0.0113222 0.0113222
0.348119 0.00715648 0.00715648
0.388098 0.00231937 0.00231937
0.431037 0 0
0.476936 0 0
0.525872 0 0
0 0 0
0 0 0
0 0 0
0 0 0
0.000228885 0.000228885 0.000228885
0.00138857 0.00134279 0.00134279
0.00314336 0.0028687 0.0028687
0.00546273 0.00462348 0.00462348
0.0083772 0.00656138 0.00656138
0.0119631 0.00857557 0.00857557
0.0162966 0.0106508 0.0106508
0.0214694 0.0127108 0.0127108
0.0275883 0.014725 0.014725
0.0347295 0.0166629 0.0166629
0.0430457 0.0184482 0.0184482
0.0526284 0.0200656 0.0200656
0.0636149 0.0214542 0.0214542
0.0761273 0.0225834 0.0225986
0.0902876 0.0234226 0.0234226
0.106233 0.0239261 0.0239261
0.124071 0.024033 0.024033
0.143969 0.0237278 0.0237278
0.166003 0.0229648 0.0229648
0.190356 0.0216983 0.0216983
0.216739 0.0200046 0.0200046
0.245899 0.0176699 0.0176699
0.277638 0.0147402 0.0147402
0.312062 0.0112001 0.0112001
0.34931 0.00701915 0.00701915
0.38938 0.00216678 0.00216678
0.432395 0 0
0.478386 0 0
0.527398 0 0
0.0012665 0.0012665 0.0012665
0.0012665 0.0012665 0.0012665
0.0012665 0.0012665 0.0012665
0.0012665 0.0012665 0.0012665
0.00189212 0.00189212 0.00187686
0.00370794 0.00355535 0.00354009
0.00602731 0.00544747 0.00541695
0.00891127 0.00749218 0.0074464
0.0124208 0.00962844 0.00958267
0.0166323 0.0118105 0.0117494
0.0216678 0.0140078 0.0139162
0.0275883 0.016144 0.0160372
0.0345312 0.0181888 0.0180667
0.0426184 0.0201114 0.0199588
0.0519265 0.0218509 0.0216831
0.0626078 0.0233921 0.0231937
0.0747845 0.0246738 0.0244602
0.0885786 0.0256657 0.0254215
0.104112 0.0263218 0.0260471
0.121523 0.0266117 0.0262913
0.140948 0.0264744 0.0261387
0.162478 0.0258946 0.0255283
0.185992 0.0249027 0.0244907
0.21207 0.023331 0.0228885
0.240589 0.02121 0.020737
0.271672 0.0185245 0.0180056
0.305394 0.0152132 0.0146639
0.341863 0.0112764 0.0106813
0.38117 0.00666819 0.00604257
0.423316 0.00138857 0.000717174
0.468437 0 0
0.516533 0 0
0.567636 0 0
0.00740063 0.00762951 0.00740063
0.00740063 0.00762951 0.00740063
0.00740063 0.00762951 0.00740063
0.00740063 0.00762951 0.00740063
0.00851453 0.00869764 0.00842298
0.0113985 0.0111086 0.0107576
0.0148623 0.0135958 0.013138
0.0189822 0.0160983 0.0155489
0.0238956 0.0186007 0.0179294
0.0296635 0.0210422 0.0202487
0.0364233 0.0233921 0.0224613
0.0442664 0.0256046 0.0245365
0.0533303 0.0276493 0.0264286
0.0637369 0.0294804 0.0281071
0.0756085 0.0310521 0.0295109
0.0890516 0.0323339 0.0306249
0.104234 0.0332952 0.0313878
0.121233 0.033875 0.0317693
0.140215 0.0340429 0.031754
0.161059 0.0338293 0.031342
0.184237 0.0330968 0.030396
0.209735 0.0318608 0.0289311
0.237613 0.0300908 0.0269322
0.268009 0.0277409 0.0243534
0.300984 0.0247959 0.0211795
0.336614 0.0212406 0.01738
0.375021 0.0170291 0.0129397
0.41619 0.0121767 0.00784314
0.460243 0.00663767 0.00204471
0.507164 0.000411994 0
0.557 0 0
0.609812 0 0
0.665537 0 0
0.0154421 0.0166171 0.0154421
0.0154421 0.0166171 0.0154421
0.0154421 0.0166171 0.0154421
0.0154421 0.0166171 0.0154421
0.016968 0.0180362 0.0167544
0.0207218 0.0209354 0.0193942
0.0252384 0.0238041 0.0219883
0.0306096 0.0266117 0.0244907
0.0369268 0.0293126 0.0268864
0.0443275 0.0318761 0.0291295
0.052903 0.0342718 0.0311742
0.0627909 0.0364538 0.03299
0.0740978 0.0383764 0.0345312
0.0869764 0.0400244 0.0357671
0.101518 0.0413367 0.0366674
0.117876 0.0422827 0.037171
0.135988 0.0428779 0.0373236
0.156252 0.0429999 0.0369879
0.178653 0.0426642 0.0361791
0.203296 0.041825 0.0348516
0.230289 0.0404517 0.03299
0.259724 0.038529 0.0305638
0.291676 0.0360266 0.0275425
0.326238 0.032929 0.0239109
0.36347 0.0291905 0.0196536
0.403403 0.0248264 0.0147555
0.446113 0.0198062 0.00918593
0.49163 0.0141146 0.00296025
0.540002 0.00775158 0
0.59118 0.000701915 0
0.645197 0 0
0.702098 0 0
0.761776 0 0
0.0243229 0.0277104 0.0243229
0.0243229 0.0277104 0.0243229
0.0243229 0.0277104 0.0243229
0.0243229 0.0277104 0.0243229
0.0262303 0.0294499 0.025803
0.0307927 0.0327153 0.0285496
0.0363622 0.0358587 0.0311284
0.0429999 0.0388495 0.0335393
0.0508125 0.0416571 0.0357366
0.0599222 0.0442664 0.037705
0.0704204 0.0466163 0.0393835
0.0824598 0.0486763 0.0407568
0.0960555 0.0504463 0.0418097
0.111467 0.0518349 0.0424659
0.128756 0.0528267 0.0426947
0.148013 0.0534066 0.0424811
0.16939 0.0535286 0.0417945
0.19295 0.0531624 0.0406043
0.218799 0.0522774 0.03888
0.247044 0.0508431 0.0365911
0.277729 0.0488441 0.0337377
0.310979 0.0462654 0.0302739
0.346792 0.0430762 0.0261997
0.38526 0.0392615 0.0215
0.426444 0.0348058 0.0161593
0.470329 0.0297093 0.0101625
0.516976 0.0239567 0.00350958
0.566354 0.0175479 0
0.618494 0.0104829 0
0.673396 0.00274662 0
0.730999 0 0
0.791333 0 0
0.854292 0 0
0.0332494 0.0407263 0.0332494
0.0332494 0.0407263 0.0332494
0.0332494 0.0407263 0.0332494
0.0332494 0.0407263 0.0332494
0.035523 0.0428016 0.0348363
0.0408942 0.0463569 0.0374914
0.0475471 0.0496986 0.0399023
0.0555276 0.0528115 0.0420233
0.0648966 0.0556649 0.0438697
0.075761 0.0582437 0.0454108
0.0882582 0.060502 0.0465858
0.102495 0.0623941 0.047364
0.118563 0.06392 0.0477302
0.136584 0.0650034 0.0476539
0.156664 0.0656596 0.0471046
0.178897 0.0658122 0.0460517
0.203372 0.0654765 0.0444648
0.230182 0.0646067 0.0423438
0.259373 0.0631876 0.0396429
0.291081 0.0611887 0.0363622
0.325292 0.0585946 0.0324865
0.362097 0.0553902 0.027985
0.401526 0.0515755 0.0228733
0.44358 0.0471199 0.0171359
0.488334 0.0420386 0.0107576
0.535744 0.0363012 0.00373846
0.585855 0.0299382 0
0.638605 0.0229343 0
0.69398 0.0152895 0
0.75201 0.00701915 0
0.812558 0 0
0.875654 0 0
0.941176 0 0
0.0415656 0.0556954 0.0415656
0.0415656 0.0556954 0.0415656
0.0415656 0.0556954 0.0415656
0.0415656 0.0556954 0.0415656
0.0442206 0.0580758 0.0431678
0.0504005 0.0618906 0.045594
0.0581826 0.0653697 0.0476997
0.0675364 0.0685588 0.0494087
0.0785229 0.0714122 0.0507515
0.091249 0.0739147 0.0516976
0.105806 0.0760204 0.0522164
0.122316 0.0776989 0.0522927
0.140826 0.0789502 0.0518959
0.161471 0.0797284 0.0509957
0.184329 0.0800031 0.0495918
0.209461 0.0797436 0.0476234
0.236973 0.0789502 0.0451209
0.266896 0.0775921 0.0420233
0.29929 0.0756542 0.0383612
0.334234 0.0731212 0.0340887
0.371725 0.0699779 0.0292058
0.41181 0.0662242 0.0237278
0.45449 0.0618448 0.0176394
0.499779 0.0568399 0.0109407
0.547677 0.0512245 0.00361639
0.598154 0.0449683 0
0.651225 0.0381018 0
0.706798 0.0306249 0
0.764858 0.0225528 0
0.825391 0.0138857 0
0.888258 0.004654 0
0.95346 0 0
1 0 0
0.0487221 0.0726177 0.0487221
0.0487221 0.0726177 0.0487221
0.0487221 0.0726177 0.0487221
0.0487221 0.0726177 0.0487221
0.0517586 0.0753338 0.0502785
0.0587625 0.0793469 0.0523384
0.067689 0.082948 0.0539559
0.0784772 0.0861677 0.0551461
0.0911269 0.0889754 0.0558785
0.10576 0.0913558 0.0561379
0.122408 0.0932784 0.0559396
0.141176 0.094728 0.0552377
0.162142 0.0956893 0.0540169
0.185367 0.0961318 0.0522469
0.210941 0.096025 0.0499428
0.23888 0.0953689 0.0470741
0.269261 0.0941482 0.0436408
0.302144 0.0923323 0.0396124
0.337514 0.0899214 0.0350042
0.375448 0.0869001 0.0298161
0.415915 0.0832685 0.0240177
0.458915 0.0790417 0.0176547
0.504509 0.0741894 0.0106813
0.55259 0.0687266 0.00314336
0.60322 0.0626688 0
0.656275 0.0560006 0
0.711772 0.0487678 0
0.769665 0.0409552 0
0.829831 0.032578 0
0.892287 0.0236667 0
0.956863 0.0142367 0
1 0.00430304 0
1 0 0
0.0541848 0.0916152 0.0541848
0.0541848 0.0916152 0.0541848
0.0541848 0.0916152 0.0541848
0.0541848 0.0916152 0.0541848
0.0576333 0.094667 0.0556191
0.065507 0.0988479 0.0572366
0.0756237 0.102525 0.0583047
0.0878767 0.105745 0.0588846
0.102251 0.108461 0.0589303
0.118807 0.110704 0.0584726
0.13756 0.112428 0.057496
0.158587 0.113634 0.0559854
0.181949 0.114305 0.0539406
0.207675 0.114412 0.0513313
0.235843 0.113939 0.0481422
0.266453 0.112902 0.0444038
0.299535 0.111254 0.0401007
0.335149 0.109026 0.0352178
0.373251 0.106188 0.0297551
0.413886 0.102754 0.023743
0.457008 0.0987106 0.0171511
0.502617 0.0940566 0.0100099
0.550698 0.0888228 0.00233463
0.601175 0.0830091 0
0.654063 0.0766003 0
0.709239 0.0696422 0
0.766674 0.06215 0
0.826352 0.0541085 0
0.888106 0.0455787 0
0.951904 0.0365454 0
1 0.0270542 0
1 0.0171359 0
1 0.00679026 0
0.0575723 0.112718 0.0575875
0.0575723 0.112718 0.0575875
0.0575723 0.112718 0.0575875
0.0575723 0.112718 0.0575875
0.0614633 0.116106 0.0588388
0.0702373 0.120439 0.0599527
0.0816052 0.124163 0.060441
0.0953689 0.127321 0.0603647
0.111482 0.129946 0.0597238
0.129931 0.132021 0.0585336
0.150774 0.133532 0.0567941
0.174014 0.134478 0.0545052
0.199695 0.134844 0.0516518
0.227832 0.13463 0.0482338
0.258427 0.133822 0.0442664
0.291539 0.132418 0.0397345
0.327138 0.130404 0.0346532
0.36524 0.127794 0.0290227
0.405798 0.12459 0.0228428
0.448798 0.12079 0.016144
0.494255 0.116396 0.00891127
0.542092 0.111437 0.00117494
0.592279 0.105898 0
0.644724 0.0998093 0
0.699413 0.0931868 0
0.756268 0.0860304 0
0.815167 0.0783856 0
0.876097 0.0702525 0
0.938903 0.0616617 0
1 0.0526436 0
1 0.0432288 0
1 0.0334325 0
1 0.0232853 0
0.0586099 0.135927 0.0586557
0.0586099 0.135927 0.0586557
0.0586099 0.135927 0.0586557
0.0586099 0.135927 0.0586557
0.0630045 0.139635 0.0596933
0.0727245 0.14406 0.0603037
0.0853742 0.147799 0.0601968
0.100664 0.150896 0.0594797
0.118502 0.153384 0.0581826
0.138857 0.155276 0.0562905
0.16173 0.156573 0.0538491
0.187106 0.157259 0.0508431
0.215 0.157336 0.0472725
0.245396 0.156817 0.0431525
0.278279 0.155688 0.0384985
0.31368 0.153948 0.0333104
0.351537 0.151614 0.0275883
0.391867 0.148684 0.0213474
0.434577 0.145159 0.0146181
0.479667 0.14107 0.00740063
0.527092 0.1364 0
0.576761 0.131197 0
0.628656 0.125444 0
0.682673 0.119173 0
0.73872 0.112413 0
0.79678 0.10518 0
0.856672 0.0974899 0
0.918395 0.0893721 0
0.98175 0.0808423 0
1 0.0719615 0
1 0.0627298 0
1 0.053193 0
1 0.0433661 0
0.0572061 0.161196 0.0572976
0.0572061 0.161196 0.0572976
0.0572061 0.161196 0.0572976
0.0572061 0.161196 0.0572976
0.0621653 0.165209 0.0581064
0.0728923 0.169711 0.0582284
0.0868544 0.173419 0.0575875
0.103685 0.176425 0.0562905
0.123247 0.178759 0.0543832
0.145449 0.180468 0.0518807
0.170291 0.181521 0.0488136
0.197696 0.181949 0.0451972
0.227649 0.181765 0.0410468
0.260166 0.180957 0.0363622
0.295155 0.179522 0.0311589
0.332616 0.177508 0.025452
0.372503 0.174884 0.0192569
0.414755 0.171679 0.012604
0.459342 0.16791 0.00547799
0.506188 0.163592 0
0.555245 0.158724 0
0.606394 0.153338 0
0.659602 0.147463 0
0.714778 0.141115 0
0.771801 0.13431 0
0.83061 0.127077 0
0.891066 0.119432 0
0.953063 0.111437 0
1 0.10309 0
1 0.0944381 0
1 0.0855116 0
1 0.0763409 0
1 0.0669566 0
0.0533913 0.188449 0.0535439
0.0533913 0.188449 0.0535439
0.0533913 0.188449 0.0535439
0.0533913 0.188449 0.0535439
0.0589914 0.192767 0.054139
0.0707866 0.197299 0.0538338
0.0860761 0.200946 0.0527352
0.104448 0.20383 0.0509499
0.125719 0.205997 0.0485389
0.149722 0.207492 0.0455482
0.17644 0.208331 0.0419928
0.205768 0.208499 0.0379187
0.237659 0.208057 0.0333104
0.272099 0.206973 0.0282139
0.30898 0.205295 0.0226291
0.348287 0.203021 0.0165866
0.389944 0.200153 0.0101167
0.433875 0.196735 0.00321965
0.480034 0.192767 0
0.528298 0.188281 0
0.578637 0.183291 0
0.63093 0.177813 0
0.685069 0.171893 0
0.741024 0.16553 0
0.798596 0.15877 0
0.857755 0.151629 0
0.918334 0.144152 0
0.98024 0.136355 0
1 0.128283 0
1 0.119966 0
1 0.111437 0
1 0.102739 0
1 0.093904 0
0.0473487 0.217578 0.0475624
0.0473487 0.217578 0.0475624
0.0473487 0.217578 0.0475624
0.0473487 0.217578 0.0475624
0.0536812 0.222156 0.0480049
0.0665904 0.226673 0.0473945
0.0832532 0.230228 0.0459297
0.103166 0.232975 0.0437781
0.12607 0.234958 0.041001
0.151812 0.236255 0.0376593
0.180301 0.236851 0.0337682
0.211429 0.236789 0.0293889
0.245106 0.236103 0.024506
0.281285 0.234791 0.0191653
0.31986 0.232868 0.0133974
0.360769 0.230381 0.00723278
0.403952 0.227329 0.000671397
0.449271 0.223743 0
0.496696 0.219638 0
0.54609 0.215045 0
0.597391 0.209979 0
0.650462 0.204486 0
0.705196 0.198581 0
0.761532 0.192294 0
0.819287 0.185672 0
0.878401 0.178714 0
0.938704 0.171481 0
1 0.163989 0
1 0.156283 0
1 0.148394 0
1 0.140368 0
1 0.132235 0
1 0.124041 0
0.0393835 0.248402 0.0396735
0.0393835 0.248402 0.0396735
0.0393835 0.248402 0.0396735
0.0393835 0.248402 0.0396735
0.0465705 0.253208 0.0400397
0.0606394 0.257664 0.0392309
0.0786755 0.261112 0.0375525
0.100099 0.263691 0.035172
0.124605 0.265492 0.0321965
0.151995 0.26656 0.0286564
0.182132 0.266941 0.0246128
0.214923 0.266667 0.0200961
0.250217 0.265736 0.0151369
0.287953 0.26421 0.00975052
0.328008 0.262104 0.00399786
0.370306 0.259434 0
0.41474 0.256245 0
0.461189 0.252537 0
0.50959 0.248341 0
0.559808 0.243717 0
0.611719 0.238651 0
0.665248 0.233204 0
0.720241 0.22739 0
0.776608 0.221256 0
0.834165 0.214832 0
0.892836 0.208148 0
0.952499 0.201221 0
1 0.194125 0
1 0.186877 0
1 0.179507 0
1 0.172076 0
1 0.164523 0
1 0.156786 0
0.0298924 0.28072 0.0302739
0.0298924 0.28072 0.0302739
0.0298924 0.28072 0.0302739
0.0298924 0.28072 0.0302739
0.0380407 0.28574 0.0306554
0.053315 0.290105 0.0298009
0.0727398 0.2934 0.0280461
0.0956283 0.295796 0.0256199
0.121675 0.297398 0.0225986
0.150622 0.298253 0.0190585
0.182315 0.298421 0.0150454
0.216602 0.297932 0.0105898
0.253346 0.296803 0.00573739
0.292454 0.295094 0.000534066
0.333776 0.292821 0
0.377203 0.290028 0
0.42266 0.286717 0
0.469963 0.282948 0
0.519066 0.278737 0
0.569787 0.274113 0
0.622019 0.269123 0
0.675669 0.263783 0
0.730571 0.258137 0
0.786633 0.252216 0
0.843671 0.246067 0
0.901549 0.239719 0
0.960174 0.233204 0
1 0.226566 0
1 0.219745 0
1 0.212726 0
1 0.205524 0
1 0.198154 0
1 0.1906 0
0.0193637 0.314305 0.019852
0.0193637 0.314305 0.019852
0.0193637 0.314305 0.019852
0.0193637 0.314305 0.019852
0.0285954 0.319463 0.0203861
0.0451209 0.323705 0.0196231
0.0659037 0.326833 0.0179904
0.0902419 0.329046 0.015671
0.117739 0.330434 0.0128023
0.14815 0.33109 0.00943008
0.181262 0.331044 0.00563058
0.216907 0.330358 0.00144961
0.254917 0.329061 0
0.295186 0.327184 0
0.33756 0.324788 0
0.381903 0.321889 0
0.428122 0.318532 0
0.47602 0.314733 0
0.525505 0.310552 0
0.576471 0.306004 0
0.628733 0.301122 0
0.6822 0.295964 0
0.73669 0.290547 0
0.792081 0.284932 0
0.848341 0.279103 0
0.905592 0.27306 0
0.963851 0.266804 0
1 0.260349 0
1 0.253697 0
1 0.246845 0
1 0.239811 0
1 0.232609 0
1 0.225238 0
0.00834669 0.348913 0.00894179
0.00834669 0.348913 0.00894179
0.00834669 0.348913 0.00894179
0.00834669 0.348913 0.00894179
0.0187991 0.354177 0.00978103
0.0365911 0.358251 0.00929274
0.058732 0.361181 0.00793469
0.0844434 0.36318 0.0059205
0.113329 0.36437 0.0033875
0.145083 0.364813 0.000396735
0.179477 0.364569 0
0.216327 0.363714 0
0.255436 0.362264 0
0.296666 0.360265 0
0.339879 0.357778 0
0.384909 0.354818 0
0.431632 0.351446 0
0.479866 0.347677 0
0.529503 0.343572 0
0.580407 0.339147 0
0.632395 0.334447 0
0.685512 0.329503 0
0.739712 0.3243 0
0.794995 0.318868 0
0.851347 0.313207 0
0.90869 0.307317 0
0.96701 0.301213 0
1 0.294926 0
1 0.288426 0
1 0.281758 0
1 0.274907 0
1 0.267887 0
1 0.260716 0
0 0.384253 0
0 0.384253 0
0 0.384253 0
0 0.384253 0
0.00923171 0.389578 0
0.0283055 0.393454 0
0.0517739 0.396185 0
0.0788281 0.397971 0
0.10901 0.398947 0
0.142 0.399191 0
0.177523 0.398764 0
0.215396 0.397742 0
0.255451 0.39617 0
0.297459 0.39408 0
0.341299 0.391531 0
0.38677 0.388556 0
0.433738 0.385199 0
0.482094 0.381521 0
0.531716 0.377523 0
0.582605 0.373251 0
0.634668 0.368704 0
0.687877 0.363897 0
0.742214 0.358846 0
0.797589 0.353567 0
0.854017 0.348058 0
0.911391 0.342336 0
0.969711 0.3364 0
1 0.330266 0
1 0.323964 0
1 0.317464 0
1 0.310811 0
1 0.30399 0
1 0.297032 0
0 0.420081 0
0 0.420081 0
0 0.420081 0
0 0.420081 0
0.000549325 0.425406 0
0.0209201 0.429068 0
0.0456855 0.431556 0
0.0740063 0.433127 0
0.105379 0.43389 0
0.139483 0.433936 0
0.176013 0.433356 0
0.214755 0.432197 0
0.255543 0.430503 0
0.298131 0.428351 0
0.342382 0.425788 0
0.388098 0.422889 0
0.435233 0.419638 0
0.483742 0.416083 0
0.533516 0.412222 0
0.584543 0.408087 0
0.636713 0.403693 0
0.690028 0.399023 0
0.744442 0.394125 0
0.799878 0.388998 0
0.856321 0.383642 0
0.913695 0.378073 0
0.971984 0.37232 0
1 0.366369 0
1 0.360235 0
1 0.353948 0
1 0.347494 0
1 0.340887 0
1 0.334157 0
0 0.456077 0
0 0.456077 0
0 0.456077 0
0 0.456123 0
0 0.461357 0
0.0150607 0.464775 0
0.0410773 0.467033 0
0.0705882 0.468376 0
0.103059 0.468925 0
0.13814 0.468788 0
0.175555 0.468055 0
0.214939 0.466819 0
0.256138 0.465156 0
0.298985 0.463096 0
0.343404 0.460655 0
0.389319 0.457877 0
0.436622 0.454749 0
0.485267 0.451331 0
0.53518 0.447608 0
0.586282 0.44361 0
0.638575 0.439353 0
0.691951 0.434852 0
0.74641 0.430091 0
0.801862 0.425116 0
0.858259 0.419928 0
0.915602 0.414542 0
0.973816 0.408957 0
1 0.403189 0
1 0.397269 0
1 0.39118 0
1 0.384939 0
1 0.378576 0
1 0.372076 0
0 0.491981 0
0 0.491981 0
0 0.491981 0
0 0.492241 0
0 0.497169 0
0.0113985 0.500298 0
0.0386358 0.502312 0
0.0692302 0.503426 0
0.10248 0.503868 0
0.138079 0.503746 0
0.175784 0.50309 0
0.215396 0.501976 0
0.256794 0.500435 0
0.29984 0.498482 0
0.344427 0.496178 0
0.390509 0.493507 0
0.437949 0.490532 0
0.486732 0.487236 0
0.536736 0.48365 0
0.58793 0.479789 0
0.640284 0.47567 0
0.69369 0.471305 0
0.74815 0.466712 0
0.803555 0.461906 0
0.859876 0.456886 0
0.917113 0.451667 0
0.975158 0.446281 0
1 0.440711 0
1 0.434989 0
1 0.429129 0
1 0.423133 0
1 0.417014 0
1 0.410788 0
0 0.527489 0
0 0.527489 0
0 0.527489 0
0 0.527932 0
0 0.53257 0
0.010132 0.535576 0
0.0379034 0.537575 0
0.0688029 0.538781 0
0.102327 0.539345 0
0.138155 0.539315 0
0.176089 0.538781 0
0.215915 0.537774 0
0.257511 0.536339 0
0.30074 0.534508 0
0.345495 0.532311 0
0.39173 0.529778 0
0.439292 0.526925 0
0.488182 0.523751 0
0.538262 0.520302 0
0.589502 0.516594 0
0.641871 0.512612 0
0.695262 0.5084 0
0.74966 0.503975 0
0.804974 0.499321 0
0.861173 0.494484 0
0.918242 0.489464 0
0.976043 0.48426 0
1 0.47892 0
1 0.473426 0
1 0.467796 0
1 0.462058 0
1 0.456214 0
1 0.450278 0
0 0.562921 0
0 0.562921 0
0 0.562921 0
0 0.563561 0
0 0.568231 0
0.00929274 0.571328 0
0.0373846 0.573419 0
0.0685435 0.574731 0
0.102327 0.575387 0
0.138399 0.575463 0
0.176562 0.575021 0
0.216587 0.574121 0
0.258366 0.572793 0
0.301778 0.571084 0
0.346685 0.569009 0
0.393042 0.566583 0
0.440711 0.563851 0
0.489647 0.560815 0
0.539803 0.557504 0
0.591058 0.553918 0
0.643397 0.550103 0
0.696727 0.546044 0
0.751003 0.541772 0
0.806195 0.537301 0
0.862181 0.532647 0
0.918975 0.527825 0
0.976471 0.52285 0
1 0.517723 0
1 0.512474 0
1 0.507103 0
1 0.50164 0
1 0.496086 0
1 0.490471 0
0 0.598932 0
0 0.598932 0
0 0.598932 0
0 0.599786 0
0 0.604486 0
0.00869764 0.60766 0
0.0370947 0.609827 0
0.0685283 0.611215 0
0.102586 0.611963 0
