public/sampleLut/16.cube
TITLE "Generated by Resolve"
LUT_3D_SIZE 5
0 0 0
0.00808728 0.00637827 0.00637827
0.0625467 0.0213321 0.0213321
0.214191 0.0201877 0.0201877
0.522774 0 0
0.0332494 0.0407263 0.0332494
0.0648966 0.0556649 0.0438697
0.203372 0.0654765 0.0444648
0.488334 0.0420386 0.0107576
0.941176 0 0
0.0473487 0.217578 0.0475624
0.12607 0.234958 0.041001
0.403952 0.227329 0.000671397
0.819287 0.185672 0
1 0.124041 0
0 0.491981 0
0.10248 0.503868 0
0.437949 0.490532 0
0.859876 0.456886 0
1 0.410788 0
0 0.785519 0
0.112703 0.800381 0
0.45771 0.793057 0.00323491
0.867811 0.770184 0.0100862
1 0.741436 0.0130159
0.00303655 0.00303655 0.0034638
0.0156252 0.0120089 0.0142061
0.0828412 0.026566 0.0343481
0.257069 0.0209964 0.0370184
0.594522 0 0.00421149
0.0410925 0.0512245 0.0517739
0.0778821 0.0661479 0.0669718
0.233997 0.0725261 0.0738994
0.541558 0.0438849 0.0458228
1 0 0
0.0491646 0.23444 0.0966201
0.134966 0.25066 0.0959182
0.424796 0.240253 0.0637522
0.8448 0.197894 0.00857557
1 0.138979 0
0 0.507973 0.0526589
0.118318 0.519738 0.0644846
0.455375 0.507057 0.0532998
0.87747 0.474418 0.0244144
1 0.429999 0
0 0.802426 0.052018
0.135027 0.817578 0.0779278
0.480262 0.811063 0.0943923
0.887327 0.790051 0.101961
1 0.763561 0.104051
0.00822461 0.00822461 0.0120546
0.0247807 0.018555 0.0288548
0.105867 0.0314336 0.0597391
0.303853 0.0202945 0.0734112
0.669612 0 0.0518349
0.0484474 0.0616312 0.0853437
0.090547 0.0759899 0.10956
0.264164 0.0780804 0.130495
0.592599 0.0439307 0.115282
1 0 0.0602426
0.0490883 0.248844 0.183185
0.141802 0.263661 0.191043
0.442069 0.250629 0.169665
0.864515 0.208148 0.122942
1 0.151568 0.0658885
0 0.520729 0.172946
0.131716 0.532998 0.18555
0.470314 0.521019 0.175235
0.892226 0.489509 0.147372
1 0.447013 0.111513
0 0.816693 0.176516
0.155703 0.832197 0.202991
0.500862 0.826764 0.219455
0.904753 0.807843 0.225589
1 0.783673 0.225162
0.0143435 0.0143435 0.0276036
0.0347601 0.0252995 0.0530098
0.13019 0.0354314 0.0998856
0.351873 0.0179904 0.130129
0.74377 0 0.124819
0.054902 0.0715648 0.136614
0.102495 0.0848554 0.173388
0.293233 0.0821698 0.213092
0.640558 0.0426947 0.21416
1 0 0.173175
0.0478218 0.261234 0.299901
0.147341 0.274617 0.316777
0.456687 0.259403 0.305425
0.879423 0.217594 0.265126
1 0.162753 0.210269
0.00299077 0.531929 0.317861
0.143786 0.544732 0.331029
0.483772 0.533501 0.321202
0.90518 0.503258 0.293767
1 0.462928 0.25832
0.0150607 0.829313 0.323507
0.175845 0.845289 0.349645
0.520424 0.841215 0.36437
0.921096 0.824552 0.36759
1 0.80267 0.363851
0.0208591 0.0208591 0.0529335
0.045182 0.0317998 0.0900587
0.155505 0.0382239 0.158206
0.400275 0.0140383 0.209689
0.8159 0 0.224018
0.0601511 0.0806439 0.208972
0.11339 0.0924697 0.261234
0.320699 0.0847639 0.322728
0.684855 0.0403601 0.341405
1 0 0.31429
0.0457008 0.271717 0.444068
0.151888 0.283803 0.469184
0.46894 0.267018 0.46537
0.890578 0.226596 0.428077
1 0.172946 0.373999
0.0112917 0.54197 0.482033
0.154925 0.555322 0.495552
0.496193 0.544915 0.485649
0.916747 0.516106 0.457801
1 0.478233 0.42153
0.0317388 0.840757 0.487144
0.195758 0.857313 0.511894
0.539284 0.854917 0.523339
0.936767 0.840574 0.522759
1 0.820935 0.515328
