public/sampleLut/17.cube
# Copyright: (C) Copyright 2022 The Resolve Store 
# Cannot be resold, shared or otherwise redistributed
TITLE "CinematicX (Rec.709)"
LUT_3D_SIZE 5
0.00654612 0.0104219 0.0160678
0.15259 0.016144 0.021561
0.329671 0.0307774 0.0349432
0.531609 0.0455329 0.0499123
0.739605 0.0540169 0.0601663
0.0948653 0.163516 0.071809
0.19707 0.177386 0.0556954
0.355947 0.177371 0.0601053
0.534356 0.177768 0.0644236
0.729259 0.17586 0.0682994
0.181949 0.31957 0.140047
0.269657 0.341009 0.140444
0.392477 0.362783 0.0866712
0.575784 0.356237 0.090959
0.770993 0.350256 0.0941787
0.25771 0.501106 0.203662
0.368063 0.524758 0.225879
0.446845 0.5635 0.155657
0.612741 0.576715 0.11809
0.815671 0.56994 0.123018
0.337682 0.706859 0.274205
0.465232 0.734295 0.307897
0.559045 0.768612 0.281758
0.660014 0.806836 0.170764
0.852277 0.812894 0.150057
0.014786 0.0183261 0.131136
0.198444 0.0275731 0.143481
0.386709 0.0426795 0.154238
0.577829 0.0542458 0.164233
0.770687 0.0585794 0.166735
0.0626535 0.211139 0.177172
0.226871 0.205142 0.171359
0.390143 0.194293 0.16202
0.567437 0.18381 0.153475
0.76524 0.160784 0.135378
0.144854 0.383185 0.214206
0.314763 0.373617 0.248707
0.421241 0.385931 0.193973
0.612146 0.368811 0.177752
0.807019 0.352438 0.163943
0.236301 0.5523 0.272435
0.401221 0.565682 0.329564
0.500725 0.585901 0.319387
0.638331 0.603464 0.200565
0.845289 0.585168 0.197375
0.319417 0.753445 0.350011
0.465614 0.777615 0.389456
0.606287 0.798611 0.411048
0.693858 0.831174 0.29897
0.873671 0.834302 0.225925
0.0226139 0.0258488 0.314687
0.210101 0.0360418 0.329976
0.440421 0.0548409 0.360937
0.656321 0.0625925 0.356481
0.835187 0.0637217 0.337697
0.0643778 0.217945 0.357412
0.22591 0.213535 0.336446
0.432395 0.217288 0.352789
0.636744 0.203723 0.331655
0.831083 0.161791 0.304158
0.0988022 0.429053 0.381308
0.271931 0.421042 0.387625
0.465522 0.433265 0.385428
0.663874 0.412375 0.363745
0.869215 0.371725 0.325139
0.163485 0.643229 0.406592
0.376776 0.644327 0.441062
0.566766 0.63769 0.481529
0.698558 0.651957 0.394324
0.917327 0.62266 0.341512
0.26247 0.84004 0.458167
0.460426 0.851347 0.513573
0.662623 0.857664 0.576288
0.784939 0.88365 0.550713
0.931182 0.89131 0.372793
0.0296788 0.0327764 0.547066
0.220249 0.0433967 0.563836
0.447013 0.0602426 0.591333
0.686381 0.0663615 0.597864
0.893172 0.0668498 0.58407
0.0664988 0.219974 0.58172
0.228611 0.219318 0.545342
0.423468 0.222873 0.579629
0.663096 0.224002 0.573754
0.88542 0.177554 0.555611
0.0955367 0.435096 0.608103
0.263249 0.427314 0.597177
0.461021 0.440497 0.599573
0.705669 0.443397 0.615991
0.925063 0.403754 0.590341
0.126864 0.673594 0.622202
0.306661 0.672892 0.632639
0.514809 0.687892 0.656275
0.741665 0.703288 0.652155
0.961975 0.663478 0.611917
0.184848 0.900313 0.64332
0.376547 0.908034 0.662089
0.617899 0.9196 0.703288
0.842741 0.92221 0.753964
0.993484 0.953658 0.564706
0.0343786 0.0376745 0.78468
0.227222 0.0483864 0.798688
0.448173 0.062089 0.816556
0.6851 0.0670481 0.821439
0.904479 0.0677348 0.820462
0.0667124 0.219287 0.812909
0.231556 0.210361 0.80621
0.433097 0.215656 0.812665
0.666575 0.216815 0.81471
0.898238 0.21445 0.812696
0.095201 0.434379 0.840024
0.262181 0.426352 0.835706
0.468681 0.436652 0.846754
0.707912 0.442435 0.85391
0.941955 0.444175 0.857023
0.120943 0.680797 0.861692
0.289494 0.67834 0.861738
0.500862 0.694667 0.877409
0.74403 0.705837 0.888853
0.980529 0.712291 0.896315
0.152987 0.921096 0.875898
0.324651 0.925994 0.881346
0.536599 0.943999 0.900008
0.778531 0.958511 0.914916
1 0.968933 0.92549
