public/sampleLut/17.cube
# Copyright: (C) Copyright 2022 The Resolve Store 
# Cannot be resold, shared or otherwise redistributed
TITLE "CinematicX (Rec.709)"
LUT_3D_SIZE 9
0.00654612 0.0104219 0.0160678
0.071809 0.0122683 0.0180362
0.15259 0.016144 0.021561
0.236393 0.0233616 0.0280766
0.329671 0.0307774 0.0349432
0.428489 0.0385138 0.0425574
0.531609 0.0455329 0.0499123
0.637461 0.0511482 0.0562295
0.739605 0.0540169 0.0601663
0.0474098 0.0752422 0.0381628
0.0955062 0.0840314 0.0360418
0.177111 0.0869459 0.0402533
0.259358 0.0943465 0.0463722
0.34902 0.101061 0.051957
0.440009 0.104936 0.0559548
0.534539 0.107012 0.0592203
0.632578 0.107393 0.0618143
0.733043 0.1075 0.0643778
0.0948653 0.163516 0.071809
0.143648 0.170291 0.0708629
0.19707 0.177386 0.0556954
0.272679 0.176715 0.0577096
0.355947 0.177371 0.0601053
0.442588 0.177859 0.0623484
0.534356 0.177768 0.0644236
0.630518 0.177096 0.0664836
0.729259 0.17586 0.0682994
0.139757 0.238422 0.106096
0.190906 0.243595 0.113939
0.224338 0.260349 0.081178
0.290867 0.265507 0.0711833
0.374487 0.263432 0.0729839
0.46244 0.261158 0.075227
0.55378 0.259251 0.076936
0.649561 0.257237 0.078706
0.7476 0.254627 0.0802472
0.181949 0.31957 0.140047
0.232731 0.327688 0.150973
0.269657 0.341009 0.140444
0.313085 0.359869 0.0918898
0.392477 0.362783 0.0866712
0.481666 0.360037 0.0884413
0.575784 0.356237 0.090959
0.672694 0.353323 0.0927291
0.770993 0.350256 0.0941787
0.219989 0.407156 0.171511
0.273381 0.416922 0.184085
0.318837 0.429129 0.18529
0.353353 0.448142 0.150439
0.411978 0.464378 0.104768
0.499138 0.465904 0.102068
0.594797 0.462898 0.103899
0.694347 0.459358 0.106844
0.795499 0.455177 0.109392
0.25771 0.501106 0.203662
0.314946 0.512413 0.21828
0.368063 0.524758 0.225879
0.407218 0.54197 0.20763
0.446845 0.5635 0.155657
0.518364 0.576242 0.119402
0.612741 0.576715 0.11809
0.713848 0.573419 0.119753
0.815671 0.56994 0.123018
0.296635 0.601083 0.23772
0.358557 0.61416 0.254673
0.416831 0.626886 0.266484
0.462776 0.642969 0.259205
0.498955 0.663935 0.220371
0.549584 0.684688 0.162203
0.632273 0.694331 0.134997
0.732219 0.694118 0.134203
0.834699 0.690684 0.135775
0.337682 0.706859 0.274205
0.403815 0.720851 0.293553
0.465232 0.734295 0.307897
0.518166 0.749325 0.309148
0.559045 0.768612 0.281758
0.597772 0.789822 0.228214
0.660014 0.806836 0.170764
0.751034 0.813458 0.150347
0.852277 0.812894 0.150057
0.0105898 0.0143587 0.0587015
0.094255 0.0164187 0.0616617
0.176242 0.0217746 0.0621653
0.256977 0.0281987 0.0671397
0.347906 0.0356298 0.0749218
0.444953 0.0432136 0.0836957
0.545907 0.0495766 0.0908827
0.648493 0.0540932 0.095964
0.748547 0.0564431 0.0978714
0.0334936 0.0992447 0.0789349
0.116487 0.103349 0.0830396
0.197055 0.0988785 0.0800793
0.278264 0.0991836 0.0811627
0.36611 0.0994278 0.0827649
0.457069 0.0995804 0.0839857
0.549798 0.100694 0.0858473
0.64683 0.101137 0.087129
0.74522 0.101381 0.0883192
0.0813306 0.191241 0.111528
0.164721 0.182284 0.122255
0.210101 0.187366 0.0950027
0.287572 0.182361 0.0894636
0.370077 0.179538 0.0867933
0.456672 0.17763 0.0849928
0.547158 0.176364 0.0856184
0.641566 0.17499 0.0860914
0.73901 0.173419 0.0865034
0.128435 0.261204 0.140475
0.205158 0.258824 0.155779
0.244526 0.265629 0.152911
0.299138 0.273747 0.107424
0.386114 0.268635 0.0999924
0.475395 0.263554 0.0990005
0.565652 0.259983 0.0985275
0.660533 0.257099 0.0987106
0.757397 0.253986 0.0987869
0.173953 0.339864 0.169528
0.241596 0.343847 0.187411
0.290806 0.350103 0.194995
0.32491 0.365515 0.15697
0.400122 0.370642 0.115312
0.49131 0.365347 0.112078
0.587091 0.35938 0.114885
0.683452 0.355032 0.114321
0.780575 0.35137 0.114153
0.213657 0.425299 0.200656
0.275425 0.432425 0.2168
0.334661 0.441169 0.230442
0.373983 0.455146 0.210208
0.420172 0.471962 0.152483
0.506798 0.473411 0.126635
0.60354 0.468544 0.126696
0.704158 0.463233 0.130053
0.804761 0.457877 0.131441
0.251423 0.518257 0.23418
0.309773 0.527398 0.24741
0.376684 0.538308 0.262592
0.426413 0.550774 0.260014
0.462684 0.569787 0.214786
0.525185 0.583246 0.16144
0.620081 0.583795 0.141161
0.722011 0.579446 0.141604
0.823911 0.574304 0.14548
0.290669 0.618036 0.270573
0.348638 0.628107 0.282567
0.422141 0.640558 0.302358
0.4795 0.652903 0.309163
0.520394 0.670542 0.281193
0.561822 0.690669 0.22031
0.6383 0.700938 0.17377
0.739132 0.700862 0.156863
0.841794 0.69662 0.156802
0.331853 0.723705 0.309834
0.392538 0.734234 0.322698
0.469322 0.74786 0.344518
0.531746 0.759686 0.355947
0.579126 0.775341 0.342733
0.617395 0.79556 0.291035
0.670329 0.812711 0.227756
0.757137 0.819654 0.187442
0.858854 0.819318 0.172488
0.014786 0.0183261 0.131136
0.09897 0.0205692 0.132937
0.198444 0.0275731 0.143481
0.295689 0.0354467 0.150134
0.386709 0.0426795 0.154238
0.480507 0.0490272 0.159411
0.577829 0.0542458 0.164233
0.676204 0.0572061 0.166369
0.770687 0.0585794 0.166735
0.0365606 0.105318 0.151415
0.117662 0.109941 0.150408
0.216709 0.115602 0.161471
0.30544 0.115801 0.160082
0.39324 0.111513 0.159319
0.48452 0.105135 0.158618
0.577523 0.101946 0.157855
0.672053 0.10251 0.157488
0.766491 0.102098 0.156832
0.0626535 0.211139 0.177172
0.144778 0.203296 0.175128
0.226871 0.205142 0.171359
0.306493 0.199237 0.165774
0.390143 0.194293 0.16202
0.475319 0.190295 0.158312
0.567437 0.18381 0.153475
0.666575 0.172122 0.144183
0.76524 0.160784 0.135378
0.098024 0.303105 0.193973
0.196704 0.291859 0.197513
0.269917 0.286488 0.208743
0.321294 0.290867 0.181003
0.407889 0.282902 0.175387
0.495644 0.275883 0.171023
0.589105 0.267826 0.165179
0.687892 0.256352 0.153155
0.783871 0.248768 0.14699
0.144854 0.383185 0.214206
0.240192 0.375494 0.228367
0.314763 0.373617 0.248707
0.35938 0.380285 0.241611
0.421241 0.385931 0.193973
0.513283 0.378851 0.184497
0.612146 0.368811 0.177752
0.712627 0.359289 0.16524
0.807019 0.352438 0.163943
0.193286 0.462715 0.239521
0.274449 0.463233 0.259632
0.360937 0.466239 0.290791
0.413031 0.471794 0.298085
0.448325 0.487572 0.245914
0.525048 0.490745 0.201602
0.626871 0.483268 0.184634
0.730953 0.473106 0.181704
0.828962 0.464454 0.181994
0.236301 0.5523 0.272435
0.307271 0.557748 0.293217
0.401221 0.565682 0.329564
0.459937 0.572351 0.341695
0.500725 0.585901 0.319387
0.544884 0.604273 0.23978
0.638331 0.603464 0.200565
0.743206 0.594095 0.193622
0.845289 0.585168 0.197375
0.277394 0.649943 0.309911
0.342336 0.658259 0.32932
0.438437 0.670375 0.364172
0.503944 0.678965 0.378531
0.554482 0.691905 0.36701
0.59089 0.7122 0.299763
0.656352 0.722606 0.234974
0.756527 0.71899 0.21413
0.859754 0.711009 0.208682
0.319417 0.753445 0.350011
0.386328 0.762509 0.37026
0.465614 0.777615 0.389456
0.543252 0.788464 0.405432
0.606287 0.798611 0.411048
0.648356 0.814176 0.371862
0.693858 0.831174 0.29897
0.77348 0.837369 0.242893
0.873671 0.834302 0.225925
0.0184329 0.0218814 0.215518
0.104524 0.0248569 0.218708
0.204562 0.0319524 0.230457
0.316152 0.0417182 0.246693
0.427436 0.0502785 0.25658
0.523018 0.0556802 0.254139
0.617609 0.0587778 0.250767
0.713298 0.0607004 0.247379
0.801816 0.0613413 0.243687
0.0409705 0.110811 0.23743
0.122347 0.117067 0.229221
0.215274 0.120897 0.245792
0.318929 0.12607 0.249485
0.420722 0.125643 0.24918
0.515862 0.116304 0.244205
0.613779 0.104845 0.240436
0.707988 0.104967 0.23505
0.797986 0.104326 0.230365
0.0624857 0.215625 0.262013
0.141619 0.207996 0.252842
0.226764 0.209308 0.249409
0.326024 0.211795 0.256306
0.419928 0.209567 0.247059
0.508873 0.202152 0.238819
0.602457 0.19234 0.229358
0.701549 0.176135 0.217731
0.797528 0.160952 0.207904
0.0824445 0.317647 0.275288
0.167193 0.307698 0.271183
0.250813 0.308507 0.273136
0.340795 0.31313 0.27097
0.430869 0.304936 0.262562
0.520714 0.296025 0.254231
0.615061 0.285786 0.245396
0.712276 0.273808 0.233646
0.813474 0.250416 0.213428
0.112291 0.416449 0.287205
0.206439 0.407614 0.285832
0.299123 0.408927 0.301472
0.387732 0.404669 0.313832
0.444556 0.409369 0.278325
0.541726 0.399207 0.269596
0.638651 0.388952 0.25977
0.740154 0.376455 0.246815
0.842512 0.355505 0.223102
0.154559 0.51342 0.305867
0.255344 0.506615 0.31519
0.362005 0.50219 0.34168
0.436164 0.50016 0.358755
0.484413 0.507439 0.348653
0.554574 0.512505 0.287526
0.657847 0.502708 0.27335
0.766461 0.489693 0.256535
0.867826 0.473304 0.232364
0.204349 0.600717 0.327169
0.290944 0.600656 0.344823
0.403677 0.601389 0.380789
0.485679 0.601785 0.405203
0.542641 0.607507 0.411536
0.581994 0.624796 0.344259
0.669139 0.626642 0.287877
0.779568 0.617807 0.254704
0.88127 0.602228 0.249226
0.251484 0.695171 0.358694
0.321157 0.700252 0.377722
0.440055 0.705776 0.417487
0.535821 0.710155 0.453071
0.598215 0.716777 0.463935
0.639765 0.732616 0.430564
0.686275 0.753674 0.327596
0.785733 0.749523 0.274784
0.889708 0.734829 0.260624
0.29659 0.794049 0.396933
0.368261 0.800549 0.41883
0.463951 0.811292 0.447471
0.580423 0.821057 0.497719
0.648859 0.829313 0.510704
0.695003 0.843122 0.484184
0.730907 0.859998 0.400122
0.798306 0.866407 0.319066
0.897169 0.860258 0.28838
0.0226139 0.0258488 0.314687
0.109728 0.0288396 0.317922
0.210101 0.0360418 0.329976
0.322332 0.0460212 0.346914
0.440421 0.0548409 0.360937
0.558907 0.0603647 0.367361
0.656321 0.0625925 0.356481
0.750423 0.0634928 0.346349
0.835187 0.0637217 0.337697
0.0450294 0.115831 0.336858
0.128283 0.122469 0.325963
0.217273 0.123949 0.342229
0.317708 0.129564 0.346242
0.427848 0.132357 0.348287
0.542763 0.130098 0.350835
0.647822 0.112047 0.344152
0.744823 0.107073 0.334096
0.831327 0.106249 0.324651
0.0643778 0.217945 0.357412
0.142718 0.211414 0.342809
0.22591 0.213535 0.336446
0.321401 0.215503 0.352468
0.432395 0.217288 0.352789
0.538872 0.216297 0.347219
0.636744 0.203723 0.331655
0.737606 0.182971 0.317418
0.831083 0.161791 0.304158
0.0804913 0.322408 0.372412
0.160891 0.312322 0.36466
0.24773 0.31162 0.364813
0.340551 0.31696 0.363699
0.449531 0.31899 0.369604
0.551354 0.314824 0.356252
0.649607 0.301579 0.344411
0.75024 0.284642 0.330541
0.847471 0.254597 0.308507
0.0988022 0.429053 0.381308
0.183673 0.420188 0.375937
0.271931 0.421042 0.387625
0.365011 0.427558 0.385855
0.465522 0.433265 0.385428
0.565148 0.423545 0.375525
0.663874 0.412375 0.363745
0.769223 0.396338 0.349935
0.869215 0.371725 0.325139
0.125444 0.535698 0.390295
0.21709 0.528939 0.387747
0.31017 0.533196 0.406348
0.415778 0.537438 0.419501
0.515282 0.53315 0.432303
0.577615 0.538964 0.390402
0.686351 0.526543 0.378943
0.793698 0.512444 0.3626
0.894911 0.491814 0.33695
0.163485 0.643229 0.406592
0.259495 0.639826 0.411765
0.376776 0.644327 0.441062
0.486015 0.640406 0.463783
0.566766 0.63769 0.481529
0.619852 0.64622 0.468452
0.698558 0.651957 0.394324
0.815183 0.638468 0.370748
0.917327 0.62266 0.341512
0.213397 0.748363 0.430304
0.304112 0.748943 0.445518
0.428305 0.750072 0.47921
0.540475 0.747372 0.512886
0.619379 0.748165 0.532372
0.681956 0.755108 0.537408
0.725551 0.77554 0.451942
0.825193 0.777707 0.375387
0.929534 0.764035 0.334279
0.26247 0.84004 0.458167
0.334051 0.845151 0.476509
0.460426 0.851347 0.513573
0.569848 0.853498 0.547372
0.662623 0.857664 0.576288
0.736965 0.86595 0.592554
0.784939 0.88365 0.550713
0.840009 0.901732 0.424857
0.931182 0.89131 0.372793
0.0264286 0.0295567 0.425589
0.114015 0.0324865 0.428977
0.215305 0.0398108 0.441398
0.327642 0.0497902 0.458274
0.444663 0.0580911 0.471489
0.563195 0.0626688 0.477424
0.685817 0.0650339 0.479652
0.783551 0.0657511 0.465644
0.866285 0.0656901 0.450904
0.0484169 0.11989 0.447501
0.132921 0.123705 0.440452
0.221912 0.125048 0.450111
0.323461 0.128618 0.454948
0.430381 0.132387 0.457725
0.545495 0.133486 0.459281
0.668162 0.131518 0.461479
0.777722 0.108644 0.45391
0.862776 0.10753 0.438331
0.0656138 0.219211 0.464271
0.144442 0.212375 0.451728
0.22678 0.216724 0.434623
0.314443 0.219181 0.458747
0.428443 0.220645 0.460639
0.544747 0.221271 0.458625
0.663172 0.221729 0.456107
0.767727 0.197452 0.438117
0.861387 0.162936 0.420325
0.0814069 0.323766 0.479225
0.160143 0.314366 0.468391
0.245808 0.314992 0.461677
0.336889 0.320958 0.461189
0.444526 0.322408 0.477501
0.563561 0.322911 0.477073
0.678538 0.321324 0.470085
0.78172 0.300587 0.449393
0.878187 0.261723 0.425818
0.0952163 0.433967 0.490532
0.175235 0.424781 0.483467
0.266011 0.424369 0.490791
0.361944 0.430442 0.491554
0.46595 0.43621 0.491585
0.581735 0.439567 0.49688
0.693889 0.434104 0.481575
0.800931 0.415518 0.464973
0.901198 0.382315 0.444724
0.112871 0.547082 0.49633
0.196612 0.540475 0.491341
0.290364 0.542672 0.50605
0.387686 0.548974 0.516976
0.489632 0.557671 0.511177
0.599649 0.563775 0.512947
0.7084 0.552331 0.501442
0.816068 0.53756 0.485069
0.921798 0.509285 0.458732
0.138506 0.662623 0.504631
0.227985 0.657969 0.502129
0.323629 0.664027 0.521126
0.426169 0.671519 0.541161
0.542733 0.675776 0.550317
0.652049 0.671778 0.563699
0.719676 0.678447 0.514351
0.83566 0.664332 0.500053
0.942458 0.643091 0.467369
0.174472 0.777661 0.5205
0.269184 0.77586 0.523964
0.381491 0.783047 0.548714
0.504112 0.787732 0.579965
0.620417 0.784924 0.599145
0.707927 0.783047 0.618662
0.764446 0.793317 0.601877
0.848005 0.801312 0.51368
0.960998 0.789151 0.449958
0.220325 0.881025 0.542794
0.318578 0.883909 0.558404
0.428138 0.889479 0.582223
0.542809 0.89012 0.607782
0.653788 0.889342 0.635264
0.749432 0.892241 0.660777
0.821653 0.901762 0.666773
0.868849 0.926085 0.560967
0.966461 0.928405 0.453773
0.0296788 0.0327764 0.547066
0.117632 0.035584 0.550423
0.220249 0.0433967 0.563836
0.331655 0.0527657 0.579629
0.447013 0.0602426 0.591333
0.564584 0.0641794 0.59646
0.686381 0.0663615 0.597864
0.803281 0.0671244 0.597345
0.893172 0.0668498 0.58407
0.0512703 0.123339 0.568841
0.135363 0.122072 0.566339
0.22707 0.124514 0.568582
0.325887 0.128099 0.573236
0.433143 0.1308 0.576867
0.548074 0.132204 0.579248
0.668742 0.132143 0.579507
0.790173 0.131167 0.578958
0.889754 0.108049 0.571633
0.0664988 0.219974 0.58172
0.144701 0.212009 0.572931
0.228611 0.219318 0.545342
0.312932 0.221561 0.568597
0.423468 0.222873 0.579629
0.54023 0.224735 0.576349
0.663096 0.224002 0.573754
0.786145 0.223041 0.57261
0.88542 0.177554 0.555611
0.0819715 0.324269 0.596429
0.160189 0.31458 0.586648
0.245762 0.317388 0.570687
0.335653 0.324056 0.568322
0.434195 0.326787 0.593072
0.559258 0.326268 0.595529
0.683482 0.326131 0.593957
0.805554 0.327413 0.591775
0.903685 0.283192 0.571969
0.0955367 0.435096 0.608103
0.173663 0.426246 0.59968
0.263249 0.427314 0.597177
0.358236 0.433402 0.599664
0.461021 0.440497 0.599573
0.57879 0.442405 0.615854
0.705669 0.443397 0.615991
0.824994 0.44213 0.608591
0.925063 0.403754 0.590341
0.108476 0.552209 0.616495
0.186984 0.545495 0.610712
0.282368 0.545983 0.622644
0.381582 0.552087 0.632639
0.486931 0.560357 0.630198
0.601083 0.566247 0.631556
0.721767 0.571038 0.636561
0.841138 0.562661 0.620111
0.944228 0.52958 0.60441
0.126864 0.673594 0.622202
0.208988 0.668666 0.617868
0.306661 0.672892 0.632639
0.408469 0.679973 0.653346
0.514809 0.687892 0.656275
0.623331 0.697108 0.648249
0.741665 0.703288 0.652155
0.854109 0.689891 0.637507
0.961975 0.663478 0.611917
0.152026 0.793805 0.63035
0.239841 0.791135 0.628092
0.338277 0.798535 0.646143
0.440757 0.80679 0.670115
0.564141 0.812421 0.684123
0.682582 0.817792 0.692119
0.796735 0.815076 0.707042
0.866011 0.823056 0.651362
0.979355 0.807233 0.609689
0.184848 0.900313 0.64332
0.278752 0.900465 0.64715
0.376547 0.908034 0.662089
0.492302 0.91487 0.680491
0.617899 0.9196 0.703288
0.74226 0.920729 0.730282
0.842741 0.92221 0.753964
0.90428 0.9364 0.734676
0.993484 0.953658 0.564706
0.0323491 0.0355077 0.671702
0.120912 0.0383917 0.675425
0.224109 0.0462196 0.687419
0.33521 0.0553292 0.701274
0.448081 0.0615396 0.71017
0.564797 0.0650492 0.714199
0.686366 0.0669413 0.715709
0.803296 0.0677806 0.715434
0.905058 0.0675975 0.713817
0.0532082 0.125566 0.692576
0.136202 0.123003 0.688869
0.228168 0.124544 0.6907
0.326146 0.128099 0.694957
0.433127 0.130877 0.698528
0.547967 0.13228 0.700847
0.668772 0.132113 0.701534
0.790143 0.131289 0.70132
0.897307 0.129091 0.699763
0.0667582 0.22005 0.702678
0.14435 0.212009 0.694957
0.230274 0.22005 0.669505
0.31397 0.220844 0.692714
0.423987 0.222217 0.701549
0.538567 0.224628 0.702052
0.661402 0.224781 0.698558
0.78584 0.223682 0.696696
0.898741 0.214755 0.698207
0.0820783 0.323995 0.717449
0.159304 0.314153 0.708934
0.246479 0.318105 0.692393
0.334951 0.32639 0.683604
0.429801 0.330983 0.703395
0.551125 0.329213 0.721141
0.678737 0.329412 0.71754
0.805585 0.328725 0.716472
0.919676 0.320867 0.720043
0.0955367 0.435035 0.729259
0.173358 0.426581 0.722194
0.262364 0.429191 0.712413
0.355718 0.435904 0.713161
0.457649 0.444038 0.713344
0.566583 0.446876 0.738079
0.700984 0.446555 0.739574
0.828809 0.447303 0.739803
0.941894 0.443992 0.743343
0.10811 0.553689 0.739178
0.185901 0.546853 0.733639
0.277974 0.548424 0.736706
0.376455 0.555276 0.743969
0.483497 0.563394 0.745235
0.591073 0.570825 0.750332
0.720394 0.573373 0.759136
0.850172 0.574136 0.761318
0.960342 0.567971 0.761257
0.122072 0.679118 0.747814
0.199481 0.674037 0.743847
0.296345 0.676555 0.754925
0.406088 0.682551 0.768627
0.51667 0.690455 0.770123
0.623255 0.699168 0.772045
0.739773 0.706828 0.774868
0.868162 0.709422 0.779751
0.975921 0.693324 0.772396
0.140642 0.803479 0.753933
0.221714 0.800809 0.751369
0.321401 0.806195 0.764569
0.445548 0.812848 0.780529
0.557092 0.819394 0.786694
0.661738 0.827924 0.790692
0.770214 0.837064 0.793927
0.884108 0.844373 0.795743
0.991119 0.826352 0.776974
0.164019 0.913207 0.761212
0.252018 0.912261 0.760204
0.342443 0.91957 0.769299
0.44828 0.928573 0.780896
0.563729 0.936645 0.792432
0.687785 0.942458 0.803662
0.822492 0.946075 0.820768
0.930343 0.947662 0.843259
1 0.963912 0.753216
0.0343786 0.0376745 0.78468
0.123552 0.0408179 0.788479
0.227222 0.0483864 0.798688
0.337301 0.0569009 0.810132
0.448173 0.062089 0.816556
0.564019 0.065156 0.820005
0.6851 0.0670481 0.821439
0.802274 0.0678721 0.821607
0.904479 0.0677348 0.820462
0.0545663 0.126726 0.803769
0.136202 0.12314 0.800595
0.227802 0.123964 0.801816
0.32575 0.127367 0.805768
0.432761 0.130236 0.809293
0.546761 0.131426 0.8112
0.667689 0.131533 0.81236
0.78941 0.130892 0.812741
0.896788 0.128954 0.811566
0.0667124 0.219287 0.812909
0.143191 0.211261 0.806531
0.231556 0.210361 0.80621
0.327138 0.213397 0.809842
0.433097 0.215656 0.812665
0.546777 0.216663 0.814359
0.666575 0.216815 0.81471
0.788632 0.216052 0.814191
0.898238 0.21445 0.812696
0.0817578 0.322911 0.827436
0.158221 0.3131 0.820706
0.246723 0.312062 0.82089
0.343099 0.315831 0.825147
0.450278 0.319219 0.829145
0.565225 0.321263 0.831968
0.686442 0.321889 0.833539
0.809445 0.321782 0.834348
0.919509 0.320699 0.83418
0.095201 0.434379 0.840024
0.172366 0.426001 0.834531
0.262181 0.426352 0.835706
0.359945 0.431479 0.84126
0.468681 0.436652 0.846754
0.585 0.440177 0.850797
0.707912 0.442435 0.85391
0.831998 0.44416 0.856199
0.941955 0.444175 0.857023
0.107958 0.553704 0.85098
0.185031 0.54699 0.846693
0.276036 0.548547 0.849134
0.375174 0.555673 0.855955
0.485405 0.56228 0.862577
0.602869 0.567208 0.867903
0.72726 0.571221 0.872496
0.851972 0.573617 0.875608
0.962188 0.57499 0.877638
0.120943 0.680797 0.861692
0.197147 0.675135 0.858366
0.289494 0.67834 0.861738
0.3897 0.686702 0.869642
0.500862 0.694667 0.877409
0.619196 0.701122 0.883726
0.74403 0.705837 0.888853
0.86978 0.709911 0.893462
0.980529 0.712291 0.896315
0.135317 0.80856 0.87013
0.21149 0.805478 0.868391
0.303731 0.810224 0.873442
0.403647 0.819318 0.882261
0.515389 0.827955 0.8907
0.634089 0.834897 0.897597
0.759823 0.841047 0.903868
0.885588 0.84596 0.909163
0.996368 0.849088 0.91252
0.152987 0.921096 0.875898
0.233753 0.919936 0.874968
0.324651 0.925994 0.881346
0.425528 0.935409 0.891127
0.536599 0.943999 0.900008
0.654566 0.95172 0.907958
0.778531 0.958511 0.914916
0.901152 0.964477 0.920989
1 0.968933 0.92549
