public/sampleLut/17.cube
# Copyright: (C) Copyright 2022 The Resolve Store 
# Cannot be resold, shared or otherwise redistributed
TITLE "CinematicX (Rec.709)"
LUT_3D_SIZE 33
0.00654612 0.0104219 0.0160678
0.0198367 0.0109255 0.016556
0.0349889 0.011368 0.0170443
0.052842 0.0118868 0.0176089
0.071809 0.0122683 0.0180362
0.0920119 0.0123903 0.0181735
0.113878 0.0134737 0.0191043
0.133349 0.0146944 0.0202335
0.15259 0.016144 0.021561
0.173159 0.0180514 0.0232853
0.193301 0.0196841 0.0247501
0.214191 0.0213474 0.026276
0.236393 0.0233616 0.0280766
0.258961 0.0251164 0.0296941
0.281956 0.0268711 0.0313115
0.305577 0.0288243 0.0331426
0.329671 0.0307774 0.0349432
0.353674 0.0326085 0.0367285
0.378378 0.034638 0.0387121
0.403372 0.0366979 0.0406958
0.428489 0.0385138 0.0425574
0.454124 0.0404974 0.0445869
0.479927 0.0423285 0.0464637
0.505745 0.0440681 0.0483101
0.531609 0.0455329 0.0499123
0.558068 0.0470893 0.0515908
0.584573 0.0486305 0.0533303
0.611002 0.0498817 0.0547951
0.637461 0.0511482 0.0562295
0.663935 0.0521859 0.0575418
0.689952 0.052842 0.0584726
0.715038 0.0534524 0.0593729
0.739605 0.0540169 0.0601663
0.0172122 0.0237278 0.0224002
0.0255283 0.024445 0.0213474
0.0411231 0.0245823 0.0216068
0.057969 0.0247501 0.0220188
0.0780499 0.0254673 0.0226596
0.0988327 0.0259556 0.0231479
0.119951 0.0267948 0.0238956
0.139971 0.0283665 0.0253452
0.159167 0.0296483 0.0266117
0.179171 0.0314946 0.0281987
0.199695 0.0335241 0.0299229
0.220752 0.0350805 0.0313878
0.242405 0.0369421 0.0330053
0.265797 0.0391241 0.0349432
0.288914 0.0411383 0.0367285
0.312901 0.0433814 0.0387579
0.337072 0.0455177 0.0406806
0.361242 0.0475929 0.0425879
0.386084 0.049897 0.0446174
0.410636 0.0516976 0.0464332
0.435447 0.0535897 0.0481727
0.460639 0.0554971 0.0500191
0.48571 0.0568246 0.0515297
0.511193 0.0585031 0.0532082
0.537118 0.0600443 0.0548409
0.562722 0.0611887 0.0561532
0.588617 0.0624552 0.0575265
0.613916 0.0631418 0.0584268
0.638895 0.0637522 0.0591135
0.66479 0.0645457 0.06009
0.690455 0.0649577 0.0607767
0.715251 0.0653086 0.0613718
0.739208 0.0659342 0.0618448
0.0270848 0.0385901 0.0275731
0.0358129 0.0404669 0.0282902
0.0474403 0.0420233 0.0265812
0.0647288 0.0418097 0.026978
0.0841993 0.0415808 0.0272526
0.104982 0.0420081 0.0278782
0.126146 0.0427558 0.0285801
0.145373 0.0438849 0.0297093
0.165026 0.0458228 0.0312505
0.184451 0.0476081 0.0327306
0.205066 0.0496986 0.0344701
0.226902 0.0519875 0.0362707
0.248707 0.0538796 0.0379644
0.27219 0.0564431 0.0400244
0.295521 0.0584878 0.0418555
0.319066 0.0607767 0.0437171
0.342931 0.0628061 0.0455634
0.366888 0.0648661 0.0473182
0.390753 0.0666667 0.0489815
0.415183 0.0685283 0.0507057
0.439551 0.0701457 0.0522621
0.464469 0.0719615 0.0539559
0.489158 0.0732128 0.0552987
0.513375 0.0741741 0.0563821
0.538354 0.075227 0.0575418
0.563088 0.0758068 0.058381
0.587869 0.0764019 0.059266
0.613138 0.0771191 0.0601968
0.638056 0.0775006 0.0608377
0.663417 0.0779278 0.0616007
0.68896 0.078233 0.0622568
0.713848 0.0783398 0.0627909
0.738018 0.0784772 0.0633707
0.0371099 0.0560464 0.0322576
0.0482643 0.057969 0.0336919
0.0553445 0.0609903 0.0329595
0.0702831 0.0615396 0.0313268
0.0898756 0.0611582 0.0316472
0.110948 0.0610208 0.0320745
0.132372 0.0616617 0.0330053
0.151812 0.0630503 0.034287
0.170962 0.064744 0.0358434
0.190936 0.0668956 0.0375525
0.211551 0.068925 0.0392309
0.233021 0.0711986 0.0410468
0.25539 0.0735637 0.0428321
0.277668 0.0754406 0.0444648
0.300984 0.0775616 0.0462348
0.323903 0.0795605 0.0478523
0.347524 0.0816815 0.0495613
0.370993 0.0835126 0.0511482
0.394476 0.0851911 0.0526131
0.418112 0.086717 0.0540017
0.441627 0.0876936 0.0550546
0.465019 0.0884871 0.0560159
0.488884 0.0894789 0.0570535
0.512673 0.0900282 0.0578927
0.53724 0.0906996 0.0588235
0.561791 0.0911269 0.059617
0.586343 0.0914473 0.0603342
0.610788 0.0917678 0.0610056
0.635859 0.0920424 0.0616159
0.661204 0.092195 0.0622873
0.686259 0.0922103 0.0628519
0.711238 0.0923323 0.0634318
0.735759 0.0923781 0.0640421
0.0474098 0.0752422 0.0381628
0.0593729 0.0775158 0.0399939
0.0678874 0.0803082 0.0391394
0.0772869 0.0839094 0.0372625
0.0955062 0.0840314 0.0360418
0.116793 0.0839551 0.0365301
0.138018 0.0840772 0.0373693
0.157717 0.0853132 0.0388037
0.177111 0.0869459 0.0402533
0.196719 0.088716 0.0417945
0.216754 0.0904402 0.0432288
0.237629 0.0924239 0.04477
0.259358 0.0943465 0.0463722
0.281544 0.0963149 0.0478828
0.304479 0.0982834 0.0495003
0.326741 0.0999161 0.0508278
0.34902 0.101061 0.051957
0.371542 0.102434 0.0531319
0.393942 0.103304 0.0540322
0.416846 0.104143 0.055024
0.440009 0.104936 0.0559548
0.463127 0.105501 0.0567788
0.48661 0.106172 0.0576791
0.510369 0.106615 0.0584268
0.534539 0.107012 0.0592203
0.55877 0.107134 0.0598764
0.583062 0.107378 0.0605173
0.607645 0.107454 0.0612039
0.632578 0.107393 0.0618143
0.658152 0.107622 0.0625772
0.683177 0.107515 0.0631723
0.708263 0.107378 0.0637369
0.733043 0.1075 0.0643778
0.0579385 0.0969863 0.0448005
0.0707866 0.0994278 0.047303
0.0814984 0.102281 0.0480201
0.0897383 0.106416 0.0439765
0.102831 0.108888 0.0421149
0.12285 0.108919 0.0411688
0.143633 0.108888 0.0417792
0.162921 0.109621 0.0428779
0.182132 0.110613 0.0441901
0.201602 0.111757 0.0454719
0.221561 0.113481 0.0469215
0.241627 0.114824 0.0480964
0.262547 0.116335 0.0493629
0.283604 0.117235 0.050309
0.304875 0.118166 0.051194
0.326787 0.119493 0.0522621
0.34815 0.120256 0.0530861
0.370214 0.121096 0.0540475
0.392569 0.121813 0.0548714
0.415015 0.122332 0.0556344
0.437736 0.122744 0.0563973
0.460517 0.123262 0.0571298
0.483879 0.12369 0.057908
0.507271 0.123674 0.0585336
0.531197 0.123919 0.059205
0.555261 0.124163 0.0598764
0.579385 0.124178 0.060441
0.604166 0.124422 0.0612192
0.628931 0.124163 0.061799
0.654307 0.124147 0.062501
0.679301 0.124117 0.0631418
0.704601 0.123827 0.0636912
0.729198 0.123751 0.0642405
0.0696727 0.119997 0.0529946
0.0830549 0.122225 0.0555123
0.095491 0.124758 0.0569162
0.104875 0.128054 0.0543526
0.114443 0.132052 0.0486152
0.130236 0.133852 0.0472725
0.150027 0.133974 0.0465705
0.168856 0.134234 0.0472267
0.187182 0.13463 0.0481117
0.205692 0.134981 0.0489357
0.224521 0.135103 0.0496376
0.24416 0.135973 0.0505379
0.263874 0.136477 0.0512703
0.285039 0.137514 0.0522316
0.305943 0.138125 0.0529793
0.327077 0.138842 0.0538186
0.348516 0.139406 0.054551
0.370016 0.139879 0.0552224
0.391882 0.140322 0.0559396
0.414099 0.140673 0.056611
0.436652 0.1411 0.0573281
0.459205 0.141192 0.0579385
0.482597 0.141634 0.0587015
0.505989 0.141649 0.0592813
0.529473 0.141604 0.0598764
0.55346 0.141848 0.0605173
0.577569 0.141711 0.0610666
0.602045 0.141756 0.061738
0.626902 0.141619 0.0623331
0.65185 0.141543 0.0630045
0.676753 0.141238 0.0635538
0.701961 0.141009 0.0640421
0.726925 0.140795 0.0646677
0.082475 0.142519 0.0624399
0.0966049 0.144656 0.065156
0.109834 0.146212 0.0667735
0.120974 0.148806 0.0656138
0.129107 0.152316 0.0597086
0.140612 0.155566 0.053193
0.156374 0.156252 0.052018
0.174212 0.156268 0.0514229
0.192172 0.1561 0.0517433
0.210361 0.156222 0.0524758
0.229267 0.156207 0.0531319
0.248768 0.156359 0.0538949
0.268482 0.156588 0.05449
0.288518 0.157015 0.0551003
0.309178 0.157214 0.0556802
0.33022 0.157733 0.0563363
0.351431 0.158129 0.0570382
0.372671 0.158389 0.0576181
0.394675 0.158785 0.0583505
0.416327 0.158968 0.0589151
0.438865 0.159258 0.0596017
0.461585 0.159411 0.0601663
0.48452 0.159411 0.0607462
0.507912 0.159579 0.0613718
0.530938 0.159518 0.0618143
0.554849 0.159503 0.0624094
0.578729 0.15935 0.0629129
0.60322 0.159426 0.0635386
0.627588 0.15906 0.0639811
0.652369 0.159045 0.0645609
0.676936 0.158831 0.0649882
0.701961 0.158404 0.0654154
0.726711 0.158145 0.0659495
0.0948653 0.163516 0.071809
0.109239 0.16434 0.0740826
0.123125 0.165545 0.0758831
0.13431 0.167041 0.0753643
0.143648 0.170291 0.0708629
0.15227 0.173861 0.0625772
0.16405 0.176715 0.0568246
0.179812 0.177401 0.0562295
0.19707 0.177386 0.0556954
0.215137 0.177188 0.0558785
0.233677 0.176944 0.0564736
0.252934 0.176745 0.057023
0.272679 0.176715 0.0577096
0.292958 0.176547 0.0582132
0.313954 0.176928 0.0589303
0.334768 0.177005 0.0594034
0.355947 0.177371 0.0601053
0.377005 0.177493 0.0606394
0.398627 0.177707 0.061265
0.420584 0.17789 0.0618448
0.442588 0.177859 0.0623484
0.465187 0.177874 0.0629129
0.488014 0.177935 0.0634623
0.510948 0.177966 0.0639811
0.534356 0.177768 0.0644236
0.558328 0.177783 0.0650339
0.581903 0.177523 0.0654765
0.606104 0.177295 0.0660105
0.630518 0.177096 0.0664836
0.654994 0.176959 0.0669566
0.679759 0.176577 0.0673991
0.704784 0.176165 0.0678264
0.729259 0.17586 0.0682994
0.10663 0.182773 0.0805829
0.121599 0.183108 0.0829938
0.135363 0.183902 0.0847486
0.147219 0.185107 0.0850538
0.156588 0.187579 0.0817578
0.164553 0.191379 0.0741436
0.173312 0.195377 0.0650492
0.185931 0.197803 0.0604562
0.201862 0.198505 0.0600137
0.219715 0.198474 0.059556
0.23856 0.198306 0.0598306
0.257298 0.197818 0.0603189
0.277317 0.19762 0.0609598
0.297658 0.197498 0.0615244
0.318608 0.197345 0.0621805
0.33959 0.197269 0.0627909
0.360525 0.197238 0.0632486
0.381735 0.197208 0.0637827
0.403418 0.197436 0.0643931
0.425162 0.197269 0.0648966
0.447395 0.197238 0.0654154
0.469749 0.197253 0.06598
0.492287 0.196994 0.066392
0.515709 0.197055 0.0670024
0.538949 0.196704 0.0674296
0.562524 0.196536 0.0679942
0.586267 0.196277 0.0684672
0.610483 0.196048 0.0689708
0.634485 0.19559 0.0692912
0.658991 0.195331 0.069749
0.683848 0.194965 0.0702373
0.708507 0.194415 0.0706035
0.733288 0.194263 0.0711528
0.117739 0.201022 0.0890059
0.132799 0.201389 0.0913252
0.146761 0.202029 0.0936141
0.159091 0.203296 0.0946822
0.168551 0.205554 0.0927749
0.176608 0.209339 0.0868696
0.184161 0.213489 0.0765545
0.194247 0.217517 0.0678721
0.207706 0.219471 0.0640421
0.224643 0.220264 0.0639048
0.242786 0.22002 0.0634012
0.261875 0.219745 0.0635996
0.281758 0.219333 0.0641031
0.302205 0.219059 0.0647288
0.323064 0.21883 0.0653239
0.344091 0.218555 0.0660258
0.365499 0.218128 0.0665904
0.386954 0.218036 0.0671397
0.408194 0.217731 0.0675212
0.430243 0.217838 0.0681315
0.452049 0.217563 0.0685588
0.474418 0.21735 0.0690471
0.49723 0.217182 0.0695048
0.520287 0.216938 0.0700542
0.543511 0.216571 0.0704967
0.567147 0.216403 0.071046
0.590814 0.215824 0.0714427
0.614832 0.215381 0.0717937
0.63917 0.215167 0.072343
0.6636 0.214496 0.0727092
0.688609 0.214389 0.0732891
0.713146 0.213733 0.0736706
0.737743 0.213321 0.0740368
0.128695 0.219303 0.0974594
0.144213 0.219913 0.100267
0.1579 0.220615 0.102327
0.169833 0.221836 0.103838
0.179919 0.224323 0.103746
0.188159 0.22739 0.0992905
0.195743 0.2318 0.0903487
0.203723 0.236439 0.0788739
0.215167 0.240055 0.0706645
0.23003 0.242145 0.0678721
0.247333 0.242466 0.067628
0.266651 0.242573 0.0673533
0.28632 0.241917 0.0674296
0.307317 0.241718 0.0680705
0.327504 0.241138 0.0685283
0.348562 0.240879 0.0691844
0.369863 0.24036 0.0697795
0.391669 0.239857 0.0704509
0.413352 0.239445 0.070985
0.435157 0.239185 0.071458
0.45716 0.238819 0.0718547
0.479667 0.238651 0.0723125
0.502113 0.238087 0.0727092
0.52517 0.237858 0.0731823
0.548333 0.237461 0.0736553
0.571969 0.236942 0.0741131
0.595941 0.236637 0.0745708
0.619684 0.235996 0.0749218
0.644114 0.235584 0.0754101
0.668544 0.235065 0.0758526
0.693309 0.234623 0.0763561
0.718166 0.234058 0.0767376
0.74284 0.233631 0.0771649
0.139757 0.238422 0.106096
0.155001 0.238697 0.108873
0.168612 0.239841 0.111345
0.180301 0.241489 0.11342
0.190906 0.243595 0.113939
0.199496 0.246494 0.111192
0.207233 0.250828 0.10428
0.214679 0.255436 0.0926986
0.224338 0.260349 0.081178
0.236774 0.263401 0.0738689
0.252995 0.265263 0.0716259
0.270939 0.265446 0.0714122
0.290867 0.265507 0.0711833
0.311345 0.265003 0.0712902
0.332341 0.264546 0.071809
0.353216 0.263966 0.0723735
0.374487 0.263432 0.0729839
0.395941 0.262882 0.073579
0.417914 0.262303 0.0742351
0.440146 0.261357 0.0747845
0.46244 0.261158 0.075227
0.484672 0.260594 0.0755932
0.507454 0.260319 0.0760815
0.530327 0.259663 0.0764324
0.55378 0.259251 0.076936
0.577386 0.25864 0.0773327
0.601038 0.258244 0.0777752
0.625162 0.257725 0.0782177
0.649561 0.257237 0.078706
0.673823 0.256504 0.0790723
0.698848 0.256153 0.0796063
0.723522 0.255406 0.0799115
0.7476 0.254627 0.0802472
0.1505 0.257923 0.114626
0.16582 0.25835 0.117479
0.178836 0.260044 0.12047
0.190631 0.26154 0.122759
0.201358 0.263432 0.12398
0.210742 0.266621 0.122652
0.218677 0.2701 0.117433
0.226352 0.274968 0.107912
0.234806 0.280156 0.0947738
0.245274 0.284901 0.0836957
0.259358 0.287846 0.0773327
0.276204 0.289052 0.0757
0.295338 0.289601 0.0753948
0.31574 0.289219 0.0750286
0.337148 0.28896 0.0752422
0.357748 0.288182 0.0755627
0.379156 0.287846 0.0763104
0.40058 0.286976 0.0768139
0.422782 0.286503 0.0775158
0.444923 0.285512 0.0780499
0.467567 0.284718 0.0786603
0.490272 0.283986 0.0791638
0.512963 0.283452 0.0795453
0.536065 0.282918 0.0799115
0.559365 0.282399 0.0803845
0.582788 0.281605 0.0807202
0.606668 0.281361 0.0812238
0.630655 0.280476 0.0815595
0.65478 0.279698 0.0819409
0.679652 0.279286 0.082475
0.704356 0.278386 0.0828107
0.729076 0.278141 0.0833295
0.753399 0.277241 0.0836652
0.161669 0.278126 0.123598
0.176226 0.278981 0.126711
0.1888 0.280461 0.12929
0.200656 0.282368 0.131792
0.211856 0.284535 0.133639
0.221759 0.287312 0.133394
0.230304 0.290806 0.129976
0.238102 0.29514 0.122408
0.245624 0.299992 0.110491
0.255024 0.305486 0.0966354
0.266865 0.309422 0.0860456
0.282353 0.312352 0.0806592
0.300084 0.313283 0.0795453
0.320272 0.313848 0.0792248
0.341131 0.313512 0.0789349
0.362478 0.313222 0.0790417
0.383749 0.312413 0.0794537
0.405371 0.31165 0.0800793
0.427344 0.310933 0.0806744
0.449531 0.310185 0.0812695
0.472282 0.309621 0.082002
0.495094 0.308583 0.0825055
0.518547 0.307683 0.0831311
0.541741 0.30692 0.0835584
0.564782 0.306081 0.0838331
0.588708 0.305776 0.0843214
0.612268 0.304952 0.0845808
0.636637 0.30457 0.0851148
0.660822 0.303716 0.0854505
0.685512 0.303059 0.0859236
0.71014 0.302464 0.0863661
0.734844 0.301778 0.0867323
0.759182 0.300908 0.0870832
0.171984 0.29865 0.131899
0.186084 0.300099 0.135271
0.199008 0.301823 0.137987
0.210925 0.303975 0.140612
0.222156 0.305898 0.142184
0.232563 0.308537 0.142535
0.241733 0.311742 0.140963
0.249882 0.315679 0.13576
0.257588 0.320363 0.126009
0.265873 0.325734 0.112352
0.276371 0.330785 0.0983444
0.289525 0.334646 0.0890516
0.306279 0.33695 0.0840925
0.3252 0.337942 0.0834669
0.345647 0.338216 0.0830549
0.366751 0.338079 0.0828717
0.388113 0.337453 0.0828412
0.41004 0.336904 0.0833295
0.431907 0.335882 0.0838636
0.454414 0.335424 0.0846113
0.47686 0.334356 0.0851148
0.499962 0.333837 0.0858473
0.523186 0.332708 0.0863661
0.546822 0.331792 0.087068
0.570794 0.330831 0.0875715
0.594522 0.330205 0.087953
0.618204 0.329656 0.0882582
0.642344 0.328847 0.0886091
0.666667 0.328115 0.0890059
0.691264 0.32755 0.0894484
0.716274 0.326863 0.0899214
0.740948 0.326085 0.0902419
0.765362 0.325536 0.0907301
0.181949 0.31957 0.140047
0.196078 0.321477 0.143221
0.208576 0.323323 0.14612
0.220737 0.325216 0.148516
0.232731 0.327688 0.150973
0.243305 0.330007 0.151781
0.252964 0.333135 0.150698
0.261784 0.336675 0.14725
0.269657 0.341009 0.140444
0.277516 0.34609 0.128573
0.286793 0.351446 0.113878
0.29839 0.356298 0.100465
0.313085 0.359869 0.0918898
0.33051 0.361715 0.0876783
0.350103 0.362814 0.0872816
0.370626 0.362799 0.0867933
0.392477 0.362783 0.0866712
0.41416 0.362036 0.0866255
0.436561 0.361608 0.0871443
0.458808 0.360678 0.0877546
0.481666 0.360037 0.0884413
0.504448 0.358953 0.0889754
0.527596 0.35819 0.0895857
0.551507 0.357244 0.0902266
0.575784 0.356237 0.090959
0.600137 0.355215 0.0915999
0.624384 0.354513 0.0920272
0.648051 0.353704 0.0922255
0.672694 0.353323 0.0927291
0.69723 0.352407 0.0930343
0.722362 0.351797 0.0934768
0.747127 0.351125 0.0939193
0.770993 0.350256 0.0941787
0.19173 0.341176 0.148028
0.205509 0.342824 0.151125
0.21828 0.344961 0.154284
0.230838 0.347173 0.156909
0.242786 0.349477 0.159258
0.254032 0.351751 0.160601
0.264622 0.354849 0.160601
0.273487 0.35819 0.1579
0.281834 0.362325 0.152819
0.289601 0.366995 0.144015
0.297963 0.372122 0.130388
0.308461 0.377569 0.115312
0.321065 0.382086 0.102556
0.337453 0.385382 0.0950027
0.355718 0.387259 0.0913863
0.375555 0.388022 0.0910964
0.396704 0.388174 0.0907454
0.41854 0.387884 0.0905165
0.440726 0.387442 0.0905928
0.463401 0.386725 0.0909438
0.486244 0.38584 0.0915999
0.5093 0.384802 0.0922255
0.532937 0.384237 0.0929885
0.556405 0.383139 0.0934768
0.580285 0.382269 0.0941329
0.604898 0.381277 0.0948653
0.62948 0.380041 0.0955215
0.654353 0.379324 0.0961624
0.67866 0.378454 0.096376
0.703822 0.378042 0.0968338
0.728481 0.377142 0.0971542
0.75317 0.376516 0.097612
0.777295 0.37586 0.0979782
0.201266 0.362783 0.155917
0.215122 0.364904 0.159228
0.228183 0.367117 0.162493
0.240635 0.369268 0.165148
0.252689 0.37145 0.167315
0.264652 0.374197 0.169329
0.275593 0.37673 0.16965
0.285435 0.380377 0.168215
0.294163 0.383993 0.164157
0.302129 0.388525 0.157183
0.310399 0.393439 0.146838
0.31957 0.398917 0.131945
0.330877 0.404242 0.116594
0.345129 0.408453 0.105043
0.361715 0.411353 0.0982681
0.380774 0.413046 0.0949874
0.401053 0.413718 0.0949111
0.422644 0.413886 0.0945907
0.444862 0.413306 0.0943008
0.467948 0.41294 0.0944991
0.490654 0.411978 0.0947127
0.513939 0.41146 0.0954604
0.537316 0.41033 0.0960708
0.56141 0.409674 0.0968185
0.585367 0.408606 0.0974441
0.609552 0.407752 0.0981155
0.634379 0.40679 0.0988479
0.65919 0.405524 0.0994736
0.684962 0.404654 0.100282
0.7093 0.403769 0.100572
0.734615 0.403265 0.100984
0.759152 0.402533 0.10132
0.78352 0.401816 0.101717
0.210895 0.385061 0.163912
0.224552 0.387045 0.167102
0.237415 0.389166 0.17026
0.250767 0.391821 0.173312
0.263096 0.394095 0.175738
0.275227 0.396597 0.177783
0.286748 0.399451 0.178698
0.296895 0.402502 0.177783
0.306401 0.406256 0.174945
0.314977 0.410529 0.169314
0.323079 0.415366 0.1608
0.331655 0.420584 0.14902
0.341756 0.426108 0.133364
0.354223 0.431113 0.11812
0.369314 0.435111 0.107622
0.386557 0.437491 0.101411
0.406287 0.439292 0.0986954
0.426871 0.439597 0.0987106
0.449256 0.439933 0.098436
0.471778 0.439384 0.0981613
0.495201 0.439063 0.0983749
0.518456 0.43801 0.0986496
0.542245 0.437446 0.0993057
0.565911 0.436332 0.0999771
0.590158 0.435584 0.100755
0.614572 0.434669 0.101396
0.638987 0.433555 0.102007
0.664393 0.432883 0.102815
0.689296 0.431632 0.103502
0.715114 0.430503 0.10428
0.740734 0.429541 0.104845
0.765377 0.428931 0.105165
0.789502 0.428351 0.105486
0.219989 0.407156 0.171511
0.233951 0.409659 0.175051
0.24741 0.412039 0.178515
0.260365 0.414374 0.18114
0.273381 0.416922 0.184085
0.285893 0.419608 0.186145
0.297841 0.422324 0.187533
0.308797 0.425437 0.187259
0.318837 0.429129 0.18529
0.327871 0.433204 0.180819
0.336172 0.437705 0.173754
0.344472 0.442878 0.163973
0.353353 0.448142 0.150439
0.364675 0.453696 0.1346
0.377768 0.458351 0.119936
0.393881 0.462287 0.110506
0.411978 0.464378 0.104768
0.432273 0.466026 0.102434
0.453361 0.466209 0.102571
0.476051 0.466529 0.102312
0.499138 0.465904 0.102068
0.523156 0.465553 0.102281
0.546578 0.464591 0.102556
0.570474 0.463783 0.103182
0.594797 0.462898 0.103899
0.619303 0.462043 0.104662
0.644266 0.461128 0.105379
0.669245 0.459953 0.10602
0.694347 0.459358 0.106844
0.719921 0.458198 0.107515
0.745861 0.45713 0.108339
0.77145 0.456062 0.10901
0.795499 0.455177 0.109392
0.229374 0.43003 0.1794
0.243503 0.432517 0.183017
0.257145 0.435096 0.186511
0.270237 0.437598 0.189487
0.283589 0.440238 0.192401
0.296605 0.442908 0.194934
0.308751 0.445548 0.196521
0.320592 0.448981 0.197024
0.33109 0.452277 0.195529
0.34052 0.456321 0.191714
0.349615 0.460807 0.186145
0.357748 0.465522 0.177493
0.36643 0.47097 0.166369
0.375891 0.476143 0.151781
0.387839 0.481804 0.135882
0.401907 0.486198 0.122057
0.418982 0.489815 0.113451
0.437812 0.491737 0.108446
0.458686 0.493172 0.106416
0.480339 0.493339 0.106538
0.503349 0.493278 0.106218
0.52694 0.492943 0.10602
0.550896 0.492363 0.106142
0.575158 0.49163 0.106493
0.599619 0.4907 0.107088
0.624369 0.489952 0.107942
0.648951 0.48893 0.108553
0.673808 0.487999 0.1093
0.699275 0.487083 0.110048
0.725048 0.486168 0.110872
0.750881 0.485206 0.11162
0.775921 0.484047 0.112306
0.801144 0.48304 0.1131
0.238636 0.453559 0.18732
0.253086 0.455817 0.19115
0.266529 0.458305 0.194553
0.280522 0.461357 0.197894
0.293904 0.463859 0.200946
0.307149 0.466453 0.203449
0.320241 0.469596 0.205707
0.332143 0.472496 0.206271
0.343435 0.47602 0.205692
0.353597 0.479957 0.202777
0.362722 0.484062 0.197818
0.371405 0.489128 0.190585
0.379538 0.493996 0.180697
0.388754 0.499611 0.168627
0.398688 0.504952 0.152865
0.411582 0.510201 0.137209
0.426825 0.514397 0.124437
0.444739 0.51751 0.116701
0.46421 0.519509 0.112032
0.485512 0.520592 0.110262
0.507897 0.520897 0.110491
0.531289 0.520882 0.110201
0.555215 0.52047 0.110048
0.579644 0.519875 0.11017
0.604212 0.519173 0.11046
0.628687 0.51809 0.110933
0.653788 0.517357 0.111833
0.67892 0.516365 0.112627
0.704479 0.515465 0.11342
0.729976 0.514626 0.114122
0.755489 0.51368 0.11487
0.781033 0.512825 0.115724
0.805875 0.511498 0.116381
0.247807 0.476875 0.195132
0.262806 0.479698 0.199344
0.276707 0.482414 0.203128
0.290455 0.485084 0.206195
0.304356 0.487953 0.209552
0.318044 0.490852 0.21236
0.331151 0.493553 0.214603
0.344045 0.496895 0.216083
0.355886 0.50016 0.215808
0.366384 0.504082 0.213687
0.37615 0.508278 0.209659
0.384695 0.512749 0.202884
0.393408 0.518013 0.194568
0.401877 0.523033 0.183383
0.411124 0.528588 0.170169
0.422431 0.534066 0.154314
0.436377 0.538994 0.138872
0.452369 0.543114 0.126986
0.470634 0.545922 0.119844
0.490913 0.547768 0.115694
0.512718 0.548669 0.114244
0.535637 0.549035 0.114519
0.559121 0.548714 0.114061
0.583871 0.54847 0.114015
0.608438 0.547646 0.114061
0.633356 0.546899 0.114458
0.658473 0.546075 0.114992
0.683619 0.545235 0.115801
0.709331 0.544381 0.116609
0.73463 0.543328 0.117357
0.7608 0.54255 0.118227
0.785992 0.541466 0.118975
0.810651 0.540536 0.119707
0.25771 0.501106 0.203662
0.272328 0.503731 0.207553
0.286427 0.506386 0.2112
0.300862 0.509712 0.215045
0.314946 0.512413 0.21828
0.328801 0.515236 0.221195
0.342626 0.518273 0.223743
0.355657 0.521355 0.225483
0.368063 0.524758 0.225879
0.379065 0.528634 0.22446
0.38912 0.532509 0.221073
0.398413 0.537148 0.215366
0.407218 0.54197 0.20763
0.415656 0.547219 0.197833
0.424247 0.552743 0.185733
0.434501 0.55816 0.171908
0.446845 0.5635 0.155657
0.461295 0.5682 0.140566
0.478462 0.572122 0.129885
0.497551 0.574517 0.123171
0.518364 0.576242 0.119402
0.540536 0.577005 0.118135
0.564004 0.577295 0.118486
0.588205 0.577081 0.118135
0.612741 0.576715 0.11809
0.637888 0.576165 0.118151
0.663005 0.575418 0.118471
0.688579 0.574578 0.119005
0.713848 0.573419 0.119753
0.740017 0.572824 0.12076
0.765606 0.571694 0.121492
0.790784 0.570794 0.122194
0.815671 0.56994 0.123018
0.266926 0.525383 0.211673
0.282231 0.528344 0.216068
0.296696 0.531365 0.22005
0.310979 0.534188 0.223438
0.32575 0.537224 0.227329
0.340093 0.540368 0.230411
0.354009 0.543267 0.232975
0.367636 0.546365 0.235203
0.380316 0.549783 0.235966
0.391455 0.553338 0.234913
0.402533 0.557427 0.232471
0.41181 0.561929 0.227573
0.421042 0.566735 0.220874
0.429755 0.571893 0.211688
0.438254 0.577325 0.200595
0.447669 0.582803 0.187732
0.458198 0.587961 0.173175
0.471611 0.593484 0.157122
0.487175 0.597711 0.142641
0.504662 0.601343 0.132692
0.524681 0.603693 0.126543
0.546212 0.605158 0.123217
0.569009 0.60592 0.122255
0.592584 0.606119 0.122499
0.616968 0.606088 0.122164
0.641978 0.605356 0.121981
0.66772 0.60502 0.122225
0.693172 0.603952 0.122454
0.718746 0.603311 0.123064
0.744579 0.602335 0.123812
0.770245 0.601312 0.124636
0.795987 0.600519 0.125536
0.820386 0.599435 0.126268
0.276951 0.550469 0.220371
0.29221 0.553323 0.224521
0.30663 0.556237 0.228626
0.32163 0.559365 0.232441
0.336553 0.562478 0.236316
0.350973 0.565499 0.239307
0.36527 0.568673 0.242359
0.379522 0.571801 0.244831
