public/sampleLut/18.cube
TITLE "KORNEV - SLog 3 (WEDDING)"
LUT_3D_SIZE 8
DOMAIN_MIN 0.000000 0.000000 0.000000
DOMAIN_MAX 0.903226 0.903226 0.903226
0.0163 0.0385 0.0371
0.0368 0.0370 0.0369
0.0777 0.0344 0.0355
0.2335 0.0000 0.0000
0.3785 0.0000 0.0000
0.5190 0.0000 0.0000
0.6574 0.0000 0.0000
0.7805 0.0000 0.0000
0.0052 0.0606 0.0350
0.0272 0.0509 0.0359
0.0745 0.0435 0.0355
0.2274 0.0214 0.0016
0.3756 0.0000 0.0000
0.5315 0.0000 0.0000
0.6826 0.0000 0.0000
0.7908 0.0000 0.0000
0.0000 0.1273 0.0000
0.0000 0.1019 0.0252
0.0584 0.0756 0.0329
0.2042 0.0863 0.0052
0.3660 0.0623 0.0041
0.5396 0.0469 0.0035
0.7086 0.0618 0.0045
0.7897 0.0798 0.0057
0.0000 0.2191 0.0000
0.0000 0.1980 0.0000
0.0782 0.1810 0.0047
0.2159 0.1845 0.0108
0.4110 0.2348 0.0139
0.5866 0.2549 0.0153
0.7474 0.2577 0.0156
0.7872 0.2657 0.0161
0.0000 0.3281 0.0000
0.0000 0.3389 0.0000
0.0965 0.3355 0.0058
0.2776 0.3658 0.0167
0.4500 0.3811 0.0223
0.6296 0.3934 0.0232
0.7723 0.3856 0.0229
0.7841 0.3900 0.0232
0.0000 0.4447 0.0000
0.0000 0.4744 0.0000
0.1073 0.5089 0.0065
0.3245 0.5404 0.0195
0.4979 0.5414 0.0297
0.6463 0.5196 0.0305
0.7724 0.5093 0.0300
0.7802 0.5045 0.0298
0.0000 0.5765 0.0000
0.0000 0.6305 0.0000
0.0898 0.6797 0.0054
0.3406 0.6978 0.0204
0.5172 0.6895 0.0309
0.6606 0.6653 0.0390
0.7524 0.6352 0.0373
0.7749 0.6189 0.0363
0.0000 0.7125 0.0000
0.0000 0.7608 0.0000
0.0000 0.8009 0.0000
0.3419 0.7995 0.0205
0.5119 0.7914 0.0305
0.6267 0.7816 0.0373
0.7042 0.7719 0.0418
0.7549 0.7333 0.0430
0.0135 0.0377 0.0459
0.0312 0.0378 0.0400
0.0766 0.0351 0.0362
0.2410 0.0000 0.0000
0.4029 0.0000 0.0000
0.5674 0.0000 0.0000
0.7184 0.0000 0.0000
0.7908 0.0000 0.0000
0.0134 0.0545 0.0393
0.0244 0.0496 0.0402
0.0700 0.0421 0.0364
0.2375 0.0000 0.0000
0.4165 0.0000 0.0000
0.5918 0.0000 0.0000
0.7471 0.0000 0.0000
0.7908 0.0000 0.0000
0.0000 0.1034 0.0249
0.0000 0.0940 0.0294
0.0602 0.0728 0.0343
0.2067 0.0745 0.0045
0.3901 0.0052 0.0005
0.5847 0.0000 0.0000
0.7604 0.0000 0.0000
0.7908 0.0000 0.0000
0.0000 0.1956 0.0000
0.0000 0.1944 0.0000
0.0942 0.1741 0.0057
0.2138 0.1707 0.0100
0.4037 0.1790 0.0107
0.6007 0.1685 0.0104
0.7674 0.1606 0.0102
0.7884 0.1962 0.0122
0.0000 0.3180 0.0000
0.0000 0.3372 0.0000
0.0914 0.3340 0.0055
0.2538 0.3455 0.0153
0.4355 0.3580 0.0210
0.6382 0.3752 0.0222
0.7762 0.3713 0.0221
0.7845 0.3779 0.0225
0.0000 0.4405 0.0000
0.0000 0.4696 0.0000
0.0000 0.4940 0.0000
0.2805 0.5227 0.0168
0.4858 0.5312 0.0290
0.6467 0.5184 0.0304
0.7721 0.5050 0.0298
0.7804 0.4998 0.0295
0.0000 0.5733 0.0000
0.0000 0.6089 0.0000
0.0000 0.6655 0.0000
0.3023 0.6867 0.0181
0.5096 0.6866 0.0304
0.6560 0.6625 0.0388
0.7401 0.6324 0.0371
0.7751 0.6152 0.0361
0.0000 0.7125 0.0000
0.0000 0.7432 0.0000
0.0000 0.7973 0.0000
0.3212 0.7997 0.0193
0.5040 0.7915 0.0301
0.6086 0.7810 0.0362
0.6789 0.7677 0.0403
0.7424 0.7303 0.1906
0.0000 0.0375 0.0529
0.0254 0.0374 0.0499
0.0810 0.0346 0.0483
0.2348 0.0000 0.0489
0.4287 0.0000 0.0000
0.6209 0.0000 0.0000
0.7754 0.0000 0.0000
0.7908 0.0000 0.0000
0.0127 0.0493 0.0474
0.0236 0.0448 0.0480
0.0771 0.0413 0.0457
0.2376 0.0000 0.0359
0.4426 0.0000 0.0000
0.6459 0.0000 0.0000
0.7878 0.0000 0.0000
0.7908 0.0000 0.0000
0.0000 0.0889 0.0401
0.0000 0.0786 0.0430
0.0638 0.0712 0.0466
0.2214 0.0679 0.0042
0.4431 0.0000 0.0000
0.6656 0.0000 0.0000
0.7905 0.0000 0.0000
0.7908 0.0000 0.0000
0.0000 0.1760 0.0000
0.0000 0.1737 0.0000
0.0791 0.1776 0.0048
0.2192 0.1695 0.0099
0.4184 0.1436 0.0088
0.6461 0.0611 0.0044
0.7894 0.0000 0.0000
0.7901 0.0376 0.0033
0.0000 0.3037 0.0000
0.0000 0.3219 0.0000
0.0000 0.3464 0.0000
0.2382 0.3494 0.0143
0.4247 0.3276 0.0192
0.6542 0.3125 0.0186
0.7861 0.3080 0.0185
0.7857 0.3310 0.0198
0.0000 0.4356 0.0000
0.0000 0.4642 0.0000
0.0000 0.5022 0.0000
0.2333 0.5265 0.0140
0.4373 0.5271 0.0261
0.6493 0.5069 0.0298
0.7764 0.5016 0.0296
0.7805 0.4970 0.0293
0.0000 0.5752 0.0000
0.0000 0.6161 0.0000
0.0000 0.6654 0.0000
0.2241 0.6919 0.0135
0.4672 0.6920 0.0279
0.6479 0.6723 0.0385
0.7250 0.6302 0.0370
0.7726 0.6101 0.2775
0.0000 0.7162 0.0000
0.0000 0.7572 0.0000
0.0000 0.7987 0.0000
0.2439 0.7996 0.0146
0.4750 0.7920 0.0284
0.5821 0.7845 0.0346
0.6517 0.7577 0.2363
0.7253 0.7262 0.3619
0.0000 0.0398 0.1147
0.0158 0.0372 0.1096
0.0956 0.0336 0.1043
0.2226 0.0000 0.1291
0.4254 0.0000 0.1100
0.6493 0.0000 0.0345
0.7907 0.0000 0.0000
0.7908 0.0000 0.0000
0.0000 0.0500 0.1076
0.0150 0.0460 0.1028
0.0901 0.0384 0.1075
0.2252 0.0000 0.1322
0.4335 0.0000 0.1001
0.6678 0.0000 0.0000
0.7908 0.0000 0.0000
0.7908 0.0000 0.0000
0.0000 0.0892 0.0820
0.0000 0.0841 0.0881
0.0613 0.0667 0.1062
0.2291 0.0480 0.1297
0.4442 0.0000 0.0954
0.6870 0.0000 0.0000
0.7908 0.0000 0.0000
0.7908 0.0000 0.0000
0.0000 0.1720 0.0861
0.0000 0.1652 0.0938
0.0474 0.1724 0.1069
0.2164 0.1752 0.1236
0.4283 0.1474 0.0938
0.6850 0.0000 0.0000
0.7907 0.0000 0.0000
0.7906 0.0000 0.0000
0.0000 0.2975 0.0989
0.0000 0.3094 0.1028
0.0000 0.3376 0.1032
0.2185 0.3644 0.1088
0.4174 0.3456 0.0203
0.6548 0.2998 0.0179
0.7877 0.2380 0.0146
0.7874 0.2523 0.0154
0.0000 0.4443 0.0588
0.0000 0.4662 0.0617
0.0000 0.5069 0.0442
0.2026 0.5484 0.0122
0.4001 0.5588 0.0239
0.6394 0.5265 0.0309
0.7770 0.5016 0.0296
0.7803 0.5004 0.0295
0.0000 0.6037 0.0000
0.0000 0.6380 0.0000
0.0000 0.6808 0.0000
0.1613 0.7088 0.0097
0.3976 0.7136 0.0238
0.6271 0.6892 0.0373
0.7412 0.6494 0.0381
0.7727 0.6213 0.2528
0.0000 0.7542 0.0000
0.0000 0.7908 0.0000
0.0000 0.8051 0.0000
0.1582 0.8039 0.0095
0.4189 0.7954 0.0251
0.5918 0.7863 0.1205
0.6615 0.7664 0.3056
0.7252 0.7317 0.4402
0.0000 0.0221 0.2630
0.0000 0.0221 0.2639
0.1256 0.0120 0.2746
0.2421 0.0031 0.2802
0.3913 0.0000 0.2801
0.6239 0.0000 0.2620
0.7907 0.0000 0.2294
0.7907 0.0000 0.2525
0.0000 0.0508 0.2720
0.0000 0.0407 0.2677
0.1087 0.0148 0.2926
0.2463 0.0049 0.3063
0.3994 0.0000 0.3026
0.6348 0.0000 0.2737
0.7907 0.0000 0.2394
0.7906 0.0000 0.2606
0.0000 0.1353 0.2673
0.0000 0.1300 0.2858
0.0324 0.0780 0.3068
0.2314 0.0546 0.3391
0.4098 0.0000 0.3350
0.6490 0.0000 0.2905
0.7907 0.0000 0.2435
0.7906 0.0000 0.2625
0.0000 0.2037 0.2419
0.0000 0.2128 0.2759
0.0000 0.2163 0.3304
0.1871 0.2066 0.3684
0.4236 0.1975 0.3705
0.6554 0.1134 0.3201
0.7895 0.0000 0.2472
0.7902 0.0690 0.2668
0.0000 0.3039 0.2565
0.0000 0.3114 0.2792
0.0000 0.3288 0.3096
0.2327 0.3594 0.3511
0.3981 0.3839 0.3693
0.6324 0.3685 0.3619
0.7693 0.2875 0.2957
0.7884 0.2744 0.2747
0.0000 0.4513 0.2781
0.0000 0.4713 0.2929
0.0000 0.5009 0.3198
0.2422 0.5479 0.3595
0.3926 0.5863 0.3751
0.6114 0.5741 0.3746
0.7487 0.5409 0.3340
0.7787 0.4700 0.2570
0.0000 0.6325 0.2894
0.0000 0.6611 0.3031
0.0000 0.6927 0.3358
0.2299 0.7250 0.3680
0.3976 0.7278 0.3836
0.5888 0.7033 0.4155
0.7180 0.6834 0.3843
0.7681 0.6452 0.3370
0.0000 0.7970 0.3034
0.0000 0.8023 0.3322
0.0000 0.8016 0.3705
0.2423 0.7981 0.3918
0.4153 0.7950 0.4160
0.5898 0.7875 0.4751
0.6790 0.7771 0.4835
0.7407 0.7453 0.4602
0.0000 0.0320 0.3860
0.0000 0.0323 0.3903
0.1136 0.0251 0.4291
0.2555 0.0169 0.4680
0.4089 0.0059 0.4825
0.5929 0.0000 0.4888
0.7808 0.0000 0.4604
0.7903 0.0000 0.4554
0.0000 0.0335 0.4054
0.0000 0.0334 0.4039
0.0770 0.0293 0.4465
0.2482 0.0201 0.5006
0.4187 0.0084 0.5235
0.6066 0.0000 0.5275
0.7835 0.0000 0.4836
0.7903 0.0000 0.4590
0.0000 0.1551 0.4562
0.0000 0.1430 0.4582
0.0000 0.1008 0.4871
0.2092 0.0436 0.5428
0.4193 0.0119 0.5690
0.6167 0.0000 0.5724
0.7818 0.0000 0.5015
0.7902 0.0000 0.4604
0.0000 0.2540 0.4670
0.0000 0.2606 0.5089
0.0000 0.2552 0.5552
0.1769 0.2423 0.5913
0.4067 0.2338 0.6186
0.6255 0.2103 0.6178
0.7701 0.1424 0.5198
0.7895 0.1386 0.4648
0.0000 0.3415 0.4676
0.0000 0.3493 0.4963
0.0000 0.3625 0.5442
0.2174 0.3815 0.5957
0.3598 0.3907 0.6145
0.6128 0.3913 0.6203
0.7335 0.3405 0.5504
0.7765 0.3174 0.4832
0.0000 0.4633 0.4764
0.0000 0.4795 0.4948
0.0865 0.4988 0.5245
0.2713 0.5286 0.5570
0.4066 0.5737 0.5860
0.6043 0.6132 0.6108
0.7297 0.6078 0.6157
0.7465 0.4998 0.5129
0.0000 0.6401 0.4907
0.0000 0.6624 0.5075
0.0955 0.6911 0.5381
0.2827 0.7181 0.5652
0.4220 0.7343 0.5903
0.5902 0.7316 0.6110
0.7260 0.7352 0.6389
0.7589 0.7031 0.5988
0.0000 0.7990 0.5199
0.0000 0.8000 0.5387
0.1248 0.7991 0.5650
0.3004 0.7951 0.5830
0.4448 0.7919 0.5924
0.5936 0.7870 0.6304
0.7201 0.7828 0.6674
0.7461 0.7718 0.6595
0.0000 0.0421 0.5140
0.0000 0.0422 0.5162
0.0831 0.0381 0.5688
0.2465 0.0328 0.6654
0.4286 0.0212 0.6982
0.6162 0.0074 0.7102
0.7656 0.0000 0.6977
0.7894 0.0000 0.6754
0.0000 0.0439 0.5377
0.0000 0.0434 0.5310
0.0423 0.0424 0.5839
0.2288 0.0363 0.6933
0.4268 0.0241 0.7345
0.6233 0.0098 0.7475
0.7664 0.0000 0.7167
0.7894 0.0000 0.6741
0.0000 0.1662 0.6237
0.0000 0.1571 0.6247
0.0000 0.1119 0.6696
0.1842 0.0424 0.7305
0.4025 0.0285 0.7676
0.6239 0.0120 0.7762
0.7581 0.0000 0.7339
0.7892 0.0000 0.6747
0.0000 0.2902 0.6908
0.0000 0.2892 0.7170
0.0000 0.2720 0.7454
0.1676 0.2583 0.7621
0.3575 0.2523 0.7806
0.6140 0.2494 0.7965
0.7388 0.2375 0.7376
0.7879 0.2199 0.6803
0.0000 0.3901 0.6906
0.0000 0.4021 0.7231
0.0000 0.4044 0.7487
0.2135 0.4009 0.7580
0.3428 0.3941 0.7410
0.5768 0.3944 0.7601
0.7129 0.3912 0.7210
0.7698 0.3690 0.6852
0.0000 0.5044 0.6796
0.0000 0.5137 0.6898
0.1161 0.5221 0.6975
0.2695 0.5382 0.7014
0.3815 0.5518 0.7034
0.5561 0.5744 0.7180
0.7113 0.5860 0.7179
0.7416 0.5421 0.6945
0.0000 0.6448 0.6678
0.0000 0.6612 0.6746
0.1733 0.6772 0.6836
0.3087 0.6938 0.6920
0.4400 0.7138 0.6944
0.6055 0.7314 0.7010
0.7349 0.7458 0.7282
0.7616 0.7360 0.7264
0.0000 0.7976 0.6702
0.0000 0.7977 0.6773
0.2157 0.7948 0.6870
0.3418 0.7943 0.6942
0.4744 0.7903 0.6933
0.6064 0.7858 0.7060
0.7303 0.7834 0.7390
0.7628 0.7821 0.7458
0.0000 0.0526 0.6514
0.0000 0.0529 0.6548
0.0333 0.0520 0.7051
0.2305 0.0442 0.8019
0.4338 0.0289 0.8040
0.6347 0.0134 0.8054
0.7595 0.0036 0.8051
0.7886 0.0009 0.7999
0.0000 0.0550 0.6820
0.0000 0.0541 0.6707
0.0000 0.0572 0.7113
0.2171 0.0452 0.8017
0.4226 0.0297 0.8039
0.6317 0.0136 0.8053
0.7567 0.0038 0.8054
0.7885 0.0009 0.7997
0.0000 0.1731 0.7710
0.0000 0.1589 0.7722
0.0000 0.1147 0.7989
0.1767 0.0482 0.8011
0.3882 0.0682 0.8034
0.6129 0.0947 0.8049
0.7460 0.1070 0.8051
0.7880 0.1140 0.7993
0.0000 0.3115 0.7978
0.0000 0.3034 0.7978
0.0000 0.2906 0.7978
0.1716 0.2685 0.8005
0.3441 0.2604 0.8018
0.5776 0.2750 0.8033
0.7238 0.2860 0.8035
0.7863 0.2837 0.7994
0.0000 0.4362 0.7961
0.0000 0.4364 0.7955
0.0000 0.4326 0.7974
0.2208 0.4179 0.7971
0.3483 0.4033 0.7997
0.5352 0.3975 0.8008
0.7039 0.4163 0.7950
0.7796 0.4211 0.7873
0.0000 0.5455 0.7929
0.0000 0.5559 0.7926
0.1310 0.5627 0.7919
0.2686 0.5641 0.7880
0.3795 0.5559 0.7869
0.5239 0.5464 0.7813
0.6946 0.5624 0.7767
0.7699 0.5706 0.7704
0.0000 0.6842 0.7732
0.0000 0.6863 0.7723
0.1996 0.6904 0.7689
0.3212 0.6956 0.7649
0.4422 0.7078 0.7607
0.5805 0.7136 0.7586
0.7272 0.7175 0.7573
0.7669 0.7263 0.7549
0.0000 0.7973 0.7443
0.1264 0.7972 0.7480
0.2654 0.7939 0.7487
0.3666 0.7914 0.7482
0.4914 0.7885 0.7490
0.6237 0.7850 0.7488
0.7319 0.7833 0.7484
0.7655 0.7824 0.7480
