public/sampleLut/18.cube
TITLE "KORNEV - SLog 3 (WEDDING)"
LUT_3D_SIZE 32
0.0163 0.0385 0.0371
0.0162 0.0386 0.0370
0.0204 0.0374 0.0371
0.0276 0.0365 0.0370
0.0368 0.0370 0.0369
0.0433 0.0366 0.0368
0.0522 0.0362 0.0366
0.0619 0.0356 0.0362
0.0777 0.0344 0.0355
0.1084 0.0313 0.0333
0.1494 0.0244 0.0277
0.1893 0.0121 0.0146
0.2335 0.0000 0.0000
0.2732 0.0000 0.0000
0.3143 0.0000 0.0000
0.3460 0.0000 0.0000
0.3785 0.0000 0.0000
0.4138 0.0000 0.0000
0.4543 0.0000 0.0000
0.4826 0.0000 0.0000
0.5190 0.0000 0.0000
0.5542 0.0000 0.0000
0.5899 0.0000 0.0000
0.6235 0.0000 0.0000
0.6574 0.0000 0.0000
0.6884 0.0000 0.0000
0.7219 0.0000 0.0000
0.7543 0.0000 0.0000
0.7805 0.0000 0.0000
0.7908 0.0000 0.0000
0.7908 0.0000 0.0000
0.7908 0.0000 0.0000
0.0156 0.0417 0.0368
0.0157 0.0411 0.0369
0.0212 0.0406 0.0369
0.0262 0.0389 0.0370
0.0361 0.0380 0.0369
0.0447 0.0366 0.0367
0.0505 0.0363 0.0366
0.0600 0.0357 0.0363
0.0777 0.0344 0.0355
0.1081 0.0313 0.0333
0.1494 0.0244 0.0277
0.1890 0.0123 0.0147
0.2335 0.0000 0.0000
0.2732 0.0000 0.0000
0.3143 0.0000 0.0000
0.3460 0.0000 0.0000
0.3785 0.0000 0.0000
0.4152 0.0000 0.0000
0.4553 0.0000 0.0000
0.4877 0.0000 0.0000
0.5243 0.0000 0.0000
0.5587 0.0000 0.0000
0.5958 0.0000 0.0000
0.6295 0.0000 0.0000
0.6635 0.0000 0.0000
0.6945 0.0000 0.0000
0.7270 0.0000 0.0000
0.7585 0.0000 0.0000
0.7828 0.0000 0.0000
0.7908 0.0000 0.0000
0.7908 0.0000 0.0000
0.7908 0.0000 0.0000
0.0145 0.0457 0.0365
0.0146 0.0454 0.0366
0.0178 0.0447 0.0366
0.0258 0.0433 0.0367
0.0354 0.0402 0.0367
0.0422 0.0388 0.0368
0.0489 0.0375 0.0366
0.0576 0.0369 0.0364
0.0730 0.0358 0.0357
0.1043 0.0327 0.0336
0.1427 0.0272 0.0289
0.1895 0.0143 0.0144
0.2333 0.0000 0.0000
0.2729 0.0000 0.0000
0.3141 0.0000 0.0000
0.3457 0.0000 0.0000
0.3785 0.0000 0.0000
0.4159 0.0000 0.0000
0.4572 0.0000 0.0000
0.4932 0.0000 0.0000
0.5297 0.0000 0.0000
0.5629 0.0000 0.0000
0.6019 0.0000 0.0000
0.6371 0.0000 0.0000
0.6707 0.0000 0.0000
0.7033 0.0000 0.0000
0.7372 0.0000 0.0000
0.7686 0.0000 0.0000
0.7884 0.0000 0.0000
0.7908 0.0000 0.0000
0.7908 0.0000 0.0000
0.7908 0.0000 0.0000
0.0123 0.0516 0.0360
0.0123 0.0516 0.0360
0.0146 0.0505 0.0361
0.0211 0.0485 0.0363
0.0312 0.0446 0.0365
0.0385 0.0419 0.0367
0.0471 0.0409 0.0367
0.0561 0.0399 0.0364
0.0733 0.0387 0.0357
0.1051 0.0359 0.0335
0.1430 0.0309 0.0288
0.1848 0.0231 0.0166
0.2307 0.0000 0.0000
0.2705 0.0000 0.0000
0.3126 0.0000 0.0000
0.3444 0.0000 0.0000
0.3783 0.0000 0.0000
0.4180 0.0000 0.0000
0.4570 0.0000 0.0000
0.4942 0.0000 0.0000
0.5328 0.0000 0.0000
0.5671 0.0000 0.0000
0.6057 0.0000 0.0000
0.6420 0.0000 0.0000
0.6775 0.0000 0.0000
0.7110 0.0000 0.0000
0.7470 0.0000 0.0000
0.7753 0.0000 0.0000
0.7892 0.0000 0.0000
0.7909 0.0000 0.0000
0.7908 0.0000 0.0000
0.7908 0.0000 0.0000
0.0052 0.0606 0.0350
0.0059 0.0602 0.0350
0.0079 0.0585 0.0352
0.0151 0.0540 0.0357
0.0272 0.0509 0.0359
0.0354 0.0486 0.0360
0.0437 0.0463 0.0365
0.0544 0.0447 0.0363
0.0745 0.0435 0.0355
0.1061 0.0416 0.0333
0.1410 0.0383 0.0289
0.1815 0.0338 0.0172
0.2274 0.0214 0.0016
0.2683 0.0000 0.0000
0.3111 0.0000 0.0000
0.3413 0.0000 0.0000
0.3756 0.0000 0.0000
0.4141 0.0000 0.0000
0.4563 0.0000 0.0000
0.4915 0.0000 0.0000
0.5315 0.0000 0.0000
0.5679 0.0000 0.0000
0.6072 0.0000 0.0000
0.6452 0.0000 0.0000
0.6826 0.0000 0.0000
0.7169 0.0000 0.0000
0.7543 0.0000 0.0000
0.7794 0.0000 0.0000
0.7908 0.0000 0.0000
0.7909 0.0000 0.0000
0.7909 0.0000 0.0000
0.7909 0.0000 0.0000
0.0000 0.0739 0.0329
0.0000 0.0700 0.0336
0.0000 0.0667 0.0341
0.0039 0.0648 0.0344
0.0208 0.0609 0.0349
0.0302 0.0572 0.0352
0.0385 0.0535 0.0357
0.0512 0.0503 0.0363
0.0737 0.0492 0.0354
0.1018 0.0485 0.0334
0.1359 0.0475 0.0291
0.1783 0.0450 0.0168
0.2213 0.0361 0.0024
0.2646 0.0202 0.0015
0.3065 0.0000 0.0000
0.3392 0.0000 0.0000
0.3730 0.0000 0.0000
0.4118 0.0000 0.0000
0.4539 0.0000 0.0000
0.4902 0.0000 0.0000
0.5273 0.0000 0.0000
0.5666 0.0000 0.0000
0.6084 0.0000 0.0000
0.6500 0.0000 0.0000
0.6866 0.0000 0.0000
0.7223 0.0000 0.0000
0.7605 0.0000 0.0000
0.7845 0.0000 0.0000
0.7908 0.0000 0.0000
0.7908 0.0000 0.0000
0.7908 0.0000 0.0000
0.7908 0.0000 0.0000
0.0000 0.0874 0.0300
0.0000 0.0839 0.0308
0.0000 0.0812 0.0315
0.0000 0.0777 0.0322
0.0120 0.0730 0.0331
0.0263 0.0685 0.0337
0.0342 0.0616 0.0346
0.0470 0.0577 0.0354
0.0648 0.0570 0.0354
0.0927 0.0576 0.0336
0.1337 0.0579 0.0285
0.1737 0.0551 0.0164
0.2138 0.0505 0.0032
0.2603 0.0392 0.0026
0.3000 0.0171 0.0014
0.3365 0.0000 0.0000
0.3697 0.0000 0.0000
0.4085 0.0000 0.0000
0.4516 0.0000 0.0000
0.4880 0.0000 0.0000
0.5286 0.0000 0.0000
0.5656 0.0000 0.0000
0.6114 0.0000 0.0000
0.6534 0.0000 0.0000
0.6912 0.0000 0.0000
0.7281 0.0000 0.0000
0.7665 0.0000 0.0000
0.7880 0.0000 0.0000
0.7907 0.0000 0.0000
0.7907 0.0000 0.0000
0.7907 0.0000 0.0000
0.7907 0.0000 0.0000
0.0000 0.1051 0.0238
0.0000 0.1020 0.0252
0.0000 0.0999 0.0260
0.0000 0.0926 0.0284
0.0000 0.0840 0.0308
0.0209 0.0794 0.0317
0.0324 0.0725 0.0329
0.0435 0.0666 0.0342
0.0602 0.0655 0.0347
0.0885 0.0677 0.0329
0.1261 0.0692 0.0280
0.1675 0.0688 0.0132
0.2080 0.0660 0.0041
0.2521 0.0595 0.0038
0.2942 0.0465 0.0031
0.3313 0.0276 0.0021
0.3657 0.0000 0.0000
0.4076 0.0000 0.0000
0.4526 0.0000 0.0000
0.4899 0.0000 0.0000
0.5305 0.0000 0.0000
0.5741 0.0000 0.0000
0.6201 0.0000 0.0000
0.6605 0.0000 0.0000
0.7002 0.0000 0.0000
0.7379 0.0000 0.0000
0.7736 0.0000 0.0000
0.7903 0.0000 0.0000
0.7905 0.0000 0.0000
0.7905 0.0000 0.0000
0.7905 0.0000 0.0000
0.7905 0.0000 0.0000
0.0000 0.1273 0.0000
0.0000 0.1255 0.0000
0.0000 0.1198 0.0134
0.0000 0.1105 0.0210
0.0000 0.1019 0.0252
0.0000 0.0950 0.0276
0.0310 0.0883 0.0294
0.0434 0.0811 0.0315
0.0584 0.0756 0.0329
0.0860 0.0781 0.0315
0.1233 0.0818 0.0254
0.1627 0.0865 0.0052
0.2042 0.0863 0.0052
0.2490 0.0827 0.0051
0.2893 0.0782 0.0049
0.3259 0.0709 0.0045
0.3660 0.0623 0.0041
0.4106 0.0522 0.0036
0.4552 0.0458 0.0033
0.4958 0.0428 0.0032
0.5396 0.0469 0.0035
0.5831 0.0497 0.0037
0.6278 0.0533 0.0040
0.6699 0.0569 0.0042
0.7086 0.0618 0.0045
0.7473 0.0675 0.0049
0.7786 0.0689 0.0050
0.7890 0.0742 0.0054
0.7897 0.0798 0.0057
0.7896 0.0870 0.0061
0.7897 0.0843 0.0059
0.7896 0.0870 0.0061
0.0000 0.1494 0.0000
0.0000 0.1494 0.0000
0.0000 0.1403 0.0000
0.0000 0.1331 0.0000
0.0000 0.1235 0.0067
0.0000 0.1138 0.0186
0.0287 0.1053 0.0233
0.0453 0.0997 0.0260
0.0629 0.0916 0.0289
0.0850 0.0901 0.0287
0.1194 0.0965 0.0193
0.1608 0.1030 0.0061
0.2058 0.1078 0.0064
0.2478 0.1075 0.0065
0.2898 0.1073 0.0065
0.3298 0.1051 0.0064
0.3716 0.1023 0.0063
0.4181 0.1008 0.0063
0.4624 0.1017 0.0064
0.5048 0.1026 0.0066
0.5497 0.1093 0.0070
0.5923 0.1139 0.0073
0.6375 0.1183 0.0076
0.6804 0.1227 0.0079
0.7185 0.1270 0.0082
0.7548 0.1305 0.0085
0.7811 0.1319 0.0086
0.7885 0.1339 0.0087
0.7892 0.1369 0.0089
0.7891 0.1422 0.0092
0.7891 0.1430 0.0092
0.7891 0.1452 0.0093
0.0000 0.1715 0.0000
0.0000 0.1703 0.0000
0.0000 0.1634 0.0000
0.0000 0.1571 0.0000
0.0000 0.1465 0.0000
0.0000 0.1349 0.0000
0.0262 0.1245 0.0016
0.0470 0.1203 0.0080
0.0684 0.1139 0.0157
0.0884 0.1092 0.0172
0.1202 0.1130 0.0066
0.1604 0.1214 0.0071
0.2045 0.1290 0.0076
0.2526 0.1358 0.0081
0.2977 0.1386 0.0083
0.3395 0.1410 0.0085
0.3820 0.1427 0.0086
0.4275 0.1452 0.0089
0.4742 0.1493 0.0091
0.5184 0.1550 0.0095
0.5616 0.1593 0.0098
0.6057 0.1641 0.0102
0.6489 0.1688 0.0105
0.6891 0.1727 0.0107
0.7286 0.1761 0.0110
0.7653 0.1788 0.0112
0.7862 0.1804 0.0113
0.7878 0.1832 0.0115
0.7884 0.1887 0.0118
0.7885 0.1883 0.0117
0.7885 0.1900 0.0118
0.7884 0.1896 0.0118
0.0000 0.1955 0.0000
0.0000 0.1929 0.0000
0.0000 0.1874 0.0000
0.0000 0.1787 0.0000
0.0000 0.1712 0.0000
0.0000 0.1624 0.0000
0.0000 0.1550 0.0000
0.0480 0.1489 0.0029
0.0742 0.1455 0.0045
0.0990 0.1411 0.0060
0.1278 0.1374 0.0077
0.1624 0.1425 0.0083
0.2090 0.1555 0.0092
0.2596 0.1664 0.0098
0.3080 0.1771 0.0105
0.3511 0.1839 0.0110
0.3951 0.1865 0.0111
0.4427 0.1929 0.0116
0.4867 0.1989 0.0120
0.5310 0.2053 0.0124
0.5750 0.2080 0.0126
0.6194 0.2108 0.0128
0.6618 0.2129 0.0130
0.6998 0.2173 0.0133
0.7370 0.2184 0.0134
0.7727 0.2190 0.0135
0.7880 0.2206 0.0136
0.7879 0.2232 0.0137
0.7879 0.2264 0.0139
0.7879 0.2284 0.0140
0.7879 0.2289 0.0140
0.7878 0.2308 0.0141
0.0000 0.2191 0.0000
0.0000 0.2180 0.0000
0.0000 0.2120 0.0000
0.0000 0.2049 0.0000
0.0000 0.1980 0.0000
0.0000 0.1932 0.0000
0.0000 0.1889 0.0000
0.0450 0.1829 0.0027
0.0782 0.1810 0.0047
0.1122 0.1761 0.0068
0.1414 0.1747 0.0085
0.1737 0.1779 0.0104
0.2159 0.1845 0.0108
0.2677 0.1996 0.0117
0.3158 0.2138 0.0126
0.3629 0.2247 0.0133
0.4110 0.2348 0.0139
0.4575 0.2420 0.0144
0.5021 0.2469 0.0147
0.5453 0.2520 0.0150
0.5866 0.2549 0.0153
0.6342 0.2567 0.0154
0.6739 0.2575 0.0155
0.7107 0.2588 0.0156
0.7474 0.2577 0.0156
0.7787 0.2570 0.0156
0.7863 0.2595 0.0158
0.7867 0.2631 0.0160
0.7872 0.2657 0.0161
0.7872 0.2665 0.0162
0.7872 0.2680 0.0162
0.7871 0.2700 0.0164
0.0000 0.2469 0.0000
0.0000 0.2444 0.0000
0.0000 0.2418 0.0000
0.0000 0.2373 0.0000
0.0000 0.2339 0.0000
0.0000 0.2304 0.0000
0.0000 0.2267 0.0000
0.0293 0.2246 0.0018
0.0812 0.2208 0.0049
0.1223 0.2169 0.0074
0.1580 0.2194 0.0095
0.1910 0.2227 0.0115
0.2300 0.2274 0.0133
0.2758 0.2355 0.0138
0.3262 0.2510 0.0147
0.3751 0.2650 0.0156
0.4247 0.2773 0.0164
0.4746 0.2867 0.0169
0.5218 0.2938 0.0174
0.5609 0.2941 0.0175
0.6028 0.2995 0.0178
0.6466 0.3008 0.0179
0.6837 0.2980 0.0178
0.7213 0.2971 0.0178
0.7570 0.2949 0.0177
0.7826 0.2942 0.0177
0.7870 0.2944 0.0177
0.7857 0.2984 0.0180
0.7865 0.3001 0.0181
0.7865 0.3015 0.0181
0.7865 0.3012 0.0181
0.7865 0.3015 0.0181
0.0000 0.2732 0.0000
0.0000 0.2722 0.0000
0.0000 0.2712 0.0000
0.0000 0.2722 0.0000
0.0000 0.2743 0.0000
0.0000 0.2703 0.0000
0.0000 0.2653 0.0000
0.0000 0.2631 0.0000
0.0829 0.2621 0.0050
0.1303 0.2613 0.0079
0.1697 0.2657 0.0102
0.2059 0.2690 0.0124
0.2468 0.2762 0.0148
0.2959 0.2837 0.0166
0.3381 0.2900 0.0170
0.3863 0.3025 0.0178
0.4350 0.3143 0.0185
0.4846 0.3234 0.0191
0.5317 0.3291 0.0194
0.5724 0.3311 0.0196
0.6108 0.3377 0.0200
0.6560 0.3357 0.0200
0.6940 0.3323 0.0198
0.7290 0.3295 0.0197
0.7629 0.3269 0.0196
0.7831 0.3257 0.0195
0.7849 0.3252 0.0195
0.7854 0.3288 0.0197
0.7858 0.3279 0.0197
0.7858 0.3291 0.0197
0.7858 0.3290 0.0197
0.7858 0.3291 0.0197
0.0000 0.3024 0.0000
0.0000 0.3003 0.0000
0.0000 0.3014 0.0000
0.0000 0.3043 0.0000
0.0000 0.3050 0.0000
0.0000 0.3038 0.0000
0.0000 0.3010 0.0000
0.0000 0.2997 0.0000
0.0867 0.2997 0.0052
0.1398 0.3010 0.0084
0.1804 0.3093 0.0109
0.2260 0.3127 0.0136
0.2646 0.3209 0.0159
0.3130 0.3316 0.0188
0.3554 0.3349 0.0196
0.3958 0.3376 0.0198
0.4424 0.3478 0.0204
0.4923 0.3546 0.0209
0.5381 0.3609 0.0213
0.5816 0.3616 0.0214
0.6212 0.3652 0.0216
0.6630 0.3616 0.0214
0.7015 0.3593 0.0213
0.7365 0.3570 0.0212
0.7682 0.3545 0.0211
0.7838 0.3531 0.0211
0.7844 0.3533 0.0211
0.7854 0.3562 0.0212
0.7851 0.3580 0.0214
0.7849 0.3609 0.0215
0.7850 0.3590 0.0214
0.7851 0.3554 0.0212
0.0000 0.3281 0.0000
0.0000 0.3294 0.0000
0.0000 0.3312 0.0000
0.0000 0.3354 0.0000
0.0000 0.3389 0.0000
0.0000 0.3404 0.0000
0.0000 0.3379 0.0000
0.0000 0.3363 0.0000
0.0965 0.3355 0.0058
0.1481 0.3405 0.0089
0.1897 0.3483 0.0114
0.2388 0.3542 0.0143
0.2776 0.3658 0.0167
0.3254 0.3720 0.0195
0.3724 0.3789 0.0221
0.4128 0.3790 0.0222
0.4500 0.3811 0.0223
0.5003 0.3870 0.0227
0.5465 0.3913 0.0230
0.5858 0.3934 0.0232
0.6296 0.3934 0.0232
0.6740 0.3922 0.0232
0.7089 0.3901 0.0231
0.7448 0.3880 0.0230
0.7723 0.3856 0.0229
0.7831 0.3847 0.0229
0.7845 0.3849 0.0229
0.7847 0.3879 0.0230
0.7841 0.3900 0.0232
0.7841 0.3915 0.0233
0.7842 0.3867 0.0230
0.7843 0.3840 0.0228
0.0000 0.3560 0.0000
0.0000 0.3578 0.0000
0.0000 0.3590 0.0000
0.0000 0.3648 0.0000
0.0000 0.3690 0.0000
0.0000 0.3734 0.0000
0.0000 0.3749 0.0000
0.0000 0.3752 0.0000
0.0960 0.3777 0.0058
0.1543 0.3849 0.0093
0.2022 0.3902 0.0122
0.2490 0.3996 0.0150
0.2925 0.4100 0.0175
0.3391 0.4176 0.0203
0.3864 0.4212 0.0231
0.4282 0.4218 0.0247
0.4646 0.4234 0.0248
0.5073 0.4232 0.0248
0.5508 0.4261 0.0250
0.5926 0.4278 0.0252
0.6376 0.4281 0.0252
0.6788 0.4267 0.0252
0.7157 0.4262 0.0252
0.7486 0.4230 0.0250
0.7747 0.4190 0.0248
0.7828 0.4180 0.0248
0.7838 0.4174 0.0247
0.7828 0.4180 0.0248
0.7832 0.4192 0.0248
0.7833 0.4185 0.0248
0.7834 0.4149 0.0246
0.7836 0.4099 0.0243
0.0000 0.3858 0.0000
0.0000 0.3874 0.0000
0.0000 0.3908 0.0000
0.0000 0.3973 0.0000
0.0000 0.4052 0.0000
0.0000 0.4091 0.0000
0.0000 0.4122 0.0000
0.0000 0.4160 0.0000
0.0994 0.4218 0.0060
0.1631 0.4298 0.0098
0.2126 0.4374 0.0128
0.2589 0.4486 0.0156
0.3052 0.4572 0.0183
0.3514 0.4630 0.0211
0.3974 0.4667 0.0238
0.4385 0.4655 0.0262
0.4787 0.4641 0.0272
0.5201 0.4622 0.0271
0.5565 0.4592 0.0269
0.5982 0.4601 0.0270
0.6407 0.4585 0.0270
0.6801 0.4571 0.0269
0.7198 0.4547 0.0268
0.7535 0.4504 0.0266
0.7756 0.4496 0.0266
0.7823 0.4494 0.0266
0.7821 0.4503 0.0266
0.7824 0.4473 0.0265
0.7823 0.4460 0.0264
0.7823 0.4461 0.0264
0.7825 0.4408 0.0261
0.7839 0.4355 0.0258
0.0000 0.4153 0.0000
0.0000 0.4185 0.0000
0.0000 0.4233 0.0000
0.0000 0.4313 0.0000
0.0000 0.4386 0.0000
0.0000 0.4472 0.0000
0.0000 0.4515 0.0000
0.0000 0.4580 0.0000
0.1035 0.4639 0.0063
0.1703 0.4726 0.0103
0.2219 0.4835 0.0133
0.2661 0.4945 0.0160
0.3148 0.5006 0.0189
0.3649 0.5043 0.0219
0.4067 0.5063 0.0243
0.4482 0.5040 0.0268
0.4896 0.5039 0.0292
0.5315 0.4966 0.0291
0.5666 0.4931 0.0289
0.6017 0.4858 0.0285
0.6422 0.4858 0.0285
0.6838 0.4832 0.0284
0.7206 0.4813 0.0284
0.7529 0.4800 0.0283
0.7747 0.4803 0.0284
0.7805 0.4806 0.0284
0.7805 0.4779 0.0282
0.7814 0.4774 0.0282
0.7813 0.4749 0.0280
0.7815 0.4719 0.0279
0.7816 0.4675 0.0276
0.7846 0.4644 0.0274
0.0000 0.4447 0.0000
0.0000 0.4478 0.0000
0.0000 0.4536 0.0000
0.0000 0.4637 0.0000
0.0000 0.4744 0.0000
0.0000 0.4843 0.0000
0.0000 0.4922 0.0000
0.0000 0.5009 0.0000
0.1073 0.5089 0.0065
0.1758 0.5179 0.0106
0.2296 0.5276 0.0138
0.2755 0.5349 0.0165
0.3245 0.5404 0.0195
0.3740 0.5431 0.0224
0.4147 0.5451 0.0248
0.4553 0.5440 0.0272
0.4979 0.5414 0.0297
0.5400 0.5347 0.0313
0.5755 0.5288 0.0310
0.6100 0.5242 0.0307
0.6463 0.5196 0.0305
0.6861 0.5113 0.0301
0.7198 0.5104 0.0300
0.7527 0.5094 0.0300
0.7724 0.5093 0.0300
0.7794 0.5081 0.0299
0.7791 0.5080 0.0299
0.7802 0.5070 0.0299
0.7802 0.5045 0.0298
0.7803 0.5022 0.0296
0.7805 0.4983 0.0294
0.7869 0.4956 0.0292
0.0000 0.4771 0.0000
0.0000 0.4802 0.0000
0.0000 0.4880 0.0000
0.0000 0.5019 0.0000
0.0000 0.5168 0.0000
0.0000 0.5252 0.0000
0.0000 0.5355 0.0000
0.0000 0.5467 0.0000
0.1081 0.5556 0.0065
0.1793 0.5655 0.0108
0.2321 0.5724 0.0139
0.2799 0.5776 0.0168
0.3313 0.5819 0.0199
0.3794 0.5852 0.0227
0.4222 0.5859 0.0252
0.4614 0.5833 0.0276
0.5031 0.5806 0.0300
0.5464 0.5758 0.0326
0.5831 0.5682 0.0333
0.6163 0.5646 0.0331
0.6525 0.5592 0.0328
0.6877 0.5471 0.0321
0.7194 0.5475 0.0322
0.7495 0.5447 0.0320
0.7707 0.5407 0.0318
0.7779 0.5385 0.0317
0.7782 0.5383 0.0317
0.7778 0.5375 0.0316
0.7790 0.5341 0.0314
0.7792 0.5304 0.0312
0.7793 0.5247 0.0309
0.7877 0.5186 0.0305
0.0000 0.5099 0.0000
0.0000 0.5129 0.0000
0.0000 0.5217 0.0000
0.0000 0.5396 0.0000
0.0000 0.5569 0.0000
0.0000 0.5673 0.0000
0.0000 0.5785 0.0000
0.0000 0.5888 0.0000
0.1052 0.6000 0.0063
0.1803 0.6085 0.0109
0.2349 0.6149 0.0141
0.2850 0.6207 0.0171
0.3366 0.6237 0.0202
0.3857 0.6254 0.0231
0.4286 0.6229 0.0256
0.4673 0.6206 0.0279
0.5093 0.6171 0.0304
0.5517 0.6125 0.0329
0.5890 0.6069 0.0351
0.6248 0.6014 0.0352
0.6580 0.5939 0.0348
0.6903 0.5870 0.0345
0.7159 0.5787 0.0340
0.7436 0.5749 0.0338
0.7654 0.5720 0.0336
0.7754 0.5709 0.0336
0.7770 0.5695 0.0335
0.7781 0.5657 0.0333
0.7776 0.5642 0.0332
0.7778 0.5603 0.0330
0.7780 0.5550 0.0327
0.7880 0.5506 0.0324
0.0000 0.5443 0.0000
0.0000 0.5473 0.0000
0.0000 0.5562 0.0000
0.0000 0.5739 0.0000
0.0000 0.5947 0.0000
0.0000 0.6036 0.0000
0.0000 0.6192 0.0000
0.0000 0.6318 0.0000
0.1016 0.6429 0.0061
0.1816 0.6496 0.0109
0.2375 0.6559 0.0143
0.2859 0.6589 0.0172
0.3398 0.6597 0.0204
0.3877 0.6602 0.0232
0.4294 0.6601 0.0257
0.4716 0.6576 0.0282
0.5158 0.6536 0.0308
0.5577 0.6484 0.0332
0.5928 0.6438 0.0353
0.6252 0.6376 0.0372
0.6574 0.6294 0.0369
0.6892 0.6233 0.0366
0.7146 0.6174 0.0362
0.7386 0.6095 0.0358
0.7602 0.6039 0.0355
0.7725 0.6006 0.0353
0.7755 0.5972 0.0351
0.7754 0.5923 0.0348
0.7763 0.5917 0.0348
0.7763 0.5913 0.0348
0.7767 0.5845 0.0344
0.7895 0.5795 0.0341
0.0000 0.5765 0.0000
0.0000 0.5796 0.0000
0.0000 0.5922 0.0000
0.0000 0.6081 0.0000
0.0000 0.6305 0.0000
0.0000 0.6468 0.0000
0.0000 0.6588 0.0000
0.0000 0.6729 0.0000
0.0898 0.6797 0.0054
0.1767 0.6868 0.0107
0.2355 0.6926 0.0142
0.2877 0.6962 0.0173
0.3406 0.6978 0.0204
0.3882 0.6961 0.0232
0.4306 0.6944 0.0258
0.4741 0.6916 0.0283
0.5172 0.6895 0.0309
0.5570 0.6851 0.0332
0.5916 0.6809 0.0352
0.6267 0.6754 0.0373
0.6606 0.6653 0.0390
0.6876 0.6591 0.0386
0.7110 0.6518 0.0382
0.7323 0.6436 0.0378
0.7524 0.6352 0.0373
0.7672 0.6301 0.0370
0.7728 0.6254 0.0367
0.7743 0.6228 0.0366
0.7749 0.6189 0.0363
0.7750 0.6165 0.0362
0.7753 0.6117 0.0359
0.7881 0.6068 0.0357
0.0000 0.6089 0.0000
0.0000 0.6092 0.0000
0.0000 0.6206 0.0000
0.0000 0.6443 0.0000
0.0000 0.6669 0.0000
0.0000 0.6815 0.0000
0.0000 0.6960 0.0000
0.0000 0.7105 0.0000
0.0580 0.7169 0.0035
0.1685 0.7242 0.0102
0.2310 0.7289 0.0139
0.2818 0.7308 0.0169
0.3393 0.7320 0.0203
0.3854 0.7298 0.0231
0.4304 0.7285 0.0257
0.4734 0.7254 0.0283
0.5176 0.7236 0.0309
0.5557 0.7207 0.0331
0.5897 0.7152 0.0351
0.6240 0.7101 0.0371
0.6563 0.7046 0.0390
0.6809 0.6949 0.0404
0.7045 0.6883 0.0404
0.7258 0.6826 0.0400
0.7444 0.6728 0.0395
0.7596 0.6606 0.0388
0.7688 0.6558 0.0385
0.7725 0.6531 0.0383
0.7732 0.6516 0.0383
0.7734 0.6465 0.0380
0.7737 0.6404 0.0376
0.7865 0.6379 0.0375
0.0000 0.6465 0.0000
0.0000 0.6495 0.0000
0.0000 0.6612 0.0000
0.0000 0.6798 0.0000
0.0000 0.7006 0.0000
0.0000 0.7174 0.0000
0.0000 0.7296 0.0000
0.0000 0.7444 0.0000
0.0000 0.7527 0.0000
0.1517 0.7602 0.0092
0.2225 0.7616 0.0134
0.2784 0.7657 0.0167
0.3366 0.7650 0.0202
0.3821 0.7690 0.0229
0.4271 0.7687 0.0255
0.4727 0.7618 0.0282
0.5137 0.7589 0.0306
0.5480 0.7542 0.0327
0.5827 0.7498 0.0347
0.6152 0.7450 0.0366
0.6469 0.7397 0.0384
0.6728 0.7347 0.0399
0.6943 0.7266 0.0412
0.7144 0.7197 0.0422
0.7312 0.7099 0.0416
0.7502 0.6986 0.0410
0.7614 0.6880 0.0404
0.7670 0.6851 0.0402
0.7706 0.6814 0.0400
0.7720 0.6715 0.0394
0.7724 0.6640 0.0390
0.7857 0.6595 0.1150
0.0000 0.6791 0.0000
0.0000 0.6822 0.0000
0.0000 0.6928 0.0000
0.0000 0.7133 0.0000
0.0000 0.7301 0.0000
0.0000 0.7480 0.0000
0.0000 0.7610 0.0000
0.0000 0.7759 0.0000
0.0000 0.7828 0.0000
0.1364 0.7883 0.0082
0.2133 0.7919 0.0128
0.2747 0.7909 0.0165
0.3369 0.7920 0.0202
0.3826 0.7888 0.0229
0.4293 0.7889 0.0257
0.4720 0.7866 0.0282
0.5132 0.7825 0.0306
0.5452 0.7816 0.0325
0.5765 0.7775 0.0343
0.6081 0.7736 0.0362
0.6352 0.7699 0.0378
0.6589 0.7653 0.0391
0.6801 0.7619 0.0404
0.7018 0.7514 0.0416
0.7171 0.7444 0.0425
0.7382 0.7299 0.0428
0.7524 0.7236 0.0424
0.7614 0.7113 0.0417
0.7650 0.7045 0.0414
0.7678 0.7003 0.0411
0.7697 0.6927 0.1440
0.7819 0.6860 0.2120
0.0000 0.7125 0.0000
0.0000 0.7155 0.0000
0.0000 0.7260 0.0000
0.0000 0.7427 0.0000
