public/sampleLut/18.cube
TITLE "KORNEV - SLog 3 (WEDDING)"
LUT_3D_SIZE 5
DOMAIN_MIN 0.000000 0.000000 0.000000
DOMAIN_MAX 0.903226 0.903226 0.903226
0.0163 0.0385 0.0371
0.0619 0.0356 0.0362
0.3143 0.0000 0.0000
0.5542 0.0000 0.0000
0.7805 0.0000 0.0000
0.0000 0.1051 0.0238
0.0435 0.0666 0.0342
0.2942 0.0465 0.0031
0.5741 0.0000 0.0000
0.7905 0.0000 0.0000
0.0000 0.2732 0.0000
0.0000 0.2631 0.0000
0.3381 0.2900 0.0170
0.6560 0.3357 0.0200
0.7858 0.3279 0.0197
0.0000 0.4771 0.0000
0.0000 0.5467 0.0000
0.4222 0.5859 0.0252
0.6877 0.5471 0.0321
0.7790 0.5341 0.0314
0.0000 0.7125 0.0000
0.0000 0.7970 0.0000
0.4345 0.7925 0.0260
0.6468 0.7811 0.0384
0.7549 0.7333 0.0430
0.0000 0.0377 0.0515
0.0569 0.0367 0.0431
0.3347 0.0000 0.0000
0.6520 0.0000 0.0000
0.7908 0.0000 0.0000
0.0000 0.0753 0.0394
0.0464 0.0617 0.0436
0.3326 0.0000 0.0000
0.6916 0.0000 0.0000
0.7908 0.0000 0.0000
0.0000 0.2443 0.0000
0.0000 0.2695 0.0000
0.3163 0.2458 0.0144
0.6851 0.2133 0.0130
0.7878 0.2343 0.0143
0.0000 0.4701 0.0000
0.0000 0.5339 0.0000
0.3499 0.5680 0.0210
0.6916 0.5456 0.0320
0.7796 0.5270 0.0947
0.0000 0.7122 0.0000
0.0000 0.7874 0.0000
0.3929 0.7938 0.0235
0.6028 0.7787 0.0359
0.7303 0.7287 0.3246
0.0000 0.0400 0.1930
0.0915 0.0305 0.1902
0.3090 0.0000 0.2001
0.6984 0.0000 0.1463
0.7908 0.0000 0.1588
0.0000 0.0989 0.1747
0.0351 0.0619 0.2002
0.3179 0.0000 0.2257
0.7247 0.0000 0.1479
0.7908 0.0000 0.1645
0.0000 0.2365 0.1605
0.0000 0.2444 0.1933
0.3073 0.2807 0.2490
0.7110 0.1904 0.1866
0.7897 0.1547 0.1473
0.0000 0.4920 0.1790
0.0000 0.5424 0.2034
0.3000 0.6151 0.2342
0.6666 0.5900 0.1946
0.7786 0.5398 0.0318
0.0000 0.7850 0.1391
0.0000 0.8033 0.2151
0.3096 0.7988 0.2686
0.6189 0.7846 0.3429
0.7380 0.7407 0.4049
0.0000 0.0345 0.4171
0.0521 0.0312 0.4456
0.3309 0.0158 0.5300
0.6499 0.0000 0.5441
0.7901 0.0000 0.5134
0.0000 0.1265 0.4788
0.0000 0.0792 0.5046
0.3152 0.0230 0.6065
0.6652 0.0000 0.6146
0.7900 0.0000 0.5174
0.0000 0.3085 0.5269
0.0000 0.3239 0.6093
0.2639 0.3202 0.6654
0.6665 0.2997 0.6666
0.7850 0.2516 0.5297
0.0000 0.5118 0.5302
0.0000 0.5425 0.5663
0.3441 0.5912 0.6126
0.6539 0.6655 0.6571
0.7447 0.5791 0.5941
0.0000 0.7985 0.5663
0.0468 0.7991 0.5974
0.3847 0.7925 0.6206
0.6352 0.7860 0.6654
0.7514 0.7767 0.6882
0.0000 0.0526 0.6514
0.0000 0.0552 0.6853
0.3303 0.0367 0.8030
0.6719 0.0105 0.8055
0.7886 0.0009 0.7999
0.0000 0.1330 0.7471
0.0000 0.0623 0.7798
0.2915 0.0396 0.8025
0.6606 0.0114 0.8052
0.7882 0.0009 0.7994
0.0000 0.3737 0.7979
0.0000 0.3662 0.7979
0.2676 0.3401 0.8004
0.6115 0.3425 0.8023
0.7835 0.3539 0.7966
0.0000 0.5711 0.7924
0.0760 0.5889 0.7864
0.3326 0.5984 0.7814
0.5747 0.5898 0.7718
0.7679 0.6149 0.7660
0.0000 0.7973 0.7443
0.2365 0.7939 0.7481
0.4293 0.7899 0.7489
0.6552 0.7845 0.7521
0.7655 0.7824 0.7480
