public/sampleLut/19.cube
TITLE "Generated by Resolve"
LUT_3D_SIZE 33
0 0 0
0 0 0
0 0 0
0 0 0
0 0 0
0.0190127 0 0
0.0749523 0 0
0.121645 0 0
0.168521 0 0
0.22475 0 0
0.285542 0 0
0.349615 0 0
0.416358 0 0
0.485344 0 0
0.556283 0 0
0.628992 0 0
0.703273 0 0
0.779004 0 0
0.856046 0 0
0.93434 0 0
1 0 0
1 0 0
1 0 0
1 0 0
1 0 0
1 0 0
1 0 0
1 0 0
1 0 0
1 0 0
1 0 0
1 0 0
1 0 0
0 0 0
0 0 0
0 0 0
0 0 0
0 0 0
0 0 0
0.0470283 0 0
0.093492 0 0
0.140017 0 0
0.195865 0 0
0.256229 0 0
0.31989 0 0
0.386206 0 0
0.45478 0 0
0.525307 0 0
0.597589 0 0
0.671443 0 0
0.746731 0 0
0.823331 0 0
0.901152 0 0
0.980087 0 0
1 0 0
1 0 0
1 0 0
1 0 0
1 0 0
1 0 0
1 0 0
1 0 0
1 0 0
1 0 0
1 0 0
1 0 0
0 0 0
0 0 0
0 0 0
0 0 0
0 0 0
0 0 0
0.0198978 0 0
0.0663767 0 0
0.112581 0 0
0.168002 0 0
0.227924 0 0
0.291127 0 0
0.356985 0 0
0.425086 0 0
0.49514 0 0
0.566934 0 0
0.640284 0 0
0.715068 0 0
0.791119 0 0
0.868376 0 0
0.9467 0 0
1 0 0
1 0 0
1 0 0
1 0 0
1 0 0
1 0 0
1 0 0
1 0 0
1 0 0
1 0 0
1 0 0
1 0 0
0 0 0
0 0 0
0 0 0
0 0 0
0 0 0
0 0 0
0 0 0
0.0403906 0 0
0.0863355 0 0
0.141314 0 0
0.200732 0 0
0.263432 0 0
0.328756 0 0
0.396323 0 0
0.465827 0 0
0.537041 0 0
0.609796 0 0
0.683909 0 0
0.759274 0 0
0.835752 0 0
0.913191 0 0
0.991455 0 0
1 0 0
1 0 0
1 0 0
1 0 0
1 0 0
1 0 0
1 0 0
1 0 0
1 0 0
1 0 0
1 0 0
0 0 0
0 0 0
0 0 0
0 0 0
0 0 0
0 0 0
0 0 0
0.0155032 0 0
0.0614786 0 0
0.115999 0 0
0.174868 0 0
0.236973 0 0
0.301671 0 0
0.368582 0 0
0.437385 0 0
0.507851 0 0
0.579751 0 0
0.652918 0 0
0.727123 0 0
0.802014 0 0
0.877043 0 0
0.954406 0 0
1 0 0
1 0 0
1 0 0
1 0 0
1 0 0
1 0 0
1 0 0
1 0 0
1 0 0
1 0 0
1 0 0
0 0.00880446 0
0 0 0
0 0 0
0 0 0
0 0 0
0 0 0
0 0 0
0 0 0
0.0383154 0 0
0.0924086 0 0
0.150607 0 0
0.211948 0 0
0.275837 0 0
0.341833 0 0
0.409583 0 0
0.478752 0 0
0.54873 0 0
0.619821 0 0
0.693523 0 0
0.76907 0 0
0.84622 0 0
0.924834 0 0
1 0 0
1 0 0
1 0 0
1 0 0
1 0 0
1 0 0
1 0 0
1 0 0
1 0 0
1 0 0
1 0 0
0 0.045655 0
0 0.0356603 0
0 0.0260166 0
0 0.0168765 0
0 0.00833143 0
0 0 0
0 0 0
0 0 0
0.0174411 0 0
0.0711681 0 0
0.128435 0 0
0.188632 0 0
0.251041 0 0
0.31458 0 0
0.380987 0 0
0.450019 0 0
0.521172 0 0
0.594217 0 0
0.668956 0 0
0.745251 0 0
0.822995 0 0
0.902113 0 0
0.982498 0 0
1 0 0
1 0 0
1 0 0
1 0 0
1 0 0
1 0 0
1 0 0
1 0 0
1 0 0
1 0 0
0 0.0803693 0
0 0.0698253 0
0 0.0595407 0
0 0.0495613 0
0 0.0400092 0
0 0.0310063 0
0 0.0229496 0
0 0.0171969 0
0.0018616 0.0104372 0
0.0551614 0.000427253 0
0.110018 0 0
0.169329 0 0
0.231968 0 0
0.297353 0 0
0.365133 0 0
0.43505 0 0
0.506889 0 0
0.580468 0 0
0.65568 0 0
0.732387 0 0
0.810498 0 0
0.889952 0 0
0.970642 0 0
1 0 0
1 0 0
1 0 0
1 0 0
1 0 0
1 0 0
1 0 0
1 0 0
1 0 0
1 0 0
0 0.114488 0
0 0.10338 0
0 0.0924544 0
0 0.0817578 0
0 0.0713207 0
0 0.0612192 0
0 0.0513924 0
0 0.0441596 0
0 0.0373999 0
0.0376287 0.0272984 0
0.0949111 0.017319 0
0.155352 0.00729381 0
0.218524 0 0
0.284291 0 0
0.352468 0 0
0.422721 0 0
0.494865 0 0
0.568734 0 0
0.644221 0 0
0.721172 0 0
0.799542 0 0
0.87921 0 0
0.960113 0 0
1 0 0
1 0 0
1 0 0
1 0 0
1 0 0
1 0 0
1 0 0
1 0 0
1 0 0
1 0 0
0 0.150362 0
0 0.138384 0
0 0.126268 0
0 0.113558 0
0 0.102235 0
0 0.0922408 0
0 0.0836957 0
0 0.0779431 0
0 0.0723888 0
0.0154421 0.0631418 0
0.0740826 0.0531472 0
0.135195 0.0431525 0
0.199069 0.0330053 0
0.2654 0.0227359 0
0.333928 0.0123751 0
0.404379 0.00202945 0
0.476509 0 0
0.550271 0 0
0.625772 0 0
0.702785 0 0
0.781231 0 0
0.86099 0 0
0.941985 0 0
1 0 0
1 0 0
1 0 0
1 0 0
1 0 0
1 0 0
1 0 0
1 0 0
1 0 0
1 0 0
0 0.183612 0
0 0.171145 0
0 0.159533 0
0 0.148684 0
0 0.138613 0
0 0.129473 0
0 0.121599 0
0 0.116396 0
0 0.11136 0
0 0.103304 0
0.0507973 0.0929427 0
0.112322 0.0829786 0
0.176471 0.0728771 0
0.243091 0.062623 0
0.31191 0.0522316 0
0.382712 0.0417182 0
0.455314 0.0311131 0
0.529564 0.0204623 0
0.60531 0.00979629 0
0.682445 0 0
0.7608 0 0
0.840284 0 0
0.921202 0 0
1 0 0
1 0 0
1 0 0
1 0 0
1 0 0
1 0 0
1 0 0
1 0 0
1 0 0
1 0 0
0 0.220661 0
0 0.209293 0
0 0.198474 0
0 0.188266 0
0 0.178744 0
0 0.170077 0
0 0.162631 0
0 0.157809 0
0 0.153033 0
0 0.145663 0
0.0255589 0.135668 0
0.0877089 0.125551 0
0.152041 0.11548 0
0.218799 0.105257 0
0.287755 0.0948959 0
0.358724 0.0843977 0
0.431525 0.0737774 0
0.505974 0.0630655 0
0.581964 0.0522927 0
0.659388 0.0414435 0
0.73814 0.0305638 0
0.818128 0.0196689 0
0.89929 0.0087892 0
0.981537 0 0
1 0 0
1 0 0
1 0 0
1 0 0
1 0 0
1 0 0
1 0 0
1 0 0
1 0 0
0 0.26157 0
0 0.250721 0
0 0.24036 0
0 0.230564 0
0 0.221424 0
0 0.213107 0
0 0.205982 0
0 0.201495 0
0 0.197009 0
0 0.189944 0
0 0.181064 0
0.061738 0.170352 0
0.126238 0.160235 0
0.193057 0.150027 0
0.262089 0.139696 0
0.333135 0.129213 0
0.406027 0.118624 0
0.480598 0.107927 0
0.556725 0.0971237 0
0.634287 0.0862593 0
0.713207 0.0753185 0
0.793393 0.0643168 0
0.874769 0.0532845 0
0.957275 0.0422217 0
1 0.0311437 0
1 0.0200656 0
1 0.00901808 0
1 0 0
1 0 0
1 0 0
1 0 0
1 0 0
1 0 0
0 0.304936 0
0 0.294453 0
0 0.284428 0
0 0.274952 0
0 0.266102 0
0 0.258076 0
0 0.25124 0
0 0.247013 0
0 0.242786 0
0 0.235859 0
0 0.227665 0
0.0345159 0.21709 0
0.0993515 0.206806 0
0.166201 0.196582 0
0.235233 0.186252 0
0.30631 0.175814 0
0.379232 0.16524 0
0.453864 0.154559 0
0.530068 0.143786 0
0.607721 0.132921 0
0.686748 0.121965 0
0.76704 0.110948 0
0.848539 0.0998856 0
0.931197 0.0887617 0
1 0.0775921 0
1 0.0664073 0
1 0.0551766 0
1 0.0439612 0
1 0.0327306 0
1 0.0215152 0
1 0.0103304 0
1 0 0
1 0 0
0 0.350225 0
0 0.340032 0
0 0.330297 0
0 0.321065 0
0 0.312474 0
0 0.304692 0
0 0.2981 0
0 0.294118 0
0 0.29012 0
0 0.283391 0
0 0.275502 0
0.00482185 0.265934 0
0.071519 0.254978 0
0.138399 0.244694 0
0.207416 0.234348 0
0.278477 0.223926 0
0.3514 0.213367 0
0.426032 0.202716 0
0.502266 0.191959 0
0.57998 0.181109 0
0.659052 0.170169 0
0.739422 0.159167 0
0.821012 0.148089 0
0.903746 0.13695 0
0.987564 0.125765 0
1 0.114519 0
1 0.103258 0
1 0.0919509 0
1 0.0806287 0
1 0.069276 0
1 0.0579232 0
1 0.0465705 0
1 0.0352178 0
0 0.397131 0
0 0.387182 0
0 0.377661 0
0 0.368673 0
0 0.360311 0
0 0.352743 0
0 0.346349 0
0 0.34258 0
0 0.338796 0
0 0.33228 0
0 0.324468 0
0 0.315694 0
0.042771 0.304662 0
0.109834 0.294194 0
0.17879 0.283818 0
0.249775 0.273381 0
0.322667 0.262837 0
0.397284 0.252201 0
0.473518 0.241459 0
0.551232 0.230625 0
0.630335 0.219715 0
0.71075 0.208713 0
0.792386 0.19765 0
0.875181 0.186511 0
0.959075 0.175326 0
1 0.16408 0
1 0.152789 0
1 0.141466 0
1 0.130098 0
1 0.1187 0
1 0.107271 0
1 0.0958419 0
1 0.0843824 0
0 0.445426 0
0 0.435691 0
0 0.426383 0
0 0.417578 0
0 0.409415 0
0 0.402045 0
0 0.39585 0
0 0.392279 0
0 0.388693 0
0 0.382376 0
0 0.374731 0
0 0.366262 0
0.0122225 0.355993 0
0.0805371 0.344991 0
0.149462 0.334524 0
0.220356 0.324056 0
0.293172 0.313512 0
0.367742 0.302892 0
0.443946 0.292165 0
0.521645 0.281346 0
0.600748 0.270451 0
0.681163 0.259464 0
0.762829 0.248417 0
0.845655 0.237293 0
0.929595 0.226108 0
1 0.214862 0
1 0.203571 0
1 0.192233 0
1 0.180865 0
1 0.169436 0
1 0.157992 0
1 0.146517 0
1 0.135012 0
0 0.494957 0
0 0.485405 0
0 0.47628 0
0 0.467674 0
0 0.459678 0
0 0.452506 0
0 0.446479 0
0 0.443091 0
0 0.439689 0
0 0.433555 0
0 0.426093 0
0 0.417685 0
0 0.408408 0
0.0505379 0.397009 0
0.119509 0.386374 0
0.190311 0.37586 0
0.26302 0.365301 0
0.337514 0.354665 0
0.413657 0.343954 0
0.49131 0.33315 0
0.570397 0.322271 0
0.650813 0.311299 0
0.732464 0.300267 0
0.815305 0.289158 0
0.899275 0.277989 0
0.984298 0.266758 0
1 0.255467 0
1 0.244129 0
1 0.232746 0
1 0.221332 0
1 0.209873 0
1 0.198367 0
1 0.186847 0
0 0.545602 0
0 0.536233 0
0 0.527276 0
0 0.518837 0
0 0.511009 0
0 0.50399 0
0 0.498146 0
0 0.494926 0
0 0.491676 0
0 0.48571 0
0 0.478431 0
0 0.470176 0
0 0.461265 0
0.0193942 0.450355 0
0.0890059 0.439323 0
0.159716 0.428702 0
0.232288 0.418112 0
0.306676 0.407477 0
0.382727 0.39675 0
0.460334 0.385962 0
0.539361 0.375082 0
0.619745 0.364141 0
0.701396 0.353109 0
0.784222 0.342016 0
0.868193 0.330861 0
0.953231 0.319631 0
1 0.30837 0
1 0.297032 0
1 0.285664 0
1 0.274235 0
1 0.262776 0
1 0.251286 0
1 0.23975 0
0 0.597269 0
0 0.588052 0
0 0.579263 0
0 0.570977 0
0 0.563302 0
0 0.556451 0
0 0.550759 0
0 0.547692 0
0 0.54461 0
0 0.538796 0
0 0.531685 0
0 0.523598 0
0 0.514733 0
0 0.505028 0
0.0579385 0.493324 0
0.128618 0.482551 0
0.201053 0.471885 0
0.275303 0.461219 0
0.351247 0.450492 0
0.428763 0.439704 0
0.507729 0.428824 0
0.588067 0.417884 0
0.669673 0.406882 0
0.752483 0.395789 0
0.836439 0.384649 0
0.921477 0.373449 0
1 0.362173 0
1 0.350866 0
1 0.339498 0
1 0.328084 0
1 0.316625 0
1 0.305119 0
1 0.293599 0
0 0.649882 0
0 0.640818 0
0 0.632166 0
0 0.624033 0
0 0.61651 0
0 0.609781 0
0 0.604242 0
0 0.601328 0
0 0.598398 0
0 0.592737 0
0 0.585779 0
0 0.577859 0
0 0.569131 0
0 0.559838 0
0.0260166 0.548455 0
0.0970626 0.537331 0
0.16936 0.526574 0
0.243442 0.515862 0
0.319249 0.505104 0
0.396658 0.494316 0
0.475547 0.483436 0
0.55581 0.472511 0
0.637369 0.461494 0
0.72015 0.450431 0
0.804089 0.439292 0
0.889113 0.428107 0
0.975174 0.416846 0
1 0.405539 0
1 0.394186 0
1 0.382788 0
1 0.371328 0
1 0.359838 0
1 0.348318 0
0 0.703365 0
0 0.694438 0
0 0.685924 0
0 0.677928 0
0 0.670542 0
0 0.663966 0
0 0.658564 0
0 0.655772 0
0 0.652979 0
0 0.647471 0
0 0.640665 0
0 0.632898 0
0 0.624338 0
0 0.615106 0
0 0.604974 0
0.0650339 0.593057 0
0.13724 0.582132 0
0.21117 0.571344 0
0.286824 0.560571 0
0.364096 0.549752 0
0.442878 0.538872 0
0.523064 0.527932 0
0.604547 0.51693 0
0.687282 0.505867 0
0.77116 0.494743 0
0.856153 0.483558 0
0.942199 0.472328 0
1 0.461036 0
1 0.449683 0
1 0.438285 0
1 0.426856 0
1 0.415366 0
1 0.403845 0
0 0.757671 0
0 0.748867 0
0 0.74049 0
0 0.732616 0
0 0.725368 0
0 0.718914 0
0 0.713649 0
0 0.710994 0
0 0.708339 0
0 0.702968 0
0 0.6963 0
0 0.688685 0
0 0.680262 0
0 0.671153 0
0 0.661524 0
0.0323644 0.64976 0
0.104753 0.638529 0
0.1785 0.627649 0
0.253986 0.616815 0
0.331106 0.605966 0
0.409766 0.595071 0
0.489845 0.584131 0
0.571252 0.573144 0
0.65391 0.562081 0
0.737743 0.550958 0
0.82269 0.539788 0
0.908705 0.528557 0
0.995727 0.517266 0
1 0.505928 0
1 0.494545 0
1 0.483116 0
1 0.471641 0
1 0.460136 0
0 0.812757 0
0 0.804074 0
0 0.795819 0
0 0.788067 0
0 0.780941 0
0 0.774609 0
0 0.769467 0
0 0.766949 0
0 0.764401 0
0 0.759167 0
0 0.752636 0
0 0.745159 0
0 0.736904 0
0 0.727932 0
0 0.718395 0
0 0.707851 0
0.0718853 0.695781 0
0.145495 0.684718 0
0.220783 0.673823 0
0.297734 0.662928 0
0.376242 0.652018 0
0.456199 0.641077 0
0.537499 0.630076 0
0.620081 0.619013 0
0.703853 0.607904 0
0.788739 0.596735 0
0.874708 0.585504 0
0.9617 0.574228 0
1 0.562905 0
1 0.551522 0
1 0.540108 0
1 0.528634 0
1 0.517128 0
0 0.868559 0
0 0.859998 0
0 0.85185 0
0 0.844221 0
0 0.837217 0
0 0.831006 0
0 0.825986 0
0 0.823575 0
0 0.821164 0
0 0.816037 0
0 0.809644 0
0 0.802289 0
0 0.794186 0
0 0.785367 0
0 0.775937 0
0 0.765988 0
0.0384985 0.753902 0
0.112169 0.742565 0
0.187243 0.731563 0
0.263996 0.720623 0
0.342351 0.709682 0
0.422156 0.698711 0
0.503349 0.687694 0
0.58584 0.676631 0
0.66952 0.665522 0
0.754345 0.654353 0
0.840269 0.643137 0
0.927214 0.631861 0
1 0.620554 0
1 0.609186 0
1 0.597772 0
1 0.586313 0
1 0.574807 0
0 0.925048 0
0 0.916594 0
0 0.908568 0
0 0.901061 0
0 0.894148 0
0 0.88806 0
0 0.883146 0
0 0.880858 0
0 0.878553 0
0 0.873564 0
0 0.867277 0
0 0.860059 0
0 0.852094 0
0 0.843427 0
0 0.834134 0
0 0.824338 0
0.00311284 0.813321 0
0.0785229 0.801175 0
0.153429 0.790005 0
0.229969 0.778988 0
0.308125 0.768002 0
0.387778 0.757015 0
0.468833 0.745983 0
0.551202 0.73492 0
0.634806 0.723796 0
0.719554 0.712627 0
0.805402 0.701411 0
0.892287 0.69015 0
0.980163 0.678843 0
1 0.667475 0
1 0.656077 0
1 0.644633 0
1 0.633143 0
0 0.982193 0
0 0.973846 0
0 0.965927 0
0 0.958526 0
0 0.951736 0
0 0.945754 0
0 0.940948 0
0 0.938766 0
0 0.936584 0
0 0.931685 0
0 0.925521 0
0 0.918441 0
0 0.910597 0
0 0.902068 0
0 0.892927 0
0 0.883192 0
0 0.872938 0
0.0444495 0.860594 0
0.119326 0.849165 0
0.195651 0.838041 0
0.273594 0.826993 0
0.353079 0.815961 0
0.433982 0.804913 0
0.516228 0.793835 0
0.59971 0.782712 0
0.684367 0.771542 0
0.770138 0.760327 0
0.856962 0.749065 0
0.944793 0.737758 0
1 0.726406 0
1 0.715007 0
1 0.703563 0
1 0.692088 0
0 1 0
0 1 0
0 1 0
0 1 0
0 1 0
0 1 0
0 0.999344 0
0 0.997269 0
0 0.995193 0
