public/sampleLut/19.cube
TITLE "Generated by Resolve"
LUT_3D_SIZE 5
0 0 0
0.168521 0 0
0.703273 0 0
1 0 0
1 0 0
0 0.114488 0
0 0.0373999 0
0.494865 0 0
1 0 0
1 0 0
0 0.445426 0
0 0.388693 0
0.293172 0.313512 0
0.929595 0.226108 0
1 0.135012 0
0 0.868559 0
0 0.821164 0
0.0384985 0.753902 0
0.66952 0.665522 0
1 0.574807 0
0 1 0
0 1 0
0 1 0
0.382818 1 0
1 1 0
0 0 0.283619
0.160784 0 0.219409
0.693355 0 0.146212
1 0 0.0542306
1 0 0
0 0.102327 0.125505
0 0.0250095 0.0480964
0.48101 0 0
1 0 0
1 0 0
0 0.433448 0
0 0.377539 0
0.282338 0.302815 0
0.918425 0.215549 0
1 0.124651 0
0 0.857298 0
0 0.810391 0
0.0286717 0.74377 0
0.65948 0.655238 0
1 0.564599 0
0 1 0
0 1 0
0 1 0
0.37351 1 0
1 1 0
0 0 0.81445
0.14374 0 0.747005
0.674296 0 0.668498
1 0 0.567422
1 0 0.450004
0 0.0812085 0.637888
0 0.00968948 0.556512
0.465049 0 0.468833
1 0 0.373419
1 0 0.275669
0 0.421592 0.414145
0 0.367163 0.358099
0.272618 0.293446 0.283299
0.908583 0.206729 0.196689
1 0.116152 0.106844
0 0.8477 0.158984
0 0.801175 0.113741
0.0196384 0.735073 0.051606
0.649134 0.644816 0
1 0.553445 0
0 1 0
0 1 0
0 1 0
0.36228 1 0
1 1 0
0 0 1
0.116121 0 1
0.643778 0 1
1 0 1
1 0 1
0 0.0486152 1
0 0 1
0.436866 0 1
1 0 1
1 0 0.904356
0 0.397116 1
0 0.344198 0.989288
0.250126 0.271763 0.91223
0.886137 0.186145 0.821347
1 0.0971084 0.725673
0 0.8271 0.778607
0 0.781781 0.730602
0.00138857 0.718013 0.66479
0.632914 0.628824 0.574823
1 0.538827 0.484718
0 1 0.48867
0 1 0.44741
0 1 0.390585
0.34995 1 0.303456
1 1 0.216846
0 0 1
0.0821393 0 1
0.60618 0 1
1 0 1
1 0 1
0 0.0151675 1
0 0 1
0.402792 0 1
1 0 1
1 0 1
0 0.366445 1
0 0.314885 1
0.220859 0.243595 1
0.856336 0.158709 1
1 0.0708019 1
0 0.798917 1
0 0.754513 1
0 0.692164 1
0.606806 0.603113 1
1 0.513787 1
0 1 1
0 1 1
0 1 1
0.327459 1 0.988434
1 0.999695 0.897292
