public/sampleLut/19.cube
TITLE "Generated by Resolve"
LUT_3D_SIZE 9
0 0 0
0 0 0
0.168521 0 0
0.416358 0 0
0.703273 0 0
1 0 0
1 0 0
1 0 0
1 0 0
0 0 0
0 0 0
0.0614786 0 0
0.301671 0 0
0.579751 0 0
0.877043 0 0
1 0 0
1 0 0
1 0 0
0 0.114488 0
0 0.0713207 0
0 0.0373999 0
0.218524 0 0
0.494865 0 0
0.799542 0 0
1 0 0
1 0 0
1 0 0
0 0.26157 0
0 0.221424 0
0 0.197009 0
0.126238 0.160235 0
0.406027 0.118624 0
0.713207 0.0753185 0
1 0.0311437 0
1 0 0
1 0 0
0 0.445426 0
0 0.409415 0
0 0.388693 0
0.0122225 0.355993 0
0.293172 0.313512 0
0.600748 0.270451 0
0.929595 0.226108 0
1 0.180865 0
1 0.135012 0
0 0.649882 0
0 0.61651 0
0 0.598398 0
0 0.569131 0
0.16936 0.526574 0
0.475547 0.483436 0
0.804089 0.439292 0
1 0.394186 0
1 0.348318 0
0 0.868559 0
0 0.837217 0
0 0.821164 0
0 0.794186 0
0.0384985 0.753902 0
0.342351 0.709682 0
0.66952 0.665522 0
1 0.620554 0
1 0.574807 0
0 1 0
0 1 0
0 1 0
0 1 0
0 0.992737 0
0.203754 0.946868 0
0.528527 0.902327 0
0.872908 0.857359 0
1 0.811719 0
0 1 0
0 1 0
0 1 0
0 1 0
0 1 0
0.0614786 1 0
0.382818 1 0
0.725231 1 0
1 1 0
0 0 0.0857099
0 0 0.0499123
0.163088 0 0.0248722
0.409903 0 0
0.695552 0 0
1 0 0
1 0 0
1 0 0
1 0 0
0 0 0
0 0 0
0.0529335 0 0
0.291966 0 0
0.568276 0 0
0.864027 0 0
1 0 0
1 0 0
1 0 0
0 0.105531 0
0 0.0607919 0
0 0.0279393 0
0.207813 0 0
0.484733 0 0
0.789654 0 0
1 0 0
1 0 0
1 0 0
0 0.252079 0
0 0.212467 0
0 0.188479 0
0.117525 0.152026 0
0.397162 0.110521 0
0.704234 0.0673533 0
1 0.0233921 0
1 0 0
1 0 0
0 0.436683 0
0 0.400916 0
0 0.380453 0
0.0034638 0.348348 0
0.285008 0.305547 0
0.592432 0.262516 0
0.921187 0.218235 0
1 0.173053 0
1 0.127275 0
0 0.641428 0
0 0.608225 0
0 0.590295 0
0 0.561212 0
0.161639 0.518746 0
0.467643 0.475593 0
0.796063 0.431479 0
1 0.386389 0
1 0.340551 0
0 0.860258 0
0 0.829053 0
0 0.813138 0
0 0.786313 0
0.0309758 0.746288 0
0.334752 0.701915 0
0.661784 0.657755 0
1 0.612802 0
1 0.567086 0
0 1 0
0 1 0
0 1 0
0 1 0
0 0.985031 0
0.196445 0.939193 0
0.521019 0.894636 0
0.865293 0.849653 0
1 0.804028 0
0 1 0
0 1 0
0 1 0
0 1 0
0 1 0
0.0543679 1 0
0.375525 1 0
0.7178 1 0
1 1 0
0 0 0.283619
0 0 0.245899
0.160784 0 0.219409
0.407599 0 0.186618
0.693355 0 0.146212
1 0 0.101717
1 0 0.0542306
1 0 0.00408942
1 0 0
0 0 0.186084
0 0 0.146624
0.0504768 0 0.117922
0.288609 0 0.0800336
0.562844 0 0.0337835
0.858534 0 0
1 0 0
1 0 0
1 0 0
0 0.102327 0.125505
0 0.0551614 0.0789654
0 0.0250095 0.0480964
0.204196 0 0.00773632
0.48101 0 0
0.785946 0 0
1 0 0
1 0 0
1 0 0
0 0.248753 0.0279088
0 0.209232 0
0 0.185504 0
0.114549 0.149203 0
0.39411 0.107713 0
0.701106 0.0646067 0
1 0.0207218 0
1 0 0
1 0 0
0 0.433448 0
0 0.397818 0
0 0.377539 0
0.00077821 0.345663 0
0.282338 0.302815 0
0.5897 0.2598 0
0.918425 0.215549 0
1 0.170382 0
1 0.124651 0
0 0.638346 0
0 0.605234 0
0 0.587457 0
0 0.558495 0
0.159213 0.516106 0
0.465171 0.472969 0
0.793545 0.42887 0
1 0.38381 0
1 0.337987 0
0 0.857298 0
0 0.826185 0
0 0.810391 0
0 0.783658 0
0.0286717 0.74377 0
0.332479 0.699367 0
0.65948 0.655238 0
1 0.6103 0
1 0.564599 0
0 1 0
0 1 0
0 1 0
0 1 0
0 0.982528 0
0.194308 0.936736 0
0.518868 0.89218 0
0.863127 0.847242 0
1 0.801633 0
0 1 0
0 1 0
0 1 0
0 1 0
0 1 0
0.052369 1 0
0.37351 1 0
0.71577 1 0
1 1 0
0 0 0.527398
0 0 0.488655
0.154162 0 0.461372
0.400534 0 0.427314
0.685878 0 0.385183
0.994492 0 0.33843
1 0 0.287877
1 0 0.232868
1 0 0.174273
0 0 0.425299
0 0 0.384222
0.042771 0 0.354269
0.280003 0 0.313848
0.551385 0 0.262531
0.850736 0 0.210483
1 0 0.15996
1 0 0.110109
1 0 0.0609598
0 0.0940108 0.359335
0 0.0468605 0.309697
0 0.0190585 0.278401
0.197635 0 0.236316
0.475639 0 0.191669
0.781292 0 0.145754
1 0 0.0993057
1 0 0.0528725
1 0 0.00700389
0 0.243397 0.25359
0 0.204898 0.215167
0 0.181781 0.191165
0.110964 0.146014 0.15491
0.390616 0.104784 0.113603
0.697581 0.0618753 0.0707561
1 0.0180667 0.0269474
1 0 0
1 0 0
0 0.429999 0.140322
0 0.394614 0.106691
0 0.374548 0.0865949
0 0.342901 0.0562905
0.279042 0.299611 0.0159152
0.585657 0.256001 0
0.913954 0.211444 0
1 0.16611 0
1 0.120241 0
0 0.634226 0.0263981
0 0.600946 0
0 0.583215 0
0 0.554253 0
0.155077 0.511788 0
0.460731 0.468498 0
0.788891 0.424292 0
1 0.379156 0
1 0.333272 0
0 0.85243 0
0 0.821332 0
0 0.805631 0
0 0.778973 0
0.0241855 0.739239 0
0.327947 0.694636 0
0.65478 0.650446 0
1 0.605463 0
1 0.559731 0
0 1 0
0 1 0
0 1 0
0 1 0
0 0.977676 0
0.189807 0.931884 0
0.514199 0.887282 0
0.85832 0.842298 0
1 0.796658 0
0 1 0
0 1 0
0 1 0
0 1 0
0 1 0
0.0478981 1 0
0.368887 1 0
0.711025 1 0
1 1 0
0 0 0.81445
0 0 0.774899
0.14374 0 0.747005
0.389532 0 0.711925
0.674296 0 0.668498
0.982238 0 0.620111
1 0 0.567422
1 0 0.508293
1 0 0.450004
0 0 0.708782
0 0 0.66659
0.0307317 0 0.635782
0.266773 0 0.593179
0.537118 0 0.539681
0.838346 0 0.487572
1 0 0.43592
1 0 0.384405
1 0 0.332998
0 0.0812085 0.637888
0 0.0356451 0.587686
0 0.00968948 0.556512
0.186542 0 0.514382
0.465049 0 0.468833
0.771206 0 0.421607
1 0 0.373419
1 0 0.324681
1 0 0.275669
0 0.233326 0.531502
0 0.195544 0.492256
0 0.172992 0.467857
0.102113 0.137804 0.430747
0.381903 0.0969863 0.387793
0.689128 0.0546883 0.34284
1 0.0117342 0.296132
1 0 0.247562
1 0 0.19942
0 0.421592 0.414145
0 0.386786 0.379004
0 0.367163 0.358099
0 0.336217 0.326375
0.272618 0.293446 0.283299
0.579904 0.250736 0.240528
0.908583 0.206729 0.196689
1 0.161776 0.152026
1 0.116152 0.106844
0 0.628199 0.288808
0 0.595544 0.256748
0 0.578149 0.238453
0 0.549599 0.209918
0.15082 0.507454 0.16878
0.456352 0.46424 0.127291
0.784375 0.42005 0.0855268
1 0.374777 0.0435492
1 0.328481 0.00177005
0 0.8477 0.158984
0 0.816739 0.129763
0 0.801175 0.113741
0 0.774578 0.0882429
0.0196384 0.735073 0.051606
0.323201 0.689738 0.0106508
0.649134 0.644816 0
0.993988 0.599451 0
1 0.553445 0
0 1 0.0312047
0 1 0.00642405
0 1 0
0 1 0
0 0.971527 0
0.183871 0.925582 0
0.507836 0.880735 0
0.851667 0.835584 0
1 0.789822 0
0 1 0
0 1 0
0 1 0
0 1 0
0 1 0
0.0415656 1 0
0.36228 1 0
0.704143 1 0
1 1 0
0 0 1
0 0 1
0.130861 0 1
0.375998 0 1
0.66006 0 0.978759
0.967193 0 0.928969
1 0 0.874296
1 0 0.813107
1 0 0.755199
0 0 1
0 0 0.976074
0.0155642 0 0.944656
0.250217 0 0.899474
0.521172 0 0.845716
0.82359 0 0.793652
1 0 0.741527
1 0 0.689265
1 0 0.636881
0 0.0649424 0.942565
0 0.0232242 0.893721
0 0 0.863264
0.173022 0 0.821286
0.451865 0 0.775311
0.758358 0 0.727459
1 0 0.678462
1 0 0.628748
1 0 0.578546
0 0.220844 0.838392
0 0.183719 0.798779
0 0.161654 0.774319
0.0904707 0.127001 0.736889
0.37023 0.0864729 0.693049
0.67747 0.0446021 0.647074
1 0.00236515 0.599069
1 0 0.549325
1 0 0.499855
0 0.410315 0.719249
0 0.375952 0.683528
0 0.35668 0.662394
0 0.326253 0.630304
0.26244 0.28365 0.58616
0.569757 0.241199 0.542168
0.898558 0.197574 0.49688
1 0.153017 0.450492
1 0.107881 0.40322
0 0.61799 0.590723
0 0.585702 0.557809
0 0.568612 0.539147
0 0.540444 0.509911
0.142092 0.498665 0.467597
0.447654 0.455726 0.424369
0.77586 0.411933 0.380484
1 0.367163 0.335821
1 0.321599 0.290486
0 0.838682 0.455787
0 0.808133 0.425208
0 0.792844 0.408545
0 0.766659 0.381796
0.0115511 0.728191 0.343603
0.316564 0.682979 0.299153
0.643107 0.63888 0.25626
0.988281 0.593988 0.212985
1 0.548302 0.169314
0 1 0.316487
0 1 0.288029
0 1 0.273121
0 1 0.248569
0 0.966293 0.213733
0.179248 0.920577 0.169955
0.503014 0.875761 0.12781
0.846632 0.830564 0.0860456
1 0.784619 0.0444648
0 1 0.174929
0 1 0.148623
0 1 0.135378
0 1 0.113024
0 1 0.0812848
0.0367895 1 0.0412604
0.356771 1 6.10361e-05
0.697704 1 0
1 1 0
0 0 1
0 0 1
0.116121 0 1
0.360494 0 1
0.643778 0 1
0.94992 0 1
1 0 1
1 0 1
1 0 1
0 0 1
0 0 1
0 0 1
0.230289 0 1
0.503883 0 1
0.807157 0 1
1 0 1
1 0 1
1 0 0.963119
0 0.0486152 1
0 0.00900282 1
0 0 1
0.157809 0 1
0.436866 0 1
0.743587 0 1
1 0 1
1 0 0.955261
1 0 0.904356
0 0.206668 1
0 0.170123 1
0 0.148547 1
0.0768902 0.114443 1
0.356527 0.0741131 1
0.663661 0.0326848 0.973663
0.99086 0 0.924529
1 0 0.874464
1 0 0.824292
0 0.397116 1
0 0.363134 1
0 0.344198 0.989288
0 0.314214 0.957046
0.250126 0.271763 0.91223
0.557336 0.229526 0.867475
0.886137 0.186145 0.821347
1 0.141909 0.774014
1 0.0971084 0.725673
0 0.6056 0.916182
0 0.573632 0.882826
0 0.556817 0.864042
0 0.528954 0.834501
0.130938 0.487511 0.791608
0.436347 0.444678 0.747433
0.764538 0.401099 0.702556
1 0.356588 0.656748
1 0.311315 0.610132
0 0.8271 0.778607
0 0.796826 0.747463
0 0.781781 0.730602
0 0.755871 0.70341
0.00138857 0.718013 0.66479
0.306401 0.672709 0.618997
0.632914 0.628824 0.574823
0.97818 0.584207 0.530068
1 0.538827 0.484718
0 1 0.635645
0 1 0.606409
0 1 0.591196
0 0.992325 0.566003
0 0.95671 0.530205
0.170352 0.911315 0.485069
0.494118 0.866728 0.441077
0.837888 0.821881 0.397131
1 0.776394 0.352834
0 1 0.48867
0 1 0.461158
0 1 0.44741
0 1 0.424002
0 1 0.390585
0.0294041 1 0.348379
0.34995 1 0.303456
0.691463 1 0.260121
1 1 0.216846
0 0 1
0 0 1
0.0998093 0 1
0.343374 0 1
0.625757 0 1
0.930724 0 1
1 0 1
1 0 1
1 0 1
0 0 1
0 0 1
0 0 1
0.210452 0 1
0.485481 0 1
0.78938 0 1
1 0 1
1 0 1
1 0 1
0 0.032105 1
0 0 1
0 0 1
0.141253 0 1
0.420417 0 1
0.727306 0 1
1 0 1
1 0 1
1 0 1
0 0.191135 1
0 0.155154 1
0 0.134035 1
0.0617227 0.100526 1
0.341222 0.0603647 1
0.648157 0.0194247 1
0.975158 0 1
1 0 1
1 0 1
0 0.382406 1
0 0.348806 1
0 0.330175 1
0 0.300572 1
0.236164 0.25832 1
0.543206 0.216236 1
0.871962 0.173083 1
1 0.129107 1
1 0.0846265 1
0 0.591577 1
0 0.559915 1
0 0.543343 1
0 0.515785 1
0.118059 0.474647 1
0.423255 0.431876 1
0.751354 0.388449 1
1 0.344152 0.997543
1 0.299092 0.950118
0 0.813718 1
0 0.783703 1
0 0.768872 1
0 0.743221 1
0 0.705852 1
0.294255 0.660487 0.959274
0.620645 0.616724 0.91429
0.965881 0.57229 0.868696
1 0.527108 0.822385
0 1 0.975387
0 1 0.945739
0 1 0.930388
0 0.98024 0.904906
0 0.94493 0.868635
0.159197 0.899779 0.822797
0.482765 0.855283 0.777829
0.826505 0.810605 0.732845
1 0.765316 0.687404
0 1 0.825498
0 1 0.797467
0 1 0.783536
0 1 0.759716
0 1 0.725673
0.0187381 1 0.682979
0.339635 1 0.636561
0.681086 1 0.591897
1 1 0.547127
0 0 1
0 0 1
0.0821393 0 1
0.324819 0 1
0.60618 0 1
0.909682 0 1
1 0 1
1 0 1
1 0 1
0 0 1
0 0 1
0 0 1
0.190249 0 1
0.466117 0 1
0.770504 0 1
1 0 1
1 0 1
1 0 1
0 0.0151675 1
0 0 1
0 0 1
0.123598 0 1
0.402792 0 1
0.709789 0 1
1 0 1
1 0 1
1 0 1
0 0.174487 1
0 0.139055 1
0 0.118395 1
0.0452125 0.0855421 1
0.324575 0.0455177 1
0.631174 0.00520333 1
0.958251 0 1
1 0 1
1 0 1
0 0.366445 1
0 0.333196 1
0 0.314885 1
0 0.285588 1
0.220859 0.243595 1
0.527687 0.201648 1
0.856336 0.158709 1
1 0.114977 1
1 0.0708019 1
0 0.576211 1
0 0.544839 1
0 0.528511 1
0 0.501259 1
0.103777 0.460441 1
0.408713 0.41767 1
0.736675 0.37438 1
1 0.330251 1
1 0.285405 1
0 0.798917 1
0 0.769146 1
0 0.754513 1
0 0.729107 1
0 0.692164 1
0.280613 0.646784 1
0.606806 0.603113 1
0.951965 0.558801 1
1 0.513787 1
0 1 1
0 1 1
0 0.990387 1
0 0.966583 1
0 0.931563 1
0.146441 0.886625 1
0.469749 0.842161 1
0.813382 0.797604 1
1 0.752468 1
0 1 1
0 1 1
0 1 1
0 1 1
0 1 1
0.00556954 1 1
0.327459 1 0.988434
0.668757 1 0.942946
1 0.999695 0.897292
