public/sampleLut/2.cube
TITLE "Generated by Resolve"
LUT_3D_SIZE 33
0 0 0
0 0 0
0 0 0
0 0 0
0 0 0
0 0 0
0 0 0
0 0 0
0.0438849 0 0
0.110079 0 0
0.182116 0 0
0.285451 0 0
0.438392 0 0
0.604669 0 0
0.734646 0 0
0.84593 0 0
0.966751 0 0
1 0 0
1 0 0
1 0 0
1 0 0
1 0 0
1 0 0
1 0 0
1 0 0
1 0 0
1 0 0
1 0 0
1 0 0
1 0 0
1 0 0
1 0 0
1 0 0
0 0 0
0 0 0
0 0 0
0 0 0
0 0 0
0 0 0
0 0 0
0 0 0
0.0366369 0 0
0.102464 0 0
0.174502 0 0
0.277836 0 0
0.430838 0 0
0.597131 0 0
0.726864 0 0
0.838026 0 0
0.958862 0 0
1 0 0
1 0 0
1 0 0
1 0 0
1 0 0
1 0 0
1 0 0
1 0 0
1 0 0
1 0 0
1 0 0
1 0 0
1 0 0
1 0 0
1 0 0
1 0 0
0 0 0
0 0 0
0 0 0
0 0 0
0 0 0
0 0 0
0 0 0
0 0 0
0.0283513 0 0
0.0941939 0 0
0.166217 0 0
0.269535 0 0
0.422904 0 0
0.588815 0 0
0.718517 0 0
0.829648 0 0
0.950469 0 0
1 0 0
1 0 0
1 0 0
1 0 0
1 0 0
1 0 0
1 0 0
1 0 0
1 0 0
1 0 0
1 0 0
1 0 0
1 0 0
1 0 0
1 0 0
1 0 0
0 0 0
0 0 0
0 0 0
0 0 0
0 0 0
0 0 0
0 0 0
0 0 0
0.0201267 0 0
0.0859693 0 0
0.158358 0 0
0.261677 0 0
0.414633 0 0
0.580499 0 0
0.710109 0 0
0.821088 0 0
0.941909 0 0
1 0 0
1 0 0
1 0 0
1 0 0
1 0 0
1 0 0
1 0 0
1 0 0
1 0 0
1 0 0
1 0 0
1 0 0
1 0 0
1 0 0
1 0 0
1 0 0
0 0.0223545 0
0 0.0184176 0
0 0.0142061 0
0 0.0100404 0
0 0.00552377 0
0 0.000427253 0
0 0 0
0 0 0
0.0117342 0 0
0.0779126 0 0
0.14992 0 0
0.25304 0 0
0.405707 0 0
0.571511 0 0
0.70106 0 0
0.812116 0 0
0.932555 0 0
1 0 0
1 0 0
1 0 0
1 0 0
1 0 0
1 0 0
1 0 0
1 0 0
1 0 0
1 0 0
1 0 0
1 0 0
1 0 0
1 0 0
1 0 0
1 0 0
0 0.0547341 0
0 0.050782 0
0 0.0467231 0
0 0.0424811 0
0 0.0378882 0
0 0.0327764 0
0 0.0282902 0
0 0.0242161 0
0.00418097 0.0199283 0
0.0696574 0.0143435 0
0.1411 0.00802625 0
0.243702 0 0
0.396216 0 0
0.562615 0 0
0.692256 0 0
0.803006 0 0
0.923354 0 0
1 0 0
1 0 0
1 0 0
1 0 0
1 0 0
1 0 0
1 0 0
1 0 0
1 0 0
1 0 0
1 0 0
1 0 0
1 0 0
1 0 0
1 0 0
1 0 0
0 0.0878614 0
0 0.084062 0
0 0.0798657 0
0 0.0755016 0
0 0.0708324 0
0 0.0655833 0
0 0.0610361 0
0 0.0568704 0
0 0.0522316 0
0.0616312 0.0466011 0
0.133196 0.039704 0
0.236042 0.0263218 0
0.388952 0.00349432 0
0.554788 0 0
0.684382 0 0
0.795377 0 0
0.916152 0 0
1 0 0
1 0 0
1 0 0
1 0 0
1 0 0
1 0 0
1 0 0
1 0 0
1 0 0
1 0 0
1 0 0
1 0 0
1 0 0
1 0 0
1 0 0
1 0 0
0 0.120989 0
0 0.116945 0
0 0.112551 0
0 0.107988 0
0 0.103166 0
0 0.0979171 0
0 0.0933242 0
0 0.0890516 0
0 0.0843977 0
0.0537728 0.0787671 0
0.125475 0.0719463 0
0.229129 0.0589914 0
0.382452 0.0363165 0
0.548714 0.00901808 0
0.678279 0 0
0.789212 0 0
0.910796 0 0
1 0 0
1 0 0
1 0 0
1 0 0
1 0 0
1 0 0
1 0 0
1 0 0
1 0 0
1 0 0
1 0 0
1 0 0
1 0 0
1 0 0
1 0 0
1 0.0137026 0
0 0.154116 0
0 0.149935 0
0 0.14548 0
0 0.140948 0
0 0.136294 0
0 0.130953 0
0 0.126238 0
0 0.122072 0
0 0.117678 0
0.0450752 0.112505 0
0.117632 0.106157 0
0.221378 0.0932479 0
0.375341 0.0708934 0
0.541909 0.0441596 0
0.671809 0.0184634 0
0.784192 0 0
0.906462 0 0
1 0 0
1 0 0
1 0 0
1 0 0
1 0 0
1 0 0
1 0 0
1 0 0
1 0 0
1 0 0
1 0.0122835 0
1 0.027924 0
1 0.0447089 0
1 0.0617685 0
1 0.0793164 0
1 0.0986191 0
0 0.188464 0
0 0.184268 0
0 0.179858 0
0 0.17554 0
0 0.170901 0
0 0.165942 0
0 0.161517 0
0 0.157626 0
0 0.153582 0
0.0335241 0.148867 0
0.10692 0.142992 0
0.211872 0.130755 0
0.366857 0.108934 0
0.533715 0.0826429 0
0.664073 0.0577554 0
0.777234 0.0343175 0
0.90045 0.0125429 0
1 0 0
1 0 0
1 0 0
1 0 0
1 0.00492866 0
1 0.0161593 0
1 0.0289464 0
1 0.0432593 0
1 0.0600137 0
1 0.0770581 0
1 0.0942245 0
1 0.112032 0
1 0.130785 0
1 0.150271 0
1 0.170947 0
1 0.190814 0
0 0.224659 0
0 0.220935 0
0 0.216861 0
0 0.212726 0
0 0.208408 0
0 0.203876 0
0 0.199802 0
0 0.19678 0
0 0.193286 0
0.0192416 0.188876 0
0.0934005 0.183413 0
0.199313 0.17174 0
0.355795 0.150729 0
0.523964 0.125353 0
0.654719 0.101137 0
0.770275 0.0798657 0
0.897856 0.0621195 0
1 0.0504158 0
1 0.0475013 0
1 0.0530556 0
1 0.0624857 0
1 0.0759747 0
1 0.0928359 0
1 0.110231 0
1 0.128206 0
1 0.146548 0
1 0.165576 0
1 0.185168 0
1 0.204746 0
1 0.224369 0
1 0.245212 0
1 0.265751 0
1 0.286366 0
0 0.270771 0
0 0.26714 0
0 0.263478 0
0 0.259968 0
0 0.256443 0
0 0.252781 0
0 0.249256 0
0 0.24625 0
0 0.24329 0
0 0.239551 0
0.054612 0.234714 0
0.162829 0.224292 0
0.324392 0.206195 0
0.502739 0.184894 0
0.639216 0.165942 0
0.759075 0.148791 0
0.890013 0.134188 0
1 0.126818 0
1 0.128771 0
1 0.139544 0
1 0.152972 0
1 0.168887 0
1 0.187976 0
1 0.208118 0
1 0.227497 0
1 0.246815 0
1 0.266377 0
1 0.286397 0
1 0.307637 0
1 0.329274 0
1 0.350774 0
1 0.372091 0
1 0.393118 0
0 0.330602 0
0 0.327718 0
0 0.324651 0
0 0.321675 0
0 0.319081 0
0 0.316396 0
0 0.313924 0
0 0.311238 0
0 0.309514 0
0 0.308858 0
0 0.309178 0
0.109178 0.303334 0
0.275456 0.288487 0
0.464256 0.269902 0
0.608759 0.254856 0
0.73312 0.243412 0
0.869886 0.234501 0
0.988464 0.229786 0
1 0.233677 0
1 0.246113 0
1 0.261524 0
1 0.279347 0
1 0.299519 0
1 0.31986 0
1 0.340444 0
1 0.361761 0
1 0.383352 0
1 0.405692 0
1 0.427802 0
1 0.449454 0
1 0.471 0
1 0.492485 0
1 0.513481 0
0 0.399054 0
0 0.396796 0
0 0.394537 0
0 0.392584 0
0 0.390829 0
0 0.390463 0
0 0.392126 0
0 0.394919 0
0 0.396887 0
0 0.399512 0
0 0.402396 0
0.049897 0.400885 0
0.224857 0.391257 0
0.423377 0.376684 0
0.575128 0.364141 0
0.701274 0.355154 0
0.839475 0.347677 0
0.960418 0.345251 0
1 0.350973 0
1 0.364996 0
1 0.382971 0
1 0.402472 0
1 0.424445 0
1 0.446845 0
1 0.469001 0
1 0.491356 0
1 0.513726 0
1 0.535348 0
1 0.556832 0
1 0.577081 0
1 0.595819 0
1 0.614343 0
1 0.632395 0
0 0.473045 0
0 0.472175 0
0 0.47332 0
0 0.475853 0
0 0.479347 0
0 0.483162 0
0 0.488304 0
0 0.495903 0
0 0.50399 0
0 0.511223 0
0 0.518166 0
0.000396735 0.519188 0
0.177951 0.511467 0
0.382971 0.49984 0
0.539834 0.489128 0
0.666423 0.480858 0
0.805371 0.474388 0
0.926986 0.473106 0
1 0.48069 0
1 0.497658 0
1 0.51632 0
1 0.536706 0
1 0.558801 0
1 0.580606 0
1 0.601526 0
1 0.622248 0
1 0.641688 0
1 0.660227 0
1 0.67834 0
1 0.696178 0
1 0.713756 0
1 0.729992 0
1 0.744472 0
0 0.560372 0
0 0.564874 0
0 0.569406 0
0 0.575479 0
0 0.583642 0
0 0.59353 0
0 0.604913 0
0 0.616129 0
0 0.626917 0
0 0.636591 0
0 0.646387 0
0 0.649699 0
0.14284 0.644236 0
0.347921 0.632547 0
0.506096 0.62266 0
0.633585 0.615427 0
0.773281 0.609781 0
0.895048 0.608774 0
0.986709 0.616587 0
1 0.630869 0
1 0.647517 0
1 0.666056 0
1 0.686244 0
1 0.7066 0
1 0.724743 0
1 0.742443 0
1 0.75996 0
1 0.776669 0
1 0.792248 0
1 0.807111 0
1 0.820813 0
1 0.833875 0
1 0.844907 0
0 0.660121 0
0 0.669841 0
0 0.680583 0
0 0.691508 0
0 0.702647 0
0 0.715282 0
0 0.727672 0
0 0.740185 0
0 0.751904 0
0 0.761944 0
0 0.772534 0
0 0.776623 0
0.125505 0.771008 0
0.329702 0.75996 0
0.483162 0.750332 0
0.610849 0.742336 0
0.7505 0.736385 0
0.871321 0.734218 0
0.961257 0.740078 0
1 0.753353 0
1 0.768185 0
1 0.784253 0
1 0.802976 0
1 0.820691 0
1 0.836851 0
1 0.851606 0
1 0.86537 0
1 0.878935 0
1 0.891875 0
1 0.901823 0
1 0.908858 0
1 0.913985 0
1 0.918669 0
0 0.769757 0
0 0.780972 0
0 0.792889 0
0 0.805814 0
0 0.818998 0
0 0.831693 0
0 0.8448 0
0 0.858091 0
0 0.870268 0
0 0.882124 0
0 0.892943 0
0 0.89662 0
0.129778 0.890181 0
0.326314 0.878492 0
0.47071 0.868467 0
0.601465 0.860197 0
0.73872 0.852155 0
0.857374 0.847807 0
0.944869 0.851164 0
1 0.862409 0
1 0.875547 0
1 0.890105 0
1 0.904677 0
1 0.918746 0
1 0.93196 0
1 0.943587 0
1 0.952865 0
1 0.958923 0
1 0.963638 0
1 0.968139 0
1 0.972152 0
1 0.975418 0
1 0.978134 0
0 0.871519 0
0 0.884642 0
0 0.897993 0
0 0.911818 0
0 0.925246 0
0 0.93875 0
0 0.952331 0
0 0.965255 0
0 0.977722 0
0 0.988693 0
0 0.998428 0
0 1 0
0.168078 0.994171 0
0.343832 0.982727 0
0.476921 0.971313 0
0.612268 0.959396 0
0.747341 0.949477 0
0.864149 0.943343 0
0.949081 0.944121 0
1 0.952346 0
1 0.962173 0
1 0.973159 0
1 0.984131 0
1 0.99237 0
1 0.997833 0
1 1 0
1 1 0
1 1 0
1 1 0
1 1 0
1 1 0
1 1 0
1 1 0
0 0.965652 0
0 0.980438 0
0 0.994247 0
0 1 0
0 1 0
0 1 0
0 1 0
0 1 0
0 1 0
0 1 0
0 1 0
0.0603342 1 0
0.230838 1 0
0.377768 1 0
0.501137 1 0
0.64271 1 0
0.773999 1 0
0.887663 1 0
0.970199 1 0
1 1 0
1 1 0
1 1 0
1 1 0
1 1 0
1 1 0
1 1 0
1 1 0
1 1 0
1 1 0
1 1 0
1 1 0
1 1 0
1 1 0
0 1 0
0 1 0
0 1 0
0 1 0
0 1 0
0 1 0
0 1 0
0 1 0
0 1 0
0 1 0
0.00691234 1 0
0.132494 1 0
0.278843 1 0
0.405035 1 0
0.530907 1 0
0.670619 1 0
0.797024 1 0
0.90367 1 0
0.978607 1 0
1 1 0
1 1 0
1 1 0
1 1 0
1 1 0
1 1 0
1 1 0
1 1 0
1 1 0
1 1 0
1 1 0
1 1 0
1 1 0
1 1 0
0 1 0
0 1 0
0 1 0
0 1 0
0 1 0
0 1 0
0 1 0
0 1 0
0 1 0
0 1 0
0.0776226 1 0
0.192218 1 0
0.312947 1 0
0.424704 1 0
0.551369 1 0
0.684382 1 0
0.806622 1 0
0.910903 1 0
0.984054 1 0
1 1 0
1 1 0
1 1 0
1 1 0
1 1 0
1 1 0
1 1 0
1 1 0
1 1 0
1 1 0
1 1 0
1 1 0
1 1 0
1 1 0
0 1 0
0 1 0
0 1 0
0 1 0
0 1 0
0 1 0
0 1 0
0 1 0
0 1 0
0.0545357 1 0
0.130617 1 0
0.225437 1 0
0.330098 1 0
0.436057 1 0
0.565377 1 0
0.696223 1 0
0.81622 1 0
0.919005 1 0
0.991226 1 0
1 1 0
1 1 0
1 1 0
1 1 0
1 1 0
1 1 0
1 1 0
1 1 0
1 1 0
1 1 0
1 1 0
1 1 0
1 1 0
1 1 0
0 1 0
0 1 0
0 1 0
0 1 0
0 1 0
0 1 0
0 1 0
0 1 0
0.0179141 1 0
0.0855116 1 0
0.155734 1 0
0.240421 1 0
0.34023 1 0
0.443885 1 0
0.573938 1 0
0.703899 1 0
0.823026 1 0
0.924773 1 0
0.996185 1 0
1 1 0
1 1 0
1 1 0
1 1 0
1 1 0
1 1 0
1 1 0
1 1 0
1 1 0
1 1 0
1 1 0
1 1 0
1 1 0
1 1 0
0 1 0
0 1 0
0 1 0
0 1 0
0 1 0
0 1 0
0 1 0
0 1 0
0.0387732 1 0
0.102174 1 0
0.168582 1 0
0.247395 1 0
0.34461 1 0
0.447837 1 0
0.577859 1 0
0.70695 1 0
0.825269 1 0
0.926024 1 0
0.995712 1 0
1 1 0
1 1 0
1 1 0
1 1 0
1 1 0
1 1 0
1 1 0
1 1 0
1 1 0
1 1 0
1 1 0
1 1 0
1 1 0
1 1 0
0 1 0
0 1 0
0 1 0
0 1 0
0 1 0
0 1 0
0 1 0
0 1 0
0.0509651 1 0
0.112459 1 0
0.176608 1 0
0.251194 1 0
0.345998 1 0
0.449226 1 0
0.578363 1 0
0.705638 1 0
0.822461 1 0
0.922072 1 0
0.991287 1 0
1 1 0
1 1 0
1 1 0
1 1 0
1 1 0
1 1 0
1 1 0
1 1 0
1 1 0
1 1 0
1 1 0
1 1 0
1 1 0
1 1 0
0 1 0
0 1 0
0 1 0
0 1 0
0 1 0
0 1 0
0 1 0
0.00131228 1 0
0.0582437 1 0
0.118288 1 0
0.179843 1 0
0.251072 1 0
0.343648 1 0
0.445823 1 0
0.574182 1 0
0.701183 1 0
0.817578 1 0
0.916854 1 0
0.985855 1 0
1 1 0
1 1 0
1 1 0
1 1 0
1 1 0
1 1 0
1 1 0
1 1 0
1 1 0
1 1 0
1 1 0
1 1 0
1 1 0
1 1 0
0 1 0
0 1 0
0 1 0
0 1 0
0 1 0
0 1 0
0 1 0
0.00527962 1 0
0.0593576 1 0
