public/sampleLut/2.cube
TITLE "Generated by Resolve"
LUT_3D_SIZE 9
0 0 0
0 0 0
0.0438849 0 0
0.438392 0 0
0.966751 0 0
1 0 0
1 0 0
1 0 0
1 0 0
0 0.0223545 0
0 0.00552377 0
0.0117342 0 0
0.405707 0 0
0.932555 0 0
1 0 0
1 0 0
1 0 0
1 0 0
0 0.154116 0
0 0.136294 0
0 0.117678 0
0.375341 0.0708934 0
0.906462 0 0
1 0 0
1 0 0
1 0.027924 0
1 0.0986191 0
0 0.330602 0
0 0.319081 0
0 0.309514 0
0.275456 0.288487 0
0.869886 0.234501 0
1 0.261524 0
1 0.340444 0
1 0.427802 0
1 0.513481 0
0 0.660121 0
0 0.702647 0
0 0.751904 0
0.125505 0.771008 0
0.7505 0.736385 0
1 0.768185 0
1 0.836851 0
1 0.891875 0
1 0.918669 0
0 1 0
0 1 0
0 1 0
0.278843 1 0
0.797024 1 0
1 1 0
1 1 0
1 1 0
1 1 0
0 1 0
0 1 0
0.0387732 1 0
0.34461 1 0
0.825269 1 0
1 1 0
1 1 0
1 1 0
1 1 0
0 1 0
0 1 0
0.0543832 1 0
0.333974 1 0
0.807858 1 0
1 1 0
1 1 0
1 1 0
1 1 0
0 1 0
0 1 0
0.0349584 1 0
0.318166 1 0
0.792493 1 0
1 1 0
1 1 0
1 1 0
1 1 0
0 0 0.0549783
0 0 0.0381323
0.0407721 0 0.0200961
0.435294 0 0
0.963088 0 0
1 0 0
1 0 0
1 0 0
1 0 0
0 0.0192569 0.0225986
0 0.00234989 0.00567636
0.00865187 0 0
0.402029 0 0
0.928496 0 0
1 0 0
1 0 0
1 0 0
1 0 0
0 0.150698 0
0 0.132662 0
0 0.114748 0
0.373999 0.0686198 0
0.904799 0 0
1 0 0
1 0 0
1 0.0444495 0
1 0.11841 0
0 0.328283 0
0 0.317525 0
0 0.313283 0
0.295689 0.298116 0
0.886183 0.25008 0
1 0.281178 0
1 0.363668 0
1 0.450126 0
1 0.532708 0.026688
0 0.674678 0
0 0.720516 0
0 0.770581 0
0.162997 0.791882 0
0.769268 0.756054 0
1 0.785641 0
1 0.85066 0
1 0.898405 0
1 0.917708 0
0 1 0
0 1 0
0 1 0
0.291203 1 0
0.798154 1 0
1 1 0
1 1 0
1 1 0
1 1 0
0 1 0
0 1 0
0.0342718 1 0
0.339544 1 0
0.819028 1 0
1 1 0
1 1 0
1 1 0
1 1 0
0 1 0
0 1 0
0.0420691 1 0
0.326284 1 0
0.800595 1 0
1 1 0
1 1 0
1 1 0
1 1 0
0 1 0
0 1 0
0.0236057 1 0
0.310765 1 0
0.785275 1 0
1 1 0
1 1 0
1 1 0
1 1 0
0 0 0.193561
0 0 0.176684
0.0387427 0 0.158709
0.433616 0 0.113039
0.960754 0 0.0210422
1 0 0
1 0 0
1 0 0.00363165
1 0 0.0110781
0 0.0170901 0.161196
0 0.000122072 0.144228
0.00646983 0 0.126253
0.399771 0 0.0796521
0.925719 0 0
1 0 0
1 0 0
1 0 0
1 0 0
0 0.14818 0.129946
0 0.130205 0.112078
0 0.11284 0.0946212
0.374548 0.0678111 0.0513466
0.904891 0 0
1 0 0
1 0 0
1 0.0619516 0.0407111
1 0.138354 0.113054
0 0.327474 0.0177157
0 0.317922 0.00695811
0 0.320851 0.00669871
0.323445 0.312566 0
0.906035 0.26894 0
1 0.301991 0
1 0.38587 0.0596628
1 0.47097 0.132326
1 0.550072 0.192309
0 0.690929 0
0 0.739971 0
0 0.791897 0
0.200519 0.813733 0
0.78967 0.777401 0
1 0.803281 0
1 0.862043 0
1 0.898543 0
1 0.914382 0
0 1 0
0 1 0
0 1 0
0.299901 1 0
0.797314 1 0
1 1 0
1 1 0
1 1 0
1 1 0
0 1 0.0275273
0 1 0.0164645
0.0289769 1 0
0.333623 1 0
0.810773 1 0
1 1 0
1 1 0
1 1 0
1 1 0
0 1 0.0476387
0 1 0.0205386
0.0292363 1 0
0.318257 1 0
0.792325 1 0
1 1 0
1 1 0
1 1 0
1 1 0
0 1 0.0305943
0 1 0.00296025
0.0119173 1 0
0.302892 1 0
0.77702 1 0
1 1 0
1 1 0
1 1 0
1 1 0
0 0 0.46746
0 0 0.450736
0.0204166 0 0.433173
0.415686 0 0.387884
0.947799 0 0.287633
1 0 0.25362
1 0 0.262379
1 0 0.271855
1 0 0.282246
0 0.00387579 0.434928
0 0 0.418204
0 0 0.400366
0.38117 0 0.35407
0.912276 0 0.252232
1 0 0.218906
1 0 0.231342
1 0 0.247608
1 0 0.270954
0 0.134569 0.40322
0 0.117082 0.386023
0 0.100191 0.369299
0.359045 0.0560159 0.327214
0.894316 0 0.233783
1 0 0.221393
1 0 0.270024
1 0.0693217 0.330083
1 0.147753 0.404852
0 0.316503 0.290745
0 0.309316 0.283268
0 0.318364 0.290501
0.337118 0.317418 0.286687
0.915602 0.277745 0.247333
1 0.312261 0.275227
1 0.396521 0.351644
1 0.479622 0.442161
1 0.553826 0.531731
0 0.699794 0.0658732
0 0.750973 0.108568
0 0.802808 0.153628
0.21915 0.822797 0.164965
0.796765 0.785107 0.127504
1 0.807492 0.142046
1 0.860838 0.186313
1 0.886519 0.209674
1 0.899168 0.222141
0 1 0.153689
0 1 0.183261
0 1 0.208835
0.293614 1 0.19469
0.78497 1 0.108019
1 1 0.0750286
1 1 0.0777142
1 1 0.0764019
1 1 0.0715953
0 1 0.307347
0 1 0.294362
0.00750744 1 0.275288
0.317968 1 0.223026
0.79176 1 0.111986
1 1 0.0660258
1 1 0.0604105
1 1 0.0563668
1 1 0.0524758
0 1 0.336431
0 1 0.301213
0.00108339 1 0.266224
0.30074 1 0.205402
0.773495 1 0.0940871
1 1 0.0496071
1 1 0.0449683
1 1 0.0410315
1 1 0.0371405
0 1 0.317266
0 1 0.282826
0 1 0.250141
0.285405 1 0.190036
0.758206 1 0.0788128
0.999802 1 0.0343633
1 1 0.0297093
1 1 0.0257725
1 1 0.0218662
0 0 1
0 0 1
0 0 1
0.361303 0 0.981903
0.908461 0 0.870939
1 0 0.835019
1 0 0.844999
1 0 0.855711
1 0 0.868345
0 0 1
0 0 1
0 0 0.998871
0.325994 0 0.947402
0.873106 0 0.835492
1 0 0.800855
1 0 0.815991
1 0 0.835386
1 0 0.871412
0 0.0959793 1
0 0.0795758 0.98558
0 0.0633249 0.969635
0.307836 0.019913 0.924254
0.858824 0 0.82237
1 0 0.818494
1 0 0.885771
1 0.0513161 0.96762
1 0.131014 1
0 0.281147 0.880293
0 0.279469 0.880308
0 0.294041 0.89929
0.314794 0.297398 0.907576
0.899184 0.261326 0.871565
1 0.296681 0.91429
1 0.378943 1
1 0.459266 1
1 0.530434 1
0 0.683619 0.654154
0 0.735943 0.714672
0 0.787976 0.770169
0.201892 0.805661 0.790448
0.776608 0.764797 0.74931
1 0.782223 0.768627
1 0.82771 0.817105
1 0.846464 0.837324
1 0.856382 0.848142
0 1 0.775143
0 1 0.816358
0 1 0.846784
0.256168 1 0.822873
0.745159 1 0.720974
0.997528 0.996902 0.681804
1 0.999695 0.684993
1 0.996704 0.682048
1 0.991241 0.676493
0 1 0.9393
0 1 0.922637
0 1 0.902281
0.275868 1 0.846723
0.74641 1 0.724117
0.985336 1 0.6701
1 1 0.664668
1 1 0.660716
1 1 0.656901
0 1 0.955291
0 1 0.922011
0 1 0.889448
0.257649 1 0.827955
0.728542 1 0.705974
0.969299 1 0.653986
1 1 0.649226
1 1 0.64535
1 1 0.641535
0 1 0.936782
0 1 0.904707
0 1 0.873899
0.242344 1 0.812619
0.713252 1 0.690684
0.953979 1 0.638651
1 1 0.633951
1 1 0.630076
1 1 0.6262
0 0 1
0 0 1
0 0 1
0.341985 0 1
0.893568 0 1
1 0 1
1 0 1
1 0 1
1 0 1
0 0 1
0 0 1
0 0 1
0.305852 0 1
0.858381 0 1
1 0 1
1 0 1
1 0 1
1 0 1
0 0.0811933 1
0 0.0653697 1
0 0.0500801 1
0.292134 0.00735485 1
0.85185 0 1
1 0 1
1 0 1
1 0.059144 1
1 0.140047 1
0 0.269245 1
0 0.2748 1
0 0.295842 1
0.330068 0.302708 1
0.907805 0.269261 1
1 0.305928 1
1 0.386358 1
1 0.464454 1
1 0.530465 1
0 0.691951 0.978607
0 0.744915 1
0 0.796277 1
0.217563 0.812634 1
0.780392 0.769162 1
1 0.781201 1
1 0.815793 1
1 0.831174 1
1 0.839353 1
0 1 1
0 1 1
0 1 1
0.242939 1 1
0.72932 1 1
0.980484 0.979355 0.977874
1 0.98024 0.979141
1 0.97586 0.974716
1 0.970062 0.96878
0 1 1
0 1 1
0 1 1
0.256306 1 1
0.725841 1 1
0.965118 1 0.962631
1 1 0.957595
1 1 0.953689
1 1 0.949859
0 1 1
0 1 1
0 1 1
0.237949 1 1
0.708553 1 1
0.949447 1 0.946929
1 1 0.942199
1 1 0.938323
1 1 0.934462
0 1 1
0 1 1
0 1 1
0.222644 1 1
0.693263 1 0.985656
0.934157 1 0.931655
1 1 0.926925
1 1 0.923049
1 1 0.919127
0 0 1
0 0 1
0 0 1
0.347662 0 1
0.896071 0 1
1 0 1
1 0 1
1 0 1
1 0 1
0 0 1
0 0 1
0 0 1
0.311055 0 1
0.86128 0 1
1 0 1
1 0 1
1 0 1
1 0 1
0 0.0833143 1
0 0.0679942 1
0 0.0534981 1
0.302434 0.0120699 1
0.865599 0 1
1 0 1
1 0.00675975 1
1 0.0847791 1
1 0.166278 1
0 0.275822 1
0 0.287449 1
0 0.314977 1
0.36968 0.32607 1
0.934554 0.295094 1
1 0.332769 1
1 0.412772 1
1 0.487739 1
1 0.547326 1
0 0.717357 1
0 0.771237 1
0 0.820218 1
0.252705 0.835554 1
0.799832 0.789624 1
1 0.796231 1
1 0.820676 1
1 0.832975 1
1 0.839719 1
0 1 1
0 1 1
0 1 1
0.246952 1 1
0.730678 1 1
0.980224 0.979232 1
1 0.977691 1
1 0.972671 1
1 0.967041 1
0 1 1
0 1 1
0 1 1
0.253544 1 1
0.722591 1 1
0.962341 1 1
1 1 1
1 1 1
1 1 1
0 1 1
0 1 1
0 1 1
0.23537 1 1
0.705989 1 1
0.946868 1 1
1 1 1
1 1 1
1 1 1
0 1 1
0 1 1
0 1 1
0.220081 1 1
0.690684 1 1
0.931579 1 1
1 1 1
1 1 1
1 1 1
0 0 1
0 0 1
0 0 1
0.353491 0 1
0.898665 0 1
1 0 1
1 0 1
1 0 1
1 0 1
0 0 1
0 0 1
0 0 1
0.317143 0 1
0.864713 0 1
1 0 1
1 0 1
1 0 1
1 0 1
0 0.0859083 1
0 0.0713359 1
0 0.0576028 1
0.315862 0.0185702 1
0.880034 0 1
1 0 1
1 0.0318303 1
1 0.111315 1
1 0.191974 1
0 0.285969 1
0 0.30277 1
0 0.335241 1
0.404608 0.350881 1
0.96173 0.322164 1
1 0.359091 1
1 0.438148 1
1 0.509407 1
1 0.563134 1
0 0.743252 1
0 0.797345 1
0 0.845106 1
0.280766 0.857908 1
0.817182 0.807935 1
1 0.807141 1
1 0.825071 1
1 0.834775 1
1 0.839963 1
0 1 1
0 1 1
0 1 1
0.249744 1 1
0.731746 1 1
0.97995 0.979095 1
1 0.975189 1
1 0.969635 1
1 0.964508 1
0 1 1
0 1 1
0 1 1
0.250858 1 1
0.7196 1 1
0.959991 1 1
1 1 1
1 1 1
1 1 1
0 1 1
0 1 1
0 1 1
0.233051 1 1
0.703578 1 1
0.944564 1 1
1 1 1
1 1 1
1 1 1
0 1 1
0 1 1
0 1 1
0.217746 1 1
0.688289 1 1
0.92929 1 1
1 1 1
1 1 1
1 1 1
0 0 1
0 0 1
0 0 1
0.359533 0 1
0.901122 0 1
1 0 1
1 0 1
1 0 1
1 0 1
0 0 1
0 0 1
0 0 1
0.323583 0 1
0.868605 0 1
1 0 1
1 0 1
1 0 1
1 0 1
0 0.0885786 1
0 0.0748913 1
0 0.0620279 1
0.335027 0.0284733 1
0.897246 0 1
1 0 1
1 0.0573739 1
1 0.13817 1
1 0.217029 1
0 0.298192 1
0 0.321172 1
0 0.357382 1
0.432486 0.377203 1
0.98854 0.349752 1
1 0.385214 1
1 0.462272 1
1 0.527855 1
1 0.574289 1
0 0.769711 1
0 0.822614 1
0 0.869291 1
0.303563 0.880049 1
0.833356 0.825025 1
1 0.81355 1
1 0.828031 1
1 0.836042 1
1 0.83975 1
0 1 1
0 1 1
0 1 1
0.251637 1 1
0.732128 1 1
0.978561 0.977752 1
1 0.972519 1
1 0.966659 1
1 0.962127 1
0 1 1
0 1 1
0 1 1
0.247944 1 1
0.716884 1 1
0.957641 1 1
1 1 1
1 1 1
1 1 1
0 1 1
0 1 1
0 1 1
0.230716 1 1
0.701274 1 1
0.94226 1 1
1 1 1
1 1 1
1 1 1
0 1 1
0 1 1
0 1 1
0.215351 1 1
0.685985 1 1
0.926986 1 1
0.99942 1 1
1 1 1
1 1 1
