public/sampleLut/2.cube
TITLE "Generated by Resolve"
LUT_3D_SIZE 5
0 0 0
0.0438849 0 0
0.966751 0 0
1 0 0
1 0 0
0 0.154116 0
0 0.117678 0
0.906462 0 0
1 0 0
1 0.0986191 0
0 0.660121 0
0 0.751904 0
0.7505 0.736385 0
1 0.836851 0
1 0.918669 0
0 1 0
0.0387732 1 0
0.825269 1 0
1 1 0
1 1 0
0 1 0
0.0349584 1 0
0.792493 1 0
1 1 0
1 1 0
0 0 0.193561
0.0387427 0 0.158709
0.960754 0 0.0210422
1 0 0
1 0 0.0110781
0 0.14818 0.129946
0 0.11284 0.0946212
0.904891 0 0
1 0 0
1 0.138354 0.113054
0 0.690929 0
0 0.791897 0
0.78967 0.777401 0
1 0.862043 0
1 0.914382 0
0 1 0.0275273
0.0289769 1 0
0.810773 1 0
1 1 0
1 1 0
0 1 0.0305943
0.0119173 1 0
0.77702 1 0
1 1 0
1 1 0
0 0 1
0 0 1
0.908461 0 0.870939
1 0 0.844999
1 0 0.868345
0 0.0959793 1
0 0.0633249 0.969635
0.858824 0 0.82237
1 0 0.885771
1 0.131014 1
0 0.683619 0.654154
0 0.787976 0.770169
0.776608 0.764797 0.74931
1 0.82771 0.817105
1 0.856382 0.848142
0 1 0.9393
0 1 0.902281
0.74641 1 0.724117
1 1 0.664668
1 1 0.656901
0 1 0.936782
0 1 0.873899
0.713252 1 0.690684
1 1 0.633951
1 1 0.6262
0 0 1
0 0 1
0.896071 0 1
1 0 1
1 0 1
0 0.0833143 1
0 0.0534981 1
0.865599 0 1
1 0.00675975 1
1 0.166278 1
0 0.717357 1
0 0.820218 1
0.799832 0.789624 1
1 0.820676 1
1 0.839719 1
0 1 1
0 1 1
0.722591 1 1
1 1 1
1 1 1
0 1 1
0 1 1
0.690684 1 1
1 1 1
1 1 1
0 0 1
0 0 1
0.901122 0 1
1 0 1
1 0 1
0 0.0885786 1
0 0.0620279 1
0.897246 0 1
1 0.0573739 1
1 0.217029 1
0 0.769711 1
0 0.869291 1
0.833356 0.825025 1
1 0.828031 1
1 0.83975 1
0 1 1
0 1 1
0.716884 1 1
1 1 1
1 1 1
0 1 1
0 1 1
0.685985 1 1
0.99942 1 1
1 1 1
