public/sampleLut/20.cube
TITLE "Generated by Resolve"
LUT_3D_SIZE 17
0.0247349 0.0582284 0.0616465
0.0406958 0.0588998 0.0616922
0.0665751 0.0592203 0.0609445
0.104387 0.0587778 0.058381
0.144808 0.0575418 0.0542153
0.186587 0.0558328 0.049134
0.23006 0.0548104 0.0442359
0.272999 0.0544137 0.0388037
0.316747 0.053315 0.031281
0.359823 0.0521401 0.0229191
0.405615 0.0502174 0.0181125
0.452308 0.0490272 0.0170748
0.498817 0.0472114 0.0160983
0.543832 0.0461128 0.0152438
0.585977 0.0464485 0.0147097
0.628046 0.0469978 0.0143435
0.670542 0.0476692 0.0139467
0.0031281 0.0802319 0.0641794
0.0126192 0.0809491 0.0650645
0.0606394 0.0760204 0.0631723
0.10135 0.0759899 0.0614786
0.144045 0.0759442 0.0585794
0.188403 0.0752575 0.0545205
0.234028 0.075288 0.0502632
0.280766 0.0757916 0.0456397
0.327443 0.0763867 0.0391394
0.373617 0.076463 0.0314488
0.420523 0.0762341 0.0273289
0.46836 0.0754101 0.0267185
0.515679 0.0742962 0.0264591
0.562478 0.0740368 0.0260471
0.60734 0.0739147 0.0256962
0.648875 0.0749371 0.0254215
0.69099 0.0766155 0.0251774
0.00263981 0.0994583 0.0635843
0.0126345 0.101152 0.0649882
0.0247654 0.101976 0.0657816
0.047776 0.102449 0.0652018
0.144518 0.0984207 0.062501
0.193439 0.0998398 0.0601053
0.241627 0.101579 0.0573587
0.290929 0.102968 0.0533761
0.338949 0.104799 0.047425
0.38677 0.105852 0.0401007
0.434363 0.106279 0.0353094
0.483207 0.105806 0.0351263
0.530678 0.105257 0.0348821
0.576913 0.104967 0.0344091
0.621363 0.105318 0.034165
0.664607 0.107057 0.0339971
0.707195 0.1084 0.0337987
0.000854505 0.123583 0.0598611
0.0117037 0.126833 0.0627146
0.0245365 0.129305 0.0650034
0.0417334 0.131426 0.0657664
0.0834211 0.13257 0.0653086
0.198032 0.128084 0.0611887
0.24802 0.130282 0.0585031
0.297856 0.132815 0.05449
0.345571 0.135622 0.049012
0.39379 0.137621 0.0424964
0.442115 0.13872 0.0388037
0.491295 0.139467 0.0386816
0.53933 0.139849 0.0384985
0.585641 0.14078 0.0383459
0.629831 0.142351 0.0382086
0.673167 0.144167 0.0381018
0.715679 0.145632 0.0378119
0.0193637 0.14725 0.0570687
0.0116121 0.157275 0.0619516
0.0248417 0.160784 0.0649424
0.0418555 0.163195 0.0652628
0.0745251 0.164767 0.0656443
0.200015 0.158526 0.0614176
0.255299 0.159747 0.0565042
0.304829 0.162799 0.0508583
0.353231 0.165713 0.0449836
0.401938 0.167987 0.0406653
0.450858 0.170062 0.04065
0.500099 0.172717 0.0406348
0.547677 0.174975 0.0405737
0.593515 0.177462 0.0404822
0.636744 0.180377 0.0403906
0.679759 0.183154 0.0404212
0.721675 0.185306 0.0403754
0.019852 0.179889 0.0574502
0.0312047 0.184268 0.060502
0.0448463 0.18793 0.0623178
0.0758526 0.190051 0.0632944
0.140368 0.192752 0.0623178
0.199847 0.193469 0.0608072
0.258442 0.1935 0.057084
0.310475 0.194629 0.0477302
0.361654 0.196109 0.042649
0.412497 0.198795 0.0423896
0.462501 0.201846 0.0424964
0.512032 0.20499 0.0425422
0.558526 0.20853 0.0424506
0.602441 0.212634 0.0423743
0.64509 0.216358 0.0423743
0.686656 0.219486 0.0423896
0.726589 0.222293 0.0424201
0.0202029 0.213016 0.0579843
0.0316014 0.217853 0.0607309
0.0450141 0.221378 0.0620127
0.0704662 0.223804 0.0628977
0.132097 0.22707 0.0630655
0.200824 0.231037 0.0572061
0.259602 0.231296 0.0548867
0.313573 0.23093 0.0473793
0.367987 0.230106 0.043595
0.422827 0.231815 0.0438087
0.47396 0.234684 0.0439765
0.522744 0.238605 0.0440528
0.568292 0.243168 0.0441596
0.611353 0.24741 0.0442054
0.65243 0.250965 0.0442054
0.691844 0.254047 0.0442969
0.730724 0.257496 0.0442512
0.0205081 0.246845 0.0590982
0.0319524 0.252232 0.0615854
0.0453498 0.256138 0.0628672
0.0670481 0.25861 0.0623484
0.124895 0.262211 0.0633555
0.203326 0.267735 0.0547341
0.265141 0.271397 0.0458839
0.318441 0.270741 0.0446784
0.374411 0.269093 0.0449836
0.430869 0.269413 0.0451057
0.484077 0.270222 0.045304
0.532509 0.273365 0.0454414
0.575982 0.277745 0.045594
0.617746 0.281971 0.045716
0.657343 0.285908 0.0458381
0.695628 0.289921 0.0459754
0.733471 0.294026 0.0461128
0.0209049 0.282155 0.0611734
0.0323796 0.287541 0.0634012
0.0457465 0.2916 0.0638132
0.0666514 0.294392 0.0617227
0.121294 0.297978 0.0621042
0.20589 0.305013 0.0539559
0.275975 0.310796 0.0455177
0.328649 0.314183 0.0457923
0.383902 0.312078 0.0461433
0.441062 0.311223 0.0464332
0.493767 0.310735 0.0467536
0.541436 0.311391 0.0467689
0.584436 0.314122 0.0469368
0.625025 0.317632 0.0471351
0.662806 0.321889 0.0472877
0.701198 0.326253 0.0474556
0.737835 0.330465 0.0476692
0.0212253 0.317632 0.0626383
0.0327459 0.323018 0.0644388
0.0462348 0.32755 0.0643015
0.06804 0.330495 0.0608682
0.121691 0.334783 0.0596628
0.206561 0.341772 0.0534829
0.284062 0.350881 0.0462348
0.342519 0.356252 0.0467384
0.396811 0.360159 0.0471809
0.452399 0.356756 0.0475013
0.506325 0.355047 0.0478523
0.552605 0.355932 0.0481117
0.595407 0.357031 0.0483558
0.633631 0.358663 0.0485847
0.670848 0.360723 0.0486
0.708263 0.363836 0.0488289
0.743694 0.367453 0.049073
0.0215915 0.353277 0.0639048
0.0331579 0.359091 0.065568
0.0466926 0.364248 0.0641642
0.0678416 0.367269 0.0589456
0.125231 0.372946 0.0561837
0.209567 0.380041 0.0521096
0.28954 0.391287 0.047364
0.356924 0.399481 0.0477302
0.411597 0.405753 0.048188
0.466743 0.408515 0.0485847
0.51841 0.402884 0.0489967
0.564004 0.402274 0.0493324
0.60679 0.402884 0.0495918
0.644022 0.403265 0.0498512
0.680247 0.404501 0.0501106
0.715084 0.405112 0.05037
0.750332 0.406806 0.0506447
0.0218967 0.38967 0.0654612
0.0334936 0.395987 0.0668345
0.0470588 0.40119 0.0624399
0.068864 0.404807 0.0555276
0.129717 0.411475 0.0513008
0.212985 0.418891 0.049424
0.293797 0.4309 0.0481422
0.36817 0.442618 0.0486915
0.426688 0.449622 0.0491798
0.481193 0.458198 0.0496376
0.531136 0.459312 0.0499733
0.574136 0.453086 0.0502785
0.616175 0.451286 0.0506142
0.653391 0.450996 0.0509041
0.689326 0.451164 0.0511788
0.723354 0.450767 0.0515145
0.757626 0.450828 0.0518044
0.0223392 0.426612 0.0667735
0.0339818 0.433158 0.0673838
0.0475776 0.438117 0.0614786
0.0720836 0.442725 0.0509194
0.13402 0.450095 0.0480964
0.2177 0.458228 0.0483406
0.298695 0.470909 0.0488441
0.376349 0.485863 0.0494392
0.44062 0.495354 0.0500038
0.491051 0.503166 0.0504768
0.54464 0.514885 0.0508888
0.586908 0.511559 0.0513313
0.625803 0.503304 0.0516365
0.662699 0.500603 0.0519417
0.698436 0.499184 0.0521859
0.732082 0.497612 0.0525521
0.765438 0.496773 0.052903
0.0227054 0.463447 0.0675975
0.0343786 0.469902 0.0661021
0.0480049 0.474922 0.0585184
0.0758068 0.480949 0.0483253
0.138552 0.489601 0.0482032
0.22211 0.498939 0.0489357
0.302632 0.512383 0.0496376
0.381826 0.528725 0.0501717
0.449928 0.54081 0.0507362
0.502892 0.548409 0.0512245
0.549416 0.557366 0.0517128
0.59733 0.5664 0.0521248
0.636164 0.562173 0.0525368
0.673426 0.553704 0.0529488
0.708736 0.549615 0.0533608
0.741344 0.546883 0.0536355
0.773785 0.544884 0.0538796
0.0231022 0.500847 0.0687266
0.0348211 0.507485 0.0653697
0.0484779 0.513039 0.0558938
0.0792706 0.520409 0.0483558
0.138338 0.530251 0.0488899
0.224674 0.540627 0.0497292
0.306325 0.553979 0.0504463
0.385626 0.56997 0.0511025
0.456977 0.585046 0.0516365
0.513191 0.594644 0.0519875
0.557885 0.601892 0.052491
0.604334 0.612375 0.052903
0.647547 0.618723 0.0532845
0.682841 0.611749 0.0537118
0.718898 0.603128 0.054139
0.75108 0.597879 0.0545968
0.782696 0.594064 0.0549935
0.0237583 0.539727 0.0710918
0.0354772 0.54583 0.0643015
0.0490578 0.551705 0.0535744
0.083238 0.559579 0.048661
0.140429 0.570214 0.0496376
0.226963 0.580835 0.0505379
0.308736 0.593851 0.0512703
0.387915 0.609705 0.0519417
0.461433 0.627451 0.052491
0.520943 0.639536 0.0530251
0.568276 0.647501 0.0535592
0.610681 0.654093 0.0540169
0.653758 0.662928 0.0542153
0.692622 0.665782 0.0545968
0.727199 0.6598 0.055024
0.761105 0.651423 0.0554665
0.793256 0.645884 0.0558938
0.0243534 0.577661 0.072282
0.0361181 0.583734 0.0628519
0.0507057 0.590036 0.0525521
0.0883192 0.598489 0.0496834
0.144106 0.60943 0.0506752
0.229358 0.620432 0.0513771
0.311192 0.633448 0.0521553
0.390127 0.649836 0.0528115
0.463706 0.667872 0.0533761
0.526726 0.682033 0.0538949
0.575891 0.690761 0.0544442
0.619425 0.696544 0.054902
0.657801 0.701717 0.0553445
0.69955 0.710781 0.0556802
0.736477 0.712657 0.0560616
0.768872 0.706477 0.0563516
0.802274 0.698711 0.0567941
0.0233005 0.0587778 0.0778973
0.0380407 0.0595712 0.0784772
0.0635691 0.0599985 0.0780652
0.103334 0.0594949 0.0751049
0.144305 0.0578164 0.0704204
0.187076 0.0554818 0.0647593
0.231144 0.0541543 0.059556
0.275822 0.0533761 0.0541543
0.32047 0.05243 0.0471656
0.365209 0.0513924 0.0391241
0.411688 0.0499275 0.0336461
0.459007 0.0485389 0.0325017
0.505776 0.0466926 0.0315557
0.551766 0.0457771 0.0308537
0.594797 0.0458839 0.0302129
0.636225 0.0464485 0.0298466
0.676539 0.0475013 0.0294957
0.0225986 0.0749676 0.0801099
0.0349279 0.0760662 0.0811322
0.0569772 0.0769513 0.081117
0.0982681 0.0772869 0.0793469
0.142367 0.0773175 0.0760967
0.188098 0.0765087 0.0719005
0.234836 0.0764477 0.0677501
0.282963 0.0768292 0.0632792
0.330953 0.0775158 0.0573129
0.377935 0.0776226 0.0499428
0.425895 0.0771344 0.0426642
0.474327 0.0759289 0.0422522
0.521904 0.0741436 0.0419318
0.568597 0.0730755 0.0415656
0.613489 0.0728008 0.0412757
0.656138 0.07364 0.0409705
0.697612 0.0747539 0.040589
0.0191043 0.0955215 0.080705
0.0128328 0.102586 0.0835126
0.0249485 0.103502 0.0847791
0.0921645 0.0992905 0.082826
0.140826 0.101106 0.0818799
0.191592 0.102541 0.0798199
0.241794 0.104372 0.0770581
0.292958 0.105669 0.0729381
0.343008 0.107042 0.0673381
0.391531 0.107805 0.059968
0.439429 0.107851 0.0520333
0.488243 0.106691 0.0503548
0.535592 0.10518 0.0500954
0.582223 0.104387 0.049836
0.626734 0.104707 0.0496071
0.670298 0.105791 0.0493935
0.712978 0.106935 0.0492409
0.00140383 0.125978 0.0798199
0.0122835 0.129061 0.0823529
0.0250706 0.131212 0.0839094
0.0418097 0.133043 0.0848859
0.076463 0.134844 0.0847791
0.194339 0.13135 0.0821698
0.246754 0.133959 0.0800336
0.299138 0.1364 0.0761273
0.348974 0.138598 0.0708476
0.398001 0.140215 0.0632334
0.446708 0.140871 0.0558175
0.496147 0.141085 0.0540932
0.544167 0.14049 0.0538338
0.590585 0.140673 0.0535897
0.634485 0.141573 0.0534524
0.677836 0.142885 0.0533455
0.720409 0.144503 0.0532387
0.00105287 0.155642 0.0782635
0.0123293 0.159884 0.0811017
0.0255589 0.163043 0.0838178
0.0423133 0.16582 0.0847486
0.0697032 0.167666 0.0841688
0.135607 0.168399 0.082536
0.25417 0.163256 0.0778363
0.306371 0.166369 0.0732738
0.356023 0.169253 0.0674144
0.404974 0.171832 0.0606699
0.454368 0.173907 0.0564126
0.503929 0.175937 0.0560769
0.552254 0.177462 0.0560464
0.598795 0.178882 0.0559548
0.642496 0.180591 0.0558633
0.685252 0.18265 0.0557565
0.726864 0.184634 0.0556344
0.0204776 0.182269 0.0762951
0.0318303 0.186877 0.0796979
0.0451209 0.190951 0.0816815
0.0427863 0.199222 0.0848707
0.1337 0.195392 0.0812085
0.198276 0.196902 0.0796216
0.259236 0.197162 0.077409
0.313985 0.198215 0.069688
0.364599 0.2 0.0621042
0.414786 0.202548 0.0581216
0.465629 0.205325 0.0577859
0.515312 0.208362 0.0578164
0.56289 0.211215 0.057847
0.607645 0.214343 0.057847
0.65069 0.217365 0.057847
0.692576 0.220569 0.0578775
0.732891 0.223331 0.057908
0.0209506 0.215228 0.0769207
0.0323186 0.220691 0.0801251
0.045594 0.224537 0.0813001
0.0652628 0.226871 0.0805829
0.12285 0.229755 0.0813764
0.198474 0.234394 0.076585
0.260777 0.234791 0.0749981
0.317388 0.234318 0.0684977
0.37113 0.233692 0.0601663
0.426062 0.235187 0.0592966
0.47744 0.238132 0.0594492
0.526833 0.241398 0.0595254
0.572381 0.245151 0.0594949
0.616159 0.249653 0.0595407
0.658488 0.253132 0.0595865
0.698421 0.257038 0.0596933
0.737881 0.2607 0.0598001
0.0212863 0.248493 0.0776684
0.0327459 0.255268 0.0810407
0.046128 0.259831 0.0818799
0.064332 0.262318 0.0806439
0.112322 0.265507 0.0811017
0.197757 0.270863 0.0753796
0.266407 0.27509 0.0654307
0.321004 0.274388 0.0626688
0.377386 0.272465 0.0605325
0.434516 0.272358 0.0606088
0.488151 0.273213 0.0608377
0.537301 0.275944 0.0609903
0.582116 0.280507 0.0611429
0.624659 0.285176 0.0612802
0.66421 0.288838 0.0611887
0.702998 0.292988 0.061326
0.741146 0.297353 0.0614786
0.0216068 0.283757 0.07953
0.0330968 0.290822 0.0824598
0.04654 0.295079 0.0823224
0.0645304 0.297871 0.0799878
0.10782 0.30132 0.0800641
0.197436 0.307805 0.0754711
0.277623 0.315022 0.0610971
0.331228 0.318059 0.0611276
0.386404 0.315999 0.0614939
0.444144 0.314183 0.0617838
0.497688 0.313924 0.062089
0.547005 0.314427 0.0622721
0.590967 0.317769 0.062501
0.631495 0.321752 0.0626535
0.669566 0.326192 0.0628519
0.707591 0.330892 0.0630198
0.74345 0.335149 0.0632486
0.021912 0.319753 0.0810559
0.0334478 0.32639 0.0832532
0.0469368 0.330663 0.0825513
0.0651408 0.334005 0.0787976
0.108415 0.338125 0.0777142
0.198093 0.344594 0.0747082
0.282719 0.354253 0.0617838
0.345235 0.360388 0.0622721
0.400107 0.364553 0.0626841
0.456123 0.361074 0.0630503
0.510262 0.358709 0.0632792
0.557946 0.358999 0.0634623
0.601053 0.360555 0.0637217
0.639307 0.362234 0.0639506
0.675853 0.364752 0.0641794
0.711559 0.367941 0.0644083
0.746426 0.371603 0.0646525
0.0224002 0.3561 0.0827802
0.0339818 0.362661 0.0846571
0.0475166 0.367758 0.0835584
0.0653391 0.371069 0.0765393
0.111452 0.376242 0.0745556
0.201343 0.382712 0.0727245
0.286152 0.393637 0.0627146
0.359396 0.403357 0.0632792
0.414603 0.409323 0.0637064
0.4701 0.412848 0.0641489
0.523064 0.406897 0.0645457
0.569772 0.406531 0.0648966
0.613214 0.40705 0.0651713
0.649668 0.407141 0.0653239
0.684627 0.408515 0.0654765
0.717739 0.408499 0.0657816
0.752392 0.410224 0.0660563
0.0227207 0.392584 0.0843977
0.0343328 0.399313 0.0856641
0.0478981 0.404746 0.082948
0.0658579 0.408408 0.0742046
0.117388 0.414923 0.0705425
0.207111 0.422019 0.0685893
0.290318 0.433402 0.0636149
0.36875 0.44625 0.0640879
0.430823 0.453956 0.0645762
0.485023 0.462654 0.0650034
0.535409 0.46453 0.0654612
0.579828 0.458076 0.0658427
0.621988 0.455924 0.0661936
0.658412 0.45539 0.0664836
0.693309 0.455253 0.0667735
0.726207 0.454536 0.0670329
0.759854 0.454383 0.0673686
0.0230564 0.429343 0.0857404
0.0347143 0.436179 0.0864729
0.0483101 0.441642 0.0814984
0.0666361 0.445502 0.0706188
0.123735 0.453223 0.0658732
0.212772 0.461662 0.0640879
0.295827 0.473701 0.0644236
0.376486 0.489754 0.0650187
0.444587 0.500618 0.065507
0.495766 0.50782 0.0659648
0.548684 0.5187 0.0663005
0.592401 0.516854 0.0666972
0.630411 0.508507 0.0670939
0.666194 0.505135 0.0674601
0.701762 0.503456 0.0677653
0.734874 0.501549 0.0681315
0.767742 0.500557 0.0684977
0.0235599 0.466423 0.0871138
0.0352178 0.47335 0.0866407
0.0488441 0.478721 0.0795605
0.0687724 0.483772 0.0671702
0.128374 0.492988 0.0636606
0.216373 0.502556 0.0644388
0.299245 0.51516 0.0651408
0.381064 0.531518 0.0657511
0.453117 0.545754 0.0663005
0.508888 0.554238 0.066804
0.555047 0.562448 0.067277
0.602869 0.571801 0.067689
0.641627 0.568154 0.0678874
0.676585 0.558083 0.0683146
0.711208 0.553399 0.0686961
0.743511 0.5505 0.0690776
0.775814 0.548409 0.0694591
0.0239872 0.503899 0.0886091
0.0356909 0.511559 0.0872969
0.0493477 0.517342 0.0773175
0.0737621 0.523888 0.0655375
0.128649 0.534066 0.0644541
0.218845 0.543908 0.065095
0.302922 0.556481 0.0658732
0.383871 0.571786 0.0664836
0.458427 0.588785 0.0670329
0.518502 0.600381 0.0675669
0.564279 0.607813 0.0680552
0.608438 0.616983 0.0684825
0.651133 0.62327 0.068864
0.686473 0.616632 0.0693217
0.721263 0.607202 0.069749
0.752895 0.601205 0.0699779
0.784298 0.597284 0.0703593
0.0245212 0.542794 0.0912795
0.0362554 0.549996 0.0866407
0.0499428 0.555749 0.0755322
0.0778668 0.562905 0.0642405
0.131365 0.573602 0.0652171
0.221424 0.584466 0.0661173
0.305653 0.596704 0.066865
0.386328 0.61236 0.0675212
0.461433 0.630137 0.0679332
0.525154 0.644083 0.0684367
0.573083 0.65243 0.068925
0.614664 0.658595 0.0693828
0.656687 0.666545 0.0697795
0.695537 0.669795 0.070161
0.729656 0.663661 0.0705882
0.763134 0.654765 0.071046
0.795132 0.649165 0.0715038
0.0252537 0.581155 0.0935225
0.0369116 0.588205 0.0856336
0.0506447 0.593256 0.0742504
0.0834669 0.601511 0.0652781
0.136645 0.612299 0.0661021
0.223865 0.624018 0.0669566
0.307805 0.636439 0.0677501
0.388144 0.652842 0.0684062
0.463294 0.670497 0.0690013
0.530434 0.686519 0.0695048
0.580545 0.69572 0.0700084
0.623453 0.700938 0.0703441
0.660975 0.705394 0.0706951
0.701457 0.71342 0.0710765
0.738216 0.715526 0.071458
0.770642 0.709758 0.0719005
0.804013 0.701839 0.072343
0.0221103 0.0590829 0.0978866
0.0348669 0.0599832 0.0989395
0.0589609 0.0603494 0.09897
0.102876 0.0601511 0.0959487
0.144839 0.0588846 0.091371
0.188998 0.0568093 0.0860151
0.233783 0.0549783 0.0801862
0.280446 0.0536965 0.0742657
0.326268 0.0525063 0.0675517
0.372854 0.0515602 0.0600137
0.419623 0.0501106 0.0530404
0.467079 0.0485084 0.0510109
0.514565 0.0466468 0.0501717
0.561883 0.0453956 0.049546
0.607156 0.0452735 0.049134
0.649393 0.0452583 0.0487678
0.688807 0.0463874 0.0484321
0.0222171 0.0754864 0.101076
0.0332036 0.0766461 0.102449
0.0527199 0.0773938 0.1028
0.0955673 0.0780041 0.100938
0.14139 0.0778973 0.0972152
0.188708 0.0767681 0.092607
0.236576 0.0758831 0.0879377
0.286275 0.0757916 0.0829328
0.334844 0.0760815 0.0768292
0.383719 0.0758221 0.0699626
0.432609 0.0751049 0.0614786
0.480461 0.074052 0.0610666
0.528603 0.0727398 0.0606394
0.575692 0.0711986 0.0602731
0.620951 0.0708476 0.0599069
0.66479 0.070573 0.0596323
0.707347 0.0716564 0.0593881
0.0219425 0.0955825 0.10338
0.0319829 0.097322 0.105226
0.0475013 0.0987716 0.10631
0.085832 0.100908 0.106325
0.136751 0.103243 0.105119
0.189303 0.104555 0.103349
0.241566 0.106111 0.100191
0.294453 0.107256 0.0953536
0.346197 0.108003 0.0899519
0.39678 0.108614 0.0831464
0.445487 0.108354 0.0736095
0.494133 0.106554 0.0692149
0.541604 0.103914 0.0689403
0.588357 0.102541 0.0686809
0.632975 0.10248 0.068452
0.676524 0.102586 0.0681926
0.71873 0.10367 0.0679332
0.0207218 0.121828 0.10222
0.0264439 0.126619 0.105547
0.0254978 0.133944 0.109346
0.0419928 0.135134 0.110109
0.124651 0.132464 0.108537
0.188403 0.134874 0.108583
0.243076 0.137621 0.106615
0.299092 0.140063 0.102403
0.351507 0.141283 0.0971847
0.401953 0.142138 0.089601
0.451575 0.142229 0.0788739
0.500755 0.14139 0.0727855
0.549371 0.140246 0.0726329
0.59617 0.139345 0.0724804
0.640101 0.139452 0.0722972
0.683742 0.140063 0.072221
0.726085 0.141314 0.0721141
0.00900282 0.156847 0.102892
0.0128481 0.163699 0.107866
0.0260014 0.166323 0.109773
0.042649 0.168124 0.109804
0.0628672 0.170214 0.109071
0.12372 0.171435 0.107591
0.249393 0.168109 0.105791
0.305547 0.171542 0.102342
0.357671 0.174426 0.0975357
0.408209 0.176547 0.0897841
0.458335 0.17818 0.080766
0.508019 0.178775 0.0749828
0.556786 0.178973 0.0747539
0.604166 0.179019 0.0746471
0.648035 0.179583 0.0746014
0.69099 0.180819 0.0745403
0.732799 0.182132 0.0745251
0.0210422 0.18526 0.100862
0.0324102 0.189853 0.104631
0.0266728 0.199847 0.110002
0.0433661 0.201984 0.109651
0.0619059 0.204166 0.107576
0.109804 0.205661 0.106233
0.256504 0.201205 0.104005
0.314626 0.202533 0.0980087
0.366918 0.204608 0.0902571
0.417594 0.207111 0.0829328
0.468559 0.209705 0.0774395
0.518746 0.211978 0.0767376
0.567361 0.214038 0.0767681
0.612894 0.216022 0.0767681
0.656214 0.21799 0.0767681
0.698528 0.220386 0.0766766
0.739376 0.22269 0.0767071
0.0214237 0.217304 0.100984
0.0328374 0.223377 0.104738
0.0461891 0.227924 0.106401
0.062974 0.23061 0.104631
0.105104 0.23299 0.103746
0.191241 0.237903 0.100862
0.259525 0.238834 0.0991226
0.320592 0.238117 0.0961013
0.374548 0.237049 0.0848554
0.428244 0.238926 0.0780041
0.480217 0.241718 0.078172
0.530755 0.244404 0.078294
0.577737 0.247547 0.0784009
0.622034 0.250492 0.0784619
0.66508 0.254749 0.0784924
0.705501 0.258701 0.0786145
0.745312 0.262379 0.0787366
0.0218967 0.249577 0.101472
0.0332341 0.257649 0.105531
0.0466316 0.263432 0.107134
0.0634165 0.266163 0.104829
0.0946517 0.268574 0.103243
0.185946 0.274128 0.100404
0.265797 0.279484 0.0915389
0.323964 0.278965 0.0890364
0.380194 0.276661 0.0835584
0.43769 0.275746 0.0795148
0.492058 0.275959 0.0796216
0.541817 0.27863 0.0797742
0.587381 0.282536 0.0798962
0.630823 0.287129 0.0799878
0.671809 0.291722 0.0801099
0.71104 0.295659 0.0802472
0.749416 0.299794 0.0804456
0.0222171 0.284642 0.10312
0.0337224 0.293446 0.106981
0.0471656 0.299062 0.108003
0.06392 0.301747 0.104509
0.0930037 0.304692 0.102403
0.18024 0.310414 0.100832
0.27248 0.318669 0.0879988
0.332723 0.32221 0.080415
0.387747 0.320562 0.0804913
0.447181 0.317678 0.0807355
0.502892 0.316533 0.0810101
0.552132 0.317449 0.081239
0.597284 0.320729 0.0814069
0.639185 0.32491 0.0815137
0.677943 0.329122 0.0815595
0.715877 0.333379 0.0817884
0.752544 0.337926 0.0819715
0.0225376 0.320653 0.104829
0.0340887 0.329213 0.108049
0.0475776 0.33489 0.108446
0.0644541 0.338384 0.104005
0.0935225 0.342 0.100649
0.18114 0.347662 0.10013
0.27512 0.357259 0.0883955
0.345876 0.36437 0.0809796
0.40206 0.368887 0.0814374
0.458579 0.365103 0.0818036
0.514046 0.361883 0.0821546
0.562905 0.3617 0.0824292
0.607431 0.363531 0.0826734
0.646845 0.364797 0.0829023
0.684398 0.367483 0.0831311
0.720729 0.371786 0.0833295
0.755825 0.375982 0.0835431
0.0229343 0.357183 0.106355
0.0345159 0.365774 0.109499
0.0480507 0.371939 0.109133
0.0649729 0.37557 0.102235
0.0968948 0.380056 0.0985275
0.186435 0.386252 0.0966659
0.277699 0.396445 0.0881971
0.358648 0.407431 0.0821851
0.418387 0.413458 0.0826581
0.47245 0.417151 0.0830243
0.525872 0.41088 0.083299
0.574258 0.409567 0.0836347
0.618021 0.4103 0.0839094
0.656489 0.410361 0.0841688
0.693217 0.411688 0.0844282
0.726314 0.412924 0.0846876
0.759075 0.415213 0.085008
0.0233768 0.39472 0.10837
0.0350042 0.402991 0.110857
0.0485389 0.408988 0.109194
0.0654154 0.412512 0.099733
0.10161 0.418082 0.0946059
0.192935 0.425528 0.0917525
0.281804 0.435737 0.0865949
0.366201 0.449454 0.0829938
0.433783 0.458808 0.0834821
0.488701 0.467063 0.0839551
0.539956 0.469917 0.0843977
0.58529 0.463172 0.0847944
0.628931 0.460365 0.0850996
0.665476 0.459113 0.0852216
0.701839 0.459358 0.0855421
0.733928 0.458854 0.085832
0.765118 0.458732 0.086183
0.0237278 0.432105 0.110399
0.0353857 0.439719 0.111864
0.0489967 0.445701 0.108782
0.0662394 0.449638 0.0971847
0.108614 0.456352 0.0905623
0.199802 0.465217 0.0874037
0.287358 0.475685 0.083299
0.372564 0.491981 0.0837568
0.444999 0.504753 0.0843061
0.500404 0.51281 0.0847791
0.55256 0.522942 0.0852369
0.597894 0.522591 0.0856336
0.637919 0.514412 0.0860304
0.673838 0.510567 0.0863966
0.70956 0.508888 0.0867018
0.741146 0.50631 0.0869306
0.772641 0.505165 0.0872358
0.0241245 0.469154 0.112108
0.0358129 0.476539 0.11252
0.0494392 0.483284 0.107591
0.067628 0.488029 0.0941329
0.113573 0.496574 0.0864424
0.204379 0.506691 0.0834821
0.292241 0.51783 0.084062
0.376745 0.533928 0.0847486
0.452262 0.54876 0.085069
0.513527 0.559609 0.0855879
0.560876 0.56759 0.0860456
0.608835 0.577111 0.0864118
0.648676 0.574411 0.0868238
0.682658 0.564034 0.0872358
0.716258 0.558679 0.0876326
0.748241 0.555596 0.088014
0.779889 0.553079 0.0883955
0.0246738 0.507057 0.114595
0.0363012 0.515053 0.114443
0.0499428 0.522057 0.106355
0.0693675 0.527794 0.0924544
0.117403 0.537255 0.0840772
0.207599 0.547845 0.0840467
0.295766 0.559045 0.0847791
0.378836 0.574441 0.0854353
0.456992 0.591531 0.0859846
0.522499 0.605249 0.0865034
0.571572 0.613596 0.0869917
0.61471 0.6224 0.0872969
0.656962 0.629175 0.0876173
0.692348 0.622995 0.0880293
0.725307 0.612268 0.0884718
0.756191 0.605661 0.0888991
0.78735 0.60148 0.0892958
0.0252232 0.546014 0.118029
0.0369726 0.553933 0.116655
0.0506447 0.560555 0.106188
0.0715953 0.566812 0.090837
0.121675 0.576593 0.084062
0.209674 0.587839 0.0848554
0.298482 0.599298 0.0856489
0.380728 0.614954 0.086305
0.459037 0.63267 0.0868544
0.528099 0.648417 0.0873579
0.5794 0.65832 0.0878462
0.622034 0.66508 0.0882887
0.661936 0.671778 0.088716
0.700359 0.675227 0.0890822
0.733867 0.668681 0.0894636
0.765332 0.657923 0.0898146
0.796765 0.652216 0.0902419
0.0258335 0.584237 0.121111
0.0375982 0.592126 0.118654
0.0513008 0.598199 0.106233
0.0753185 0.605005 0.0894179
0.12604 0.61529 0.0851148
0.212894 0.627573 0.0859083
0.300847 0.639612 0.0866865
