public/sampleLut/20.cube
TITLE "Generated by Resolve"
LUT_3D_SIZE 9
0.0247349 0.0582284 0.0616465
0.0665751 0.0592203 0.0609445
0.144808 0.0575418 0.0542153
0.23006 0.0548104 0.0442359
0.316747 0.053315 0.031281
0.405615 0.0502174 0.0181125
0.498817 0.0472114 0.0160983
0.585977 0.0464485 0.0147097
0.670542 0.0476692 0.0139467
0.00263981 0.0994583 0.0635843
0.0247654 0.101976 0.0657816
0.144518 0.0984207 0.062501
0.241627 0.101579 0.0573587
0.338949 0.104799 0.047425
0.434363 0.106279 0.0353094
0.530678 0.105257 0.0348821
0.621363 0.105318 0.034165
0.707195 0.1084 0.0337987
0.0193637 0.14725 0.0570687
0.0248417 0.160784 0.0649424
0.0745251 0.164767 0.0656443
0.255299 0.159747 0.0565042
0.353231 0.165713 0.0449836
0.450858 0.170062 0.04065
0.547677 0.174975 0.0405737
0.636744 0.180377 0.0403906
0.721675 0.185306 0.0403754
0.0202029 0.213016 0.0579843
0.0450141 0.221378 0.0620127
0.132097 0.22707 0.0630655
0.259602 0.231296 0.0548867
0.367987 0.230106 0.043595
0.47396 0.234684 0.0439765
0.568292 0.243168 0.0441596
0.65243 0.250965 0.0442054
0.730724 0.257496 0.0442512
0.0209049 0.282155 0.0611734
0.0457465 0.2916 0.0638132
0.121294 0.297978 0.0621042
0.275975 0.310796 0.0455177
0.383902 0.312078 0.0461433
0.493767 0.310735 0.0467536
0.584436 0.314122 0.0469368
0.662806 0.321889 0.0472877
0.737835 0.330465 0.0476692
0.0215915 0.353277 0.0639048
0.0466926 0.364248 0.0641642
0.125231 0.372946 0.0561837
0.28954 0.391287 0.047364
0.411597 0.405753 0.048188
0.51841 0.402884 0.0489967
0.60679 0.402884 0.0495918
0.680247 0.404501 0.0501106
0.750332 0.406806 0.0506447
0.0223392 0.426612 0.0667735
0.0475776 0.438117 0.0614786
0.13402 0.450095 0.0480964
0.298695 0.470909 0.0488441
0.44062 0.495354 0.0500038
0.54464 0.514885 0.0508888
0.625803 0.503304 0.0516365
0.698436 0.499184 0.0521859
0.765438 0.496773 0.052903
0.0231022 0.500847 0.0687266
0.0484779 0.513039 0.0558938
0.138338 0.530251 0.0488899
0.306325 0.553979 0.0504463
0.456977 0.585046 0.0516365
0.557885 0.601892 0.052491
0.647547 0.618723 0.0532845
0.718898 0.603128 0.054139
0.782696 0.594064 0.0549935
0.0243534 0.577661 0.072282
0.0507057 0.590036 0.0525521
0.144106 0.60943 0.0506752
0.311192 0.633448 0.0521553
0.463706 0.667872 0.0533761
0.575891 0.690761 0.0544442
0.657801 0.701717 0.0553445
0.736477 0.712657 0.0560616
0.802274 0.698711 0.0567941
0.0221103 0.0590829 0.0978866
0.0589609 0.0603494 0.09897
0.144839 0.0588846 0.091371
0.233783 0.0549783 0.0801862
0.326268 0.0525063 0.0675517
0.419623 0.0501106 0.0530404
0.514565 0.0466468 0.0501717
0.607156 0.0452735 0.049134
0.688807 0.0463874 0.0484321
0.0219425 0.0955825 0.10338
0.0475013 0.0987716 0.10631
0.136751 0.103243 0.105119
0.241566 0.106111 0.100191
0.346197 0.108003 0.0899519
0.445487 0.108354 0.0736095
0.541604 0.103914 0.0689403
0.632975 0.10248 0.068452
0.71873 0.10367 0.0679332
0.00900282 0.156847 0.102892
0.0260014 0.166323 0.109773
0.0628672 0.170214 0.109071
0.249393 0.168109 0.105791
0.357671 0.174426 0.0975357
0.458335 0.17818 0.080766
0.556786 0.178973 0.0747539
0.648035 0.179583 0.0746014
0.732799 0.182132 0.0745251
0.0214237 0.217304 0.100984
0.0461891 0.227924 0.106401
0.105104 0.23299 0.103746
0.259525 0.238834 0.0991226
0.374548 0.237049 0.0848554
0.480217 0.241718 0.078172
0.577737 0.247547 0.0784009
0.66508 0.254749 0.0784924
0.745312 0.262379 0.0787366
0.0222171 0.284642 0.10312
0.0471656 0.299062 0.108003
0.0930037 0.304692 0.102403
0.27248 0.318669 0.0879988
0.387747 0.320562 0.0804913
0.502892 0.316533 0.0810101
0.597284 0.320729 0.0814069
0.677943 0.329122 0.0815595
0.752544 0.337926 0.0819715
0.0229343 0.357183 0.106355
0.0480507 0.371939 0.109133
0.0968948 0.380056 0.0985275
0.277699 0.396445 0.0881971
0.418387 0.413458 0.0826581
0.525872 0.41088 0.083299
0.618021 0.4103 0.0839094
0.693217 0.411688 0.0844282
0.759075 0.415213 0.085008
0.0237278 0.432105 0.110399
0.0489967 0.445701 0.108782
0.108614 0.456352 0.0905623
0.287358 0.475685 0.083299
0.444999 0.504753 0.0843061
0.55256 0.522942 0.0852369
0.637919 0.514412 0.0860304
0.70956 0.508888 0.0867018
0.772641 0.505165 0.0872358
0.0246738 0.507057 0.114595
0.0499428 0.522057 0.106355
0.117403 0.537255 0.0840772
0.295766 0.559045 0.0847791
0.456992 0.591531 0.0859846
0.571572 0.613596 0.0869917
0.656962 0.629175 0.0876173
0.725307 0.612268 0.0884718
0.78735 0.60148 0.0892958
0.0258335 0.584237 0.121111
0.0513008 0.598199 0.106233
0.12604 0.61529 0.0851148
0.300847 0.639612 0.0866865
0.460105 0.672374 0.0877394
0.585351 0.700542 0.0887617
0.667185 0.711254 0.0896162
0.741527 0.719539 0.0903944
0.805447 0.704784 0.0912795
0.020676 0.0602579 0.15375
0.042771 0.0608835 0.154971
0.14313 0.0610819 0.149935
0.238926 0.0596323 0.139971
0.340597 0.0575723 0.128557
0.440467 0.0543832 0.110124
0.537209 0.0489662 0.101869
0.630961 0.0440986 0.100801
0.718196 0.0433814 0.100145
0.0213474 0.0966201 0.160128
0.0443275 0.101167 0.165774
0.135332 0.10547 0.167041
0.246677 0.110307 0.161578
0.358663 0.11107 0.153017
0.463981 0.109239 0.13521
0.561944 0.103624 0.120623
0.653025 0.0994278 0.120043
0.739193 0.0978714 0.119661
0.0208743 0.158175 0.171618
0.0454261 0.168048 0.184039
0.0824292 0.169329 0.184649
0.226963 0.176303 0.181537
0.354147 0.182269 0.175036
0.466636 0.181949 0.161456
0.565713 0.178088 0.143008
0.656168 0.173648 0.132326
0.741482 0.171618 0.126986
0.0218204 0.233646 0.184878
0.0465248 0.240482 0.1888
0.0623331 0.250172 0.189975
0.14992 0.251896 0.178164
0.373678 0.252766 0.177096
0.483711 0.258442 0.165499
0.58323 0.261021 0.150317
0.673075 0.264179 0.140551
0.756741 0.266743 0.135195
0.0226139 0.297246 0.17995
0.0475776 0.309972 0.188128
0.0825513 0.315373 0.179706
0.220737 0.324636 0.172
0.390082 0.332662 0.160281
0.506706 0.325948 0.142931
0.606256 0.327947 0.13637
0.692088 0.33463 0.133577
0.771344 0.343313 0.133822
0.0235142 0.362448 0.180102
0.0485389 0.38027 0.188067
0.08365 0.390158 0.177035
0.218036 0.402579 0.166827
0.414816 0.423011 0.13727
0.529061 0.422965 0.135622
0.628107 0.414343 0.13579
0.70779 0.412787 0.136263
0.780041 0.420691 0.136843
0.0242313 0.431296 0.182345
0.0495155 0.453895 0.190188
0.0860761 0.466133 0.172015
0.235859 0.48394 0.159609
0.428809 0.51136 0.139345
0.556497 0.529488 0.137057
0.648875 0.524361 0.13785
0.726406 0.513832 0.138582
0.792157 0.510674 0.139269
0.0252232 0.508782 0.18999
0.0506142 0.529427 0.19559
0.0897231 0.545205 0.166705
0.248676 0.567224 0.14844
0.435142 0.594858 0.140764
0.578058 0.622889 0.138827
0.670192 0.639918 0.139605
0.742519 0.625223 0.140291
0.80763 0.613718 0.141131
0.0264134 0.585779 0.200259
0.0518807 0.60621 0.202533
0.0929274 0.62208 0.15964
0.259159 0.648127 0.14139
0.439307 0.675258 0.139773
0.586664 0.706157 0.140642
0.682231 0.723278 0.141405
0.757839 0.733867 0.142168
0.82034 0.717662 0.143069
0.0194705 0.0630655 0.215564
0.0404059 0.0632029 0.216144
0.112001 0.0608988 0.214511
0.244022 0.0644388 0.20264
0.34963 0.0623941 0.192218
0.456565 0.0600748 0.178546
0.558068 0.0534371 0.160021
0.651789 0.0469215 0.156252
0.737285 0.0444038 0.155215
0.0206912 0.0999924 0.223011
0.0437934 0.106294 0.232105
0.0901656 0.106279 0.234287
0.250751 0.115892 0.227832
0.369802 0.117937 0.218463
0.482155 0.116213 0.208011
0.582635 0.109804 0.194278
0.672404 0.103151 0.185061
0.7561 0.0996109 0.179324
0.0209354 0.162448 0.237903
0.0455329 0.171649 0.249714
0.0801709 0.174853 0.255024
0.227131 0.181933 0.251331
0.362524 0.18761 0.244511
0.480766 0.186496 0.233051
0.58201 0.180133 0.219867
0.671199 0.175036 0.209186
0.754604 0.170871 0.201175
0.022034 0.23801 0.25835
0.0468147 0.252033 0.274891
0.0815137 0.260136 0.285618
0.142824 0.256046 0.277531
0.343709 0.265293 0.272129
0.478706 0.269535 0.26424
0.584543 0.267796 0.252567
0.675166 0.267399 0.245319
0.757687 0.266239 0.238926
0.0228428 0.328679 0.285817
0.0478065 0.346548 0.303731
0.0828107 0.344106 0.295964
0.1234 0.336049 0.269123
0.373587 0.346731 0.259007
0.50338 0.348821 0.265629
0.606104 0.355825 0.258839
0.695888 0.363729 0.254719
0.776104 0.37023 0.250996
0.0237736 0.408927 0.297002
0.0489204 0.413397 0.298528
0.0840467 0.414847 0.291005
0.125719 0.413169 0.261585
0.369787 0.433204 0.251804
0.524178 0.439963 0.24036
0.629526 0.430549 0.238209
0.715526 0.43299 0.222324
0.792996 0.442359 0.214694
0.0246738 0.47071 0.289357
0.049836 0.479789 0.295399
0.0851148 0.485756 0.2878
0.130587 0.493751 0.254261
0.374441 0.518486 0.24979
0.551949 0.540276 0.203235
0.652277 0.53817 0.199603
0.735103 0.526146 0.206455
0.806867 0.520867 0.198352
0.0255741 0.537942 0.291783
0.0509804 0.555154 0.30425
0.0863508 0.55935 0.289708
0.13933 0.575113 0.24828
0.384619 0.602502 0.245838
0.563043 0.630289 0.20705
0.673304 0.64567 0.194888
0.754772 0.636881 0.195712
0.825376 0.624506 0.196506
0.0269169 0.609155 0.301045
0.052369 0.626215 0.310124
0.0877394 0.632334 0.290257
0.157214 0.654093 0.240452
0.394537 0.682765 0.237247
0.566217 0.71014 0.212726
0.688853 0.730526 0.196826
0.770504 0.742931 0.197406
0.838026 0.730343 0.198291
0.0182193 0.0681621 0.282277
0.0392309 0.0678111 0.282856
0.0822614 0.0629587 0.279591
0.217182 0.066743 0.272816
0.357992 0.0683604 0.257237
0.473732 0.0644541 0.243305
0.573236 0.0581369 0.229831
0.667704 0.0505226 0.221256
0.753307 0.0460517 0.215915
0.0200961 0.106966 0.291752
0.0436103 0.113954 0.30164
0.0787518 0.112001 0.300603
0.217441 0.118303 0.301457
0.376761 0.124926 0.287388
0.495827 0.122179 0.275624
0.595941 0.11632 0.265095
0.686122 0.109377 0.253971
0.769985 0.105943 0.248753
0.0209354 0.169604 0.306279
0.0455482 0.179202 0.3187
0.0801709 0.185351 0.329747
0.159564 0.181491 0.327123
0.367193 0.193881 0.313436
0.491768 0.192554 0.302632
0.594812 0.188769 0.293996
0.684001 0.184985 0.287617
0.765881 0.182254 0.28249
0.0220951 0.244129 0.329656
0.0469062 0.258808 0.34725
0.0817121 0.265538 0.3579
0.119142 0.260426 0.355596
0.341344 0.270268 0.345998
0.484581 0.275303 0.338628
0.594614 0.272786 0.330098
0.683055 0.269902 0.323888
0.762951 0.268101 0.319432
0.0230869 0.332311 0.359564
0.0479591 0.350149 0.379217
0.0829633 0.362387 0.394476
0.120134 0.364996 0.399481
0.276692 0.358862 0.382803
0.476127 0.367803 0.376547
0.598245 0.371542 0.371679
0.690654 0.374929 0.368246
0.77142 0.377371 0.365316
0.0239719 0.432059 0.394568
0.049134 0.450919 0.41355
0.0842908 0.465721 0.42678
0.121599 0.460807 0.414237
0.20798 0.44506 0.366384
0.513817 0.459754 0.362402
0.626444 0.462425 0.373999
0.715648 0.47451 0.374395
0.793225 0.485328 0.374838
0.024918 0.527565 0.421485
0.0501869 0.538354 0.431037
0.0853895 0.53283 0.420966
0.12282 0.530251 0.404028
0.201282 0.528237 0.356756
0.522637 0.555657 0.349401
0.648234 0.560876 0.340597
0.734554 0.551934 0.353613
0.80975 0.554406 0.34902
0.0258488 0.598352 0.424094
0.0512703 0.602487 0.426612
0.086656 0.598459 0.416556
0.124193 0.60029 0.399054
0.21532 0.610651 0.350973
0.519127 0.639384 0.353628
0.667506 0.659403 0.318303
0.755199 0.65658 0.311192
0.827008 0.646036 0.332448
0.0272374 0.661204 0.421073
0.0527199 0.662791 0.421286
0.0881819 0.666362 0.417472
0.125643 0.666941 0.391653
0.244602 0.69015 0.343648
0.522286 0.718044 0.351598
0.674891 0.742123 0.325414
0.770657 0.754452 0.297032
0.845396 0.745769 0.278889
0.0169833 0.0742504 0.35024
0.038056 0.0733959 0.350149
0.0731365 0.0675822 0.344945
0.185153 0.0673991 0.345251
0.329122 0.0747082 0.331228
0.483162 0.0709697 0.311681
0.594003 0.0628519 0.297093
0.680751 0.0549477 0.285603
0.764599 0.0508888 0.279347
0.0195926 0.11516 0.362264
0.0432898 0.124086 0.374578
0.0774243 0.122393 0.374197
0.168734 0.120058 0.375219
0.345342 0.132387 0.362264
0.504814 0.129183 0.343359
0.611292 0.122545 0.332082
0.696117 0.116213 0.321599
0.779156 0.112825 0.316808
0.0210117 0.179095 0.378561
0.0455329 0.189273 0.391516
0.0801709 0.197574 0.406607
0.117601 0.187686 0.398856
0.328786 0.197574 0.39089
0.49836 0.198978 0.371481
0.604746 0.194308 0.361944
0.690791 0.192279 0.357565
0.772869 0.190936 0.354635
0.0221103 0.255299 0.404135
0.046952 0.270634 0.422629
0.0817884 0.276844 0.43241
0.118853 0.275471 0.437964
0.275196 0.270283 0.427985
0.486458 0.280018 0.408408
0.600351 0.279332 0.400549
0.689525 0.279637 0.399191
0.768582 0.279561 0.39736
0.0231785 0.339437 0.433494
0.048188 0.355581 0.452506
0.0830854 0.365881 0.466712
0.120272 0.369955 0.474525
0.19086 0.360571 0.46685
0.471138 0.372381 0.45153
0.601434 0.37705 0.447883
0.692439 0.378485 0.445899
0.770871 0.378958 0.443854
0.0241093 0.429389 0.462455
0.0492866 0.446784 0.481407
0.0844587 0.460258 0.496391
0.121782 0.474418 0.512749
0.162768 0.472648 0.50988
0.429557 0.474128 0.493507
0.602594 0.482856 0.491875
0.704738 0.491478 0.492714
0.785122 0.497688 0.491722
0.0251164 0.527214 0.4934
0.0504158 0.545434 0.51133
0.0857252 0.560693 0.526131
0.123064 0.575448 0.540444
0.161425 0.574838 0.526375
0.388159 0.566705 0.481422
0.636484 0.582193 0.481712
0.730358 0.58764 0.495354
0.808286 0.59823 0.497139
0.026215 0.624918 0.523812
0.0514992 0.640223 0.540581
0.0869001 0.64535 0.545556
0.124437 0.643885 0.53843
0.162905 0.641032 0.51133
0.373739 0.650752 0.474311
0.644511 0.674357 0.468772
0.748104 0.67834 0.460639
0.825208 0.673304 0.478904
0.0274815 0.706249 0.544915
0.0529793 0.712535 0.550454
0.0884565 0.707759 0.540368
0.12604 0.705333 0.528756
0.164431 0.704952 0.497185
0.388739 0.726879 0.466346
0.640452 0.7523 0.474601
0.761242 0.767742 0.450095
0.842008 0.766003 0.439429
0.0157168 0.0811627 0.419959
0.0369879 0.0809644 0.420203
0.0700847 0.0746471 0.414832
0.140612 0.068864 0.414954
0.309667 0.0803082 0.404562
0.45713 0.0816052 0.388281
0.600931 0.0692607 0.362188
0.698238 0.0620737 0.349004
0.776822 0.0575265 0.34374
0.0191653 0.125185 0.436194
0.0429694 0.135256 0.44918
0.0773022 0.13373 0.449195
0.12697 0.125826 0.446784
0.32253 0.136873 0.438636
0.476097 0.139284 0.421042
0.616648 0.128695 0.396689
0.70959 0.123339 0.386938
0.787976 0.120836 0.383917
0.0209201 0.188464 0.450782
0.0455634 0.199985 0.465339
0.0801862 0.211261 0.483635
0.116945 0.199145 0.475151
0.288594 0.199725 0.470436
0.462455 0.209094 0.451148
0.609232 0.201709 0.429694
0.699718 0.199268 0.423651
0.778286 0.19762 0.421164
0.0221866 0.267735 0.479667
0.046952 0.281422 0.496391
0.0818036 0.287358 0.505623
0.118837 0.291676 0.519249
0.204608 0.272892 0.503182
0.445457 0.286839 0.488823
0.601526 0.2851 0.468986
0.692851 0.285588 0.466194
0.770367 0.286366 0.466575
0.023209 0.347463 0.505898
0.048249 0.363897 0.52517
0.0832685 0.374731 0.539803
0.120378 0.379507 0.548363
0.161364 0.368093 0.548379
0.419745 0.371176 0.536645
0.596994 0.380591 0.517647
0.692287 0.385519 0.517876
0.769818 0.391241 0.524926
0.0243229 0.434699 0.535622
0.0494545 0.449973 0.553079
0.0845808 0.460014 0.565789
0.12192 0.47071 0.581018
0.160937 0.46894 0.583093
0.341054 0.47396 0.582376
0.591684 0.487114 0.568444
0.701701 0.4972 0.570306
0.781552 0.503365 0.57438
0.0252384 0.522881 0.559869
0.0505684 0.538949 0.576547
0.0858778 0.553262 0.592218
0.123339 0.568276 0.609796
0.161608 0.583108 0.622629
0.242298 0.583673 0.615351
0.577249 0.594476 0.60383
0.718044 0.605234 0.604822
0.801831 0.611399 0.60531
0.0263828 0.617761 0.58854
0.0518044 0.63389 0.605631
0.0871138 0.646174 0.61854
0.124636 0.658366 0.63093
0.163104 0.677089 0.644068
0.214389 0.67863 0.626474
0.560632 0.684291 0.597848
0.739803 0.695842 0.596643
0.821393 0.700328 0.607065
0.0277256 0.706828 0.614054
0.0531777 0.720058 0.628092
0.0886549 0.729015 0.638331
0.126253 0.733684 0.642329
0.164782 0.742367 0.640803
0.218692 0.742367 0.608911
0.555367 0.759731 0.589761
0.747631 0.779522 0.585443
0.836362 0.783475 0.578058
0.0143893 0.08925 0.491295
0.0359045 0.0890669 0.491478
0.0682536 0.082948 0.486015
0.117494 0.0754101 0.484092
0.292576 0.0832227 0.47863
0.435889 0.0895399 0.462959
0.58584 0.0817426 0.440742
0.702464 0.0700084 0.414481
0.788052 0.0681468 0.407752
0.0188144 0.134752 0.508843
0.04271 0.144762 0.52137
0.0771496 0.143694 0.522423
0.115831 0.134493 0.517464
0.297765 0.139696 0.514977
0.452537 0.147646 0.497337
0.600214 0.140429 0.475364
0.712505 0.131106 0.452033
0.79646 0.13196 0.452399
0.020798 0.197238 0.521721
0.0454566 0.211139 0.539071
0.0801556 0.223224 0.55761
0.117006 0.21294 0.55256
0.237339 0.202167 0.544945
0.436973 0.216342 0.527535
0.586282 0.214252 0.509544
0.701106 0.206607 0.491798
0.784527 0.209628 0.49836
0.0221561 0.277363 0.552041
0.0469673 0.290883 0.568063
0.0817884 0.296605 0.577661
0.118837 0.30547 0.596719
0.171206 0.280293 0.579187
0.416602 0.290303 0.569375
0.571542 0.295949 0.550317
0.690074 0.293599 0.542473
0.771298 0.298344 0.548043
0.023209 0.356985 0.578958
0.0482643 0.372213 0.596292
0.0833143 0.381109 0.608789
0.120531 0.387137 0.619425
0.159762 0.380301 0.628779
0.349416 0.37142 0.613397
0.560418 0.386358 0.60029
0.686183 0.390463 0.594644
0.766674 0.397467 0.600031
0.0243839 0.438224 0.603403
0.0495918 0.452979 0.620554
0.0847944 0.463523 0.633799
0.122026 0.475013 0.649943
0.160311 0.47776 0.658427
0.267506 0.478111 0.663386
0.547356 0.485359 0.652247
0.692363 0.498772 0.644495
0.774884 0.507195 0.647791
0.025391 0.527886 0.63331
0.0506905 0.544244 0.651102
0.0859998 0.555901 0.664942
0.123476 0.566659 0.677836
0.161883 0.576288 0.68893
0.228611 0.574685 0.688167
0.506264 0.593561 0.689326
0.702419 0.606271 0.681498
0.795438 0.615579 0.683635
0.0265202 0.614603 0.654856
0.051957 0.629801 0.670726
0.0873732 0.641657 0.683818
0.124895 0.653254 0.695781
0.163272 0.669535 0.710567
0.20499 0.681025 0.717266
0.433371 0.696025 0.713024
0.706416 0.70515 0.704204
0.814603 0.712749 0.706691
0.027985 0.702098 0.678157
0.0534829 0.714824 0.691691
0.088838 0.723995 0.700938
0.126436 0.73283 0.709484
0.164965 0.750957 0.725109
0.204135 0.770626 0.734859
0.350591 0.779385 0.718166
0.700435 0.787579 0.701671
0.829023 0.795529 0.700114
0.013138 0.0969253 0.561318
0.0348669 0.0967727 0.561242
0.0671397 0.090837 0.555581
0.110979 0.0829786 0.551614
0.26891 0.0849622 0.551568
0.422126 0.0957046 0.535714
0.571099 0.0917525 0.516197
0.695506 0.0806897 0.490608
0.790555 0.0761578 0.473426
0.0184176 0.144533 0.580865
0.0426184 0.155764 0.59443
0.076997 0.15433 0.595163
0.114336 0.144564 0.589471
0.262272 0.141711 0.588067
0.435462 0.154879 0.570809
0.582101 0.152743 0.553918
0.704067 0.143465 0.532265
0.797742 0.140734 0.529259
0.020676 0.206928 0.593469
0.0453651 0.220493 0.610544
0.0800793 0.234043 0.63035
0.11696 0.227497 0.628901
0.195071 0.206851 0.616892
0.418952 0.221759 0.605997
0.563882 0.224933 0.588174
0.687556 0.221592 0.57908
0.784726 0.221469 0.579782
0.0221103 0.286992 0.623957
0.0469978 0.299657 0.639094
0.0818952 0.305028 0.647578
0.118837 0.316869 0.669718
0.156985 0.291585 0.657618
0.376074 0.29247 0.650324
0.545296 0.304662 0.63151
0.670466 0.306508 0.627283
0.767773 0.307942 0.629084
0.0233463 0.366155 0.650248
0.0482948 0.379721 0.66598
0.08336 0.387884 0.677485
0.120577 0.393378 0.688945
0.15877 0.39295 0.706279
0.287556 0.375753 0.690883
0.530678 0.388266 0.685557
0.659464 0.399145 0.678706
0.759457 0.404303 0.679728
0.024445 0.444038 0.672465
0.0496681 0.458137 0.689006
0.0848859 0.469993 0.703029
0.122225 0.481132 0.718715
0.160433 0.48574 0.730068
0.235355 0.48426 0.741192
0.479225 0.485679 0.733394
0.659754 0.499229 0.726711
0.763821 0.508263 0.725536
0.0255741 0.529519 0.69929
0.0509346 0.545678 0.716884
0.0861372 0.556542 0.72987
0.123613 0.567132 0.742031
0.16202 0.577234 0.754559
0.212879 0.578622 0.761364
0.425467 0.595438 0.768643
0.66215 0.602518 0.760769
0.782986 0.614267 0.756542
0.0266575 0.620722 0.728649
0.0521096 0.635096 0.74316
0.087541 0.643259 0.752285
0.125093 0.651652 0.761166
0.163577 0.663981 0.77406
0.204227 0.671992 0.783017
0.375158 0.688075 0.784833
0.655833 0.704158 0.783642
0.802152 0.713939 0.781415
0.0281529 0.698848 0.741375
0.053666 0.711742 0.754757
0.0891127 0.720577 0.764065
0.126619 0.728603 0.772396
0.165148 0.745266 0.78732
0.204318 0.764065 0.800504
0.327382 0.779965 0.80351
0.614786 0.796368 0.801785
0.8094 0.802396 0.797345
