public/sampleLut/20.cube
TITLE "Generated by Resolve"
LUT_3D_SIZE 5
0.0247349 0.0582284 0.0616465
0.144808 0.0575418 0.0542153
0.316747 0.053315 0.031281
0.498817 0.0472114 0.0160983
0.670542 0.0476692 0.0139467
0.0193637 0.14725 0.0570687
0.0745251 0.164767 0.0656443
0.353231 0.165713 0.0449836
0.547677 0.174975 0.0405737
0.721675 0.185306 0.0403754
0.0209049 0.282155 0.0611734
0.121294 0.297978 0.0621042
0.383902 0.312078 0.0461433
0.584436 0.314122 0.0469368
0.737835 0.330465 0.0476692
0.0223392 0.426612 0.0667735
0.13402 0.450095 0.0480964
0.44062 0.495354 0.0500038
0.625803 0.503304 0.0516365
0.765438 0.496773 0.052903
0.0243534 0.577661 0.072282
0.144106 0.60943 0.0506752
0.463706 0.667872 0.0533761
0.657801 0.701717 0.0553445
0.802274 0.698711 0.0567941
0.020676 0.0602579 0.15375
0.14313 0.0610819 0.149935
0.340597 0.0575723 0.128557
0.537209 0.0489662 0.101869
0.718196 0.0433814 0.100145
0.0208743 0.158175 0.171618
0.0824292 0.169329 0.184649
0.354147 0.182269 0.175036
0.565713 0.178088 0.143008
0.741482 0.171618 0.126986
0.0226139 0.297246 0.17995
0.0825513 0.315373 0.179706
0.390082 0.332662 0.160281
0.606256 0.327947 0.13637
0.771344 0.343313 0.133822
0.0242313 0.431296 0.182345
0.0860761 0.466133 0.172015
0.428809 0.51136 0.139345
0.648875 0.524361 0.13785
0.792157 0.510674 0.139269
0.0264134 0.585779 0.200259
0.0929274 0.62208 0.15964
0.439307 0.675258 0.139773
0.682231 0.723278 0.141405
0.82034 0.717662 0.143069
0.0182193 0.0681621 0.282277
0.0822614 0.0629587 0.279591
0.357992 0.0683604 0.257237
0.573236 0.0581369 0.229831
0.753307 0.0460517 0.215915
0.0209354 0.169604 0.306279
0.0801709 0.185351 0.329747
0.367193 0.193881 0.313436
0.594812 0.188769 0.293996
0.765881 0.182254 0.28249
0.0230869 0.332311 0.359564
0.0829633 0.362387 0.394476
0.276692 0.358862 0.382803
0.598245 0.371542 0.371679
0.77142 0.377371 0.365316
0.024918 0.527565 0.421485
0.0853895 0.53283 0.420966
0.201282 0.528237 0.356756
0.648234 0.560876 0.340597
0.80975 0.554406 0.34902
0.0272374 0.661204 0.421073
0.0881819 0.666362 0.417472
0.244602 0.69015 0.343648
0.674891 0.742123 0.325414
0.845396 0.745769 0.278889
0.0157168 0.0811627 0.419959
0.0700847 0.0746471 0.414832
0.309667 0.0803082 0.404562
0.600931 0.0692607 0.362188
0.776822 0.0575265 0.34374
0.0209201 0.188464 0.450782
0.0801862 0.211261 0.483635
0.288594 0.199725 0.470436
0.609232 0.201709 0.429694
0.778286 0.19762 0.421164
0.023209 0.347463 0.505898
0.0832685 0.374731 0.539803
0.161364 0.368093 0.548379
0.596994 0.380591 0.517647
0.769818 0.391241 0.524926
0.0252384 0.522881 0.559869
0.0858778 0.553262 0.592218
0.161608 0.583108 0.622629
0.577249 0.594476 0.60383
0.801831 0.611399 0.60531
0.0277256 0.706828 0.614054
0.0886549 0.729015 0.638331
0.164782 0.742367 0.640803
0.555367 0.759731 0.589761
0.836362 0.783475 0.578058
0.013138 0.0969253 0.561318
0.0671397 0.090837 0.555581
0.26891 0.0849622 0.551568
0.571099 0.0917525 0.516197
0.790555 0.0761578 0.473426
0.020676 0.206928 0.593469
0.0800793 0.234043 0.63035
0.195071 0.206851 0.616892
0.563882 0.224933 0.588174
0.784726 0.221469 0.579782
0.0233463 0.366155 0.650248
0.08336 0.387884 0.677485
0.15877 0.39295 0.706279
0.530678 0.388266 0.685557
0.759457 0.404303 0.679728
0.0255741 0.529519 0.69929
0.0861372 0.556542 0.72987
0.16202 0.577234 0.754559
0.425467 0.595438 0.768643
0.782986 0.614267 0.756542
0.0281529 0.698848 0.741375
0.0891127 0.720577 0.764065
0.165148 0.745266 0.78732
0.327382 0.779965 0.80351
0.8094 0.802396 0.797345
