public/sampleLut/22.cube
TITLE "Generated by Resolve"
LUT_3D_SIZE 5
0.0196078 0 0
0.182773 0 0
0.334066 0 0
0.446494 0 0
0.552056 0.0011902 0
0.141451 0.172717 0
0.281346 0.195056 0
0.42005 0.215915 0.00915541
0.524987 0.230671 0.0165103
0.623545 0.24712 0.0273289
0.233402 0.394629 0.0660563
0.372946 0.416846 0.0843519
0.50634 0.440024 0.0964675
0.602426 0.456748 0.103624
0.694667 0.474601 0.113268
0.319371 0.646754 0.141405
0.463172 0.666239 0.162905
0.59379 0.688426 0.179355
0.684535 0.70518 0.189212
0.773953 0.72401 0.200809
0.402792 0.911879 0.219623
0.547784 0.930251 0.241901
0.676478 0.95111 0.262119
0.767712 0.967391 0.275792
0.856458 0.986068 0.290822
0.0273747 0 0.0228885
0.182635 0 0.0526436
0.333471 0 0.0770123
0.444526 0 0.0930037
0.551293 0.0135195 0.110323
0.161181 0.181872 0.143313
0.280186 0.208865 0.164416
0.418708 0.230091 0.178332
0.522286 0.244816 0.190402
0.62063 0.2607 0.204211
0.257679 0.401404 0.234333
0.387121 0.425406 0.261128
0.511238 0.451881 0.274434
0.603265 0.469642 0.283406
0.693446 0.48777 0.294087
0.342535 0.652644 0.316991
0.48249 0.672236 0.343618
0.606073 0.696468 0.364981
0.692103 0.714656 0.37612
0.778042 0.73434 0.386755
0.423102 0.918379 0.397818
0.566781 0.935897 0.42446
0.692592 0.957824 0.448203
0.780484 0.975113 0.462287
0.866041 0.994629 0.475975
0.0490578 0 0.154147
0.20267 0 0.200748
0.345113 4.57771e-05 0.228763
0.453223 0.013077 0.250248
0.557671 0.0274052 0.272206
0.180056 0.198169 0.243565
0.292607 0.224948 0.284718
0.422782 0.246464 0.318685
0.526329 0.260563 0.340307
0.62269 0.276387 0.360616
0.288075 0.410742 0.370825
0.408042 0.437415 0.397955
0.513542 0.467994 0.424353
0.603449 0.48632 0.43743
0.693828 0.504036 0.452094
0.367468 0.661463 0.472251
0.505852 0.681056 0.503853
0.622538 0.705959 0.538613
0.701091 0.726757 0.554009
0.782498 0.74789 0.567361
0.44802 0.92607 0.577111
0.588663 0.943969 0.612497
0.712428 0.965713 0.652354
0.796811 0.984161 0.677852
0.878004 1 0.700008
0.0665446 0 0.281941
0.22005 0 0.353094
0.36759 0.0110628 0.390509
0.472358 0.0247196 0.411276
0.5729 0.040238 0.434379
0.192813 0.21593 0.364843
0.310491 0.240421 0.413794
0.445686 0.258762 0.46508
0.541924 0.274342 0.490288
0.63447 0.291203 0.5178
0.313985 0.425452 0.487175
0.428397 0.454902 0.505425
0.528252 0.485496 0.550027
0.611139 0.504158 0.58407
0.699535 0.521767 0.619455
0.418936 0.666041 0.64152
0.547601 0.688914 0.672786
0.656153 0.715938 0.712871
0.717479 0.740902 0.744411
0.784314 0.766094 0.772335
0.502647 0.927504 0.792248
0.631754 0.948653 0.827741
0.747005 0.972747 0.869627
0.82417 0.992432 0.902754
0.894667 1 0.930877
0.088304 0.00315862 0.455467
0.232105 0.0162661 0.531197
0.384161 0.0285649 0.6038
0.494331 0.0393378 0.643259
0.594614 0.0540017 0.677165
0.21088 0.237079 0.552789
0.330007 0.261692 0.596063
0.45864 0.280552 0.670283
0.559701 0.292103 0.721675
0.654612 0.306722 0.764004
0.330358 0.449378 0.6748
0.445258 0.478111 0.696025
0.549371 0.507912 0.738293
0.628016 0.52575 0.788098
0.714427 0.541756 0.843015
0.454719 0.684977 0.828977
0.576013 0.710567 0.847135
0.677714 0.74078 0.870329
0.742199 0.765011 0.889693
0.802274 0.791272 0.924361
0.565103 0.936797 0.997299
0.691752 0.958587 1
0.804669 0.984329 1
0.881575 1 1
0.946777 1 1
