public/sampleLut/22.cube
TITLE "Generated by Resolve"
LUT_3D_SIZE 33
0.0196078 0 0
0.0400092 0 0
0.0602121 0 0
0.0800336 0 0
0.0994125 0 0
0.119875 0 0
0.140505 0 0
0.161563 0 0
0.182773 0 0
0.204654 0 0
0.22649 0 0
0.248295 0 0
0.268589 0 0
0.28687 0 0
0.303838 0 0
0.320073 0 0
0.334066 0 0
0.348211 0 0
0.362341 0 0
0.376455 0 0
0.390661 0 0
0.4047 0 0
0.418708 0 0
0.432654 0 0
0.446494 0 0
0.460319 0 0
0.47396 0 0
0.487282 0 0
0.500267 0 0
0.513359 0 0
0.52636 0 0
0.539254 0 0
0.552056 0.0011902 0
0.0357671 0 0
0.0552682 0 0
0.0745556 0 0
0.0936599 0 0
0.112459 0 0
0.132448 0 0
0.152865 0 0
0.173281 0 0
0.19411 0 0
0.215564 0 0
0.236942 0 0
0.258427 0 0
0.278645 0 0
0.296605 0 0
0.31339 0.000946059 0
0.329442 0.00271611 0
0.343297 0.00416571 0
0.357351 0.00572213 0
0.371511 0.00746166 0
0.385489 0.00898756 0
0.399466 0.0105287 0
0.413428 0.0120851 0
0.427375 0.0136568 0
0.44126 0.015259 0
0.455222 0.0171664 0
0.468971 0.0189364 0
0.48249 0.0207065 0
0.495827 0.0225223 0
0.508782 0.0243381 0
0.521828 0.0261845 0
0.534829 0.0281529 0
0.547646 0.0302586 0
0.560388 0.0321202 0
0.0510719 0 0
0.0696574 9.15541e-05 0
0.0882124 0.00218204 0
0.106737 0.00428779 0
0.125292 0.00662242 0
0.144869 0.00891127 0
0.164736 0.0112306 0
0.184894 0.013611 0
0.205524 0.0160983 0
0.226947 0.0187533 0
0.248493 0.0216678 0
0.269825 0.0243687 0
0.28954 0.0267643 0
0.307286 0.0288548 0
0.323796 0.0307469 0
0.339681 0.0325475 0
0.35346 0.034165 0
0.367483 0.0358434 0
0.381384 0.0373846 0
0.39527 0.038941 0
0.409155 0.0404974 0
0.423041 0.0420844 0
0.436912 0.0436713 0
0.450935 0.0455634 0
0.464698 0.0472419 0
0.478309 0.0489967 0
0.491707 0.050782 0
0.504921 0.0525978 0
0.517876 0.054551 0
0.530892 0.0565347 0
0.543755 0.058381 0
0.55639 0.0603342 0
0.569085 0.0621958 0
0.0667277 0.0267948 0
0.0846723 0.0290532 0
0.10277 0.0314336 0
0.120928 0.0338293 0
0.138811 0.0360266 0
0.157977 0.0384222 0
0.177478 0.0408637 0
0.19733 0.0433509 0
0.217685 0.0459297 0
0.239109 0.0489357 0
0.260212 0.0516823 0
0.281285 0.0544137 0
0.300771 0.0568704 0
0.318303 0.0590066 0
0.334646 0.0609445 0
0.350561 0.0630655 0
0.364111 0.0645914 0
0.377905 0.0661479 0
0.391669 0.0677195 0
0.405447 0.0693065 0
0.419257 0.0709239 0
0.433204 0.0727703 0
0.446983 0.0743877 0
0.460746 0.0760357 0
0.474372 0.07776 0
0.4878 0.07953 0
0.501045 0.0813458 0
0.51426 0.0833906 0
0.527062 0.0852979 0
0.539925 0.0871901 0
0.552697 0.0890516 0
0.565332 0.0910048 0
0.577981 0.0928969 0
0.0823682 0.0555734 0
0.0999924 0.0581521 0
0.117571 0.0606241 0
0.135134 0.0630045 0
0.152605 0.0653239 0
0.171359 0.0678264 0
0.190494 0.0703746 0
0.210254 0.073228 0
0.23032 0.0758984 0
0.251209 0.078706 0
0.272038 0.0815137 0
0.292882 0.0843214 0
0.312139 0.0868391 0
0.329641 0.08925 0
0.345846 0.09131 0
0.361395 0.0932021 0
0.374823 0.0947738 0
0.388464 0.0963912 0
0.402121 0.0980087 0
0.415869 0.099733 0
0.429679 0.101564 0
0.443366 0.103212 0
0.457069 0.10486 0
0.470726 0.106554 0
0.484199 0.108309 0
0.497459 0.110124 0
0.510735 0.112245 0
0.523705 0.114122 0
0.536355 0.115999 0
0.549126 0.117891 0
0.561837 0.119783 0
0.574456 0.121874 0
0.587137 0.123934 0
0.0977951 0.0847639 0
0.114855 0.0872206 0
0.131975 0.0897078 0
0.149187 0.0921798 0
0.166308 0.0945907 0
0.184802 0.0973068 0
0.203754 0.100114 0
0.22298 0.1028 0
0.242741 0.105547 0
0.263416 0.108446 0
0.284031 0.111345 0
0.304662 0.114229 0
0.323949 0.117113 0
0.341115 0.119356 0
0.357122 0.121416 0
0.372519 0.123369 0
0.385824 0.124971 0
0.399344 0.126619 0
0.413092 0.128557 0
0.426657 0.130236 0
0.440238 0.131914 0
0.453849 0.133593 0
0.46746 0.135302 0
0.480949 0.137026 0
0.494392 0.139101 0
0.5075 0.140932 0
0.520455 0.142809 0
0.533303 0.144717 0
0.545846 0.146609 0
0.558511 0.148531 0
0.571252 0.150637 0
0.58378 0.152728 0
0.596109 0.15465 0
0.112764 0.113817 0
0.129595 0.116335 0
0.146456 0.118868 0
0.163378 0.121416 0
0.180331 0.124071 0
0.19852 0.126894 0
0.216999 0.129625 0
0.235904 0.132403 0
0.25539 0.135241 0
0.275761 0.138231 0
0.296407 0.141497 0
0.316808 0.144457 0
0.335683 0.147112 0
0.352697 0.149416 0
0.368536 0.151537 0
0.383795 0.153521 0
0.397101 0.155367 0
0.41059 0.157153 0
0.424048 0.158846 0
0.437507 0.16054 0
0.451011 0.162249 0
0.46453 0.163973 0
0.478004 0.165774 0
0.491432 0.167758 0
0.504524 0.169589 0
0.517479 0.17145 0
0.530297 0.173358 0
0.543023 0.175296 0
0.555444 0.177203 0
0.5682 0.179446 0
0.580728 0.181384 0
0.592996 0.183413 0.00148013
0.605081 0.185351 0.00294499
0.127306 0.143099 0
0.14403 0.145617 0
0.160891 0.148394 0
0.177676 0.151064 0
0.194278 0.153613 0
0.2121 0.156374 0
0.23032 0.159167 0
0.248966 0.162005 0
0.268269 0.165011 0
0.288579 0.168276 0
0.308736 0.171313 0
0.328939 0.174334 0
0.347631 0.177066 0
0.364477 0.179446 0
0.380163 0.181598 0
0.395453 0.183902 0
0.40853 0.185641 0
0.42182 0.187366 0
0.435142 0.189105 0
0.448508 0.19086 0
0.461891 0.192615 0
0.475425 0.194659 0.00111391
0.48867 0.196429 0.00207523
0.501762 0.19823 0.00308232
0.514702 0.200092 0.00418097
0.527489 0.201999 0.00535592
0.540169 0.203937 0.0065919
0.552956 0.206165 0.00816358
0.565301 0.208118 0.00947585
0.577783 0.210071 0.0108186
0.590188 0.212039 0.0121767
0.602152 0.214069 0.0136721
0.61416 0.216022 0.0150759
0.141451 0.172717 0
0.158373 0.175494 0
0.17499 0.178088 0
0.191577 0.180682 0
0.208011 0.183261 0
0.225635 0.186053 0
0.243641 0.188891 0
0.262196 0.191943 0
0.281346 0.195056 0
0.301228 0.198169 0.000579843
0.321187 0.201282 0.00213626
0.341176 0.204364 0.00367742
0.359701 0.207156 0.00503548
0.376608 0.209857 0.00643931
0.392111 0.21207 0.0074464
0.407095 0.214176 0.00839246
0.42005 0.215915 0.00915541
0.433234 0.2177 0.00994888
0.446433 0.219486 0.0107424
0.4598 0.221424 0.0117342
0.473121 0.223346 0.0127108
0.486259 0.225132 0.0135805
0.499306 0.226947 0.0144961
0.512215 0.228779 0.0154574
0.524987 0.230671 0.0165103
0.537652 0.232654 0.0176852
0.550362 0.234867 0.0191348
0.562844 0.236851 0.0203708
0.575067 0.238834 0.0216373
0.587427 0.240833 0.0229496
0.599496 0.242817 0.0242466
0.611353 0.244862 0.0256657
0.623545 0.24712 0.0273289
0.155016 0.202274 0.000228885
0.17174 0.204776 0.00180056
0.188357 0.207355 0.00325017
0.204898 0.209995 0.00459297
0.221241 0.212589 0.00581369
0.23888 0.215595 0.00727855
0.256855 0.218601 0.00868238
0.275105 0.221561 0.0100099
0.293935 0.224598 0.0113985
0.313634 0.227787 0.0129549
0.333425 0.230961 0.0145418
0.353292 0.234165 0.0161593
0.371893 0.237247 0.0177615
0.388418 0.239734 0.0188602
0.403845 0.242008 0.0198672
0.418723 0.24416 0.0208133
0.431586 0.245945 0.021561
0.444663 0.247776 0.0223392
0.457954 0.249821 0.0233616
0.471122 0.251698 0.0242313
0.484169 0.253544 0.0250553
0.497124 0.25539 0.0259098
0.509972 0.257237 0.0267796
0.522728 0.259113 0.0277256
0.535515 0.261326 0.0290379
0.548028 0.263294 0.0301366
0.560464 0.265309 0.0312963
0.572824 0.267338 0.0325017
0.584939 0.269322 0.0337224
0.596994 0.271351 0.0349737
0.609033 0.27361 0.0365148
0.62089 0.275715 0.0379187
0.632868 0.277714 0.0392462
0.16762 0.230961 0.0105898
0.184405 0.233463 0.0123903
0.201038 0.236027 0.0140383
0.217578 0.238666 0.0155795
0.234089 0.241489 0.0172427
0.25153 0.244388 0.0187533
0.269291 0.247318 0.0202182
0.287449 0.250324 0.0216526
0.306127 0.253391 0.0231785
0.325673 0.256626 0.0248417
0.345434 0.259968 0.026566
0.36527 0.26334 0.0283055
0.383566 0.266239 0.0296788
0.400015 0.268788 0.0307774
0.415335 0.271107 0.0317693
0.430121 0.273304 0.0327001
0.443076 0.275395 0.0337224
0.456092 0.277287 0.0345006
0.469108 0.279149 0.0352789
0.482063 0.281025 0.0360723
0.494911 0.282902 0.0368811
0.507683 0.284779 0.037705
0.52047 0.286809 0.0387121
0.533165 0.288869 0.039765
0.545647 0.290837 0.0407721
0.558022 0.292851 0.0418402
0.570336 0.294881 0.0429694
0.582605 0.296925 0.0441444
0.594461 0.29897 0.0453346
0.606424 0.301274 0.0468299
0.618296 0.303319 0.0480659
0.630091 0.305425 0.049424
0.642008 0.307454 0.050721
0.179706 0.259251 0.0205081
0.196582 0.261707 0.0224765
0.213275 0.264271 0.0243229
0.230076 0.267155 0.0263066
0.246372 0.269764 0.0278935
0.263737 0.272618 0.0295567
0.281437 0.275563 0.0311437
0.299489 0.278584 0.0327764
0.318181 0.281849 0.0345922
0.337697 0.285237 0.0364691
0.357214 0.288518 0.0381476
0.376776 0.291768 0.0397498
0.394965 0.294743 0.0411078
0.411322 0.297337 0.0422522
0.426581 0.299733 0.0432898
0.441459 0.30222 0.04448
0.454185 0.304097 0.0452277
0.467094 0.306004 0.0459907
0.479942 0.307912 0.0467689
0.492714 0.309819 0.0475471
0.505409 0.311727 0.0483253
0.518151 0.313832 0.0493477
0.53077 0.315831 0.050248
0.543236 0.317769 0.0511482
0.555596 0.319768 0.0521248
0.56788 0.321813 0.0531624
0.580072 0.323873 0.0542763
0.592294 0.326223 0.0557107
0.603861 0.328252 0.0568551
0.61561 0.330327 0.0580606
0.627466 0.332387 0.059266
0.639185 0.334524 0.0605936
0.651041 0.336583 0.0618601
0.191348 0.287251 0.0301671
0.208515 0.289921 0.032517
0.225269 0.292454 0.0345006
0.241886 0.295064 0.0363928
0.258198 0.297658 0.0381018
0.275547 0.300511 0.0399176
0.293233 0.303471 0.0417182
0.311391 0.306691 0.0436866
0.329931 0.30988 0.0455482
0.349248 0.313191 0.0473487
0.368673 0.316487 0.049073
0.388098 0.319783 0.050721
0.406226 0.322805 0.0520943
0.422583 0.325521 0.0533303
0.437858 0.328115 0.054551
0.452506 0.330404 0.0554818
0.465171 0.332326 0.0562295
0.477928 0.334264 0.0569924
0.490593 0.336217 0.0577554
0.503334 0.338384 0.0587625
0.515877 0.340368 0.0595865
0.528344 0.342321 0.0603799
0.540764 0.344289 0.0612039
0.553094 0.346273 0.062089
0.565332 0.348302 0.0630655
0.577554 0.350469 0.06421
0.5897 0.352728 0.0654765
0.601419 0.354818 0.0665904
0.612894 0.356893 0.0677348
0.624659 0.358984 0.0689097
0.636439 0.361059 0.0700847
0.648157 0.363195 0.0713664
0.660105 0.36553 0.0728771
0.20267 0.315267 0.0396735
0.219745 0.317693 0.0419013
0.236576 0.320195 0.044007
0.253254 0.322774 0.0460365
0.269612 0.325353 0.0479286
0.286961 0.328191 0.049897
0.304845 0.331395 0.0520943
0.322805 0.334417 0.0540017
0.341222 0.33756 0.0558633
0.360449 0.340871 0.0577401
0.379797 0.344213 0.0595254
0.399252 0.347646 0.0612955
0.417487 0.350851 0.0628977
0.433707 0.353521 0.0641031
0.448814 0.355947 0.065156
0.463401 0.358267 0.0661173
0.475975 0.36022 0.0668803
0.488548 0.362173 0.0676585
0.501244 0.364401 0.0687114
0.51368 0.366369 0.0694896
0.52607 0.368338 0.0702831
0.538415 0.370306 0.0710918
0.550713 0.37229 0.071931
0.562936 0.374304 0.0728313
0.575158 0.376532 0.0739605
0.587259 0.378714 0.0750896
0.598978 0.380835 0.076173
0.610559 0.38294 0.0772869
0.622049 0.385031 0.0784009
0.633738 0.387137 0.0795605
0.645624 0.389502 0.0810101
0.657252 0.391653 0.0822766
0.669001 0.393744 0.0834974
0.213001 0.341588 0.0485084
0.230167 0.344015 0.0508278
0.247105 0.346517 0.0530556
0.263874 0.349096 0.0551919
0.280522 0.351934 0.0574655
0.297902 0.354772 0.059556
0.315587 0.357733 0.0616007
0.333532 0.360784 0.0635843
0.351919 0.363943 0.0655375
0.371115 0.3673 0.0674754
0.390539 0.370825 0.0694591
0.409949 0.374273 0.0712902
0.428016 0.377371 0.0728008
0.444221 0.380087 0.074052
0.459312 0.382559 0.0751354
0.473793 0.384924 0.0761425
0.48629 0.386954 0.0769818
0.498863 0.389151 0.0779889
0.511238 0.391165 0.0787976
0.523552 0.393164 0.0795911
0.535836 0.395178 0.0803998
0.548074 0.397192 0.0812238
0.560388 0.39939 0.0822614
0.572549 0.401511 0.083238
0.584588 0.403601 0.0841993
0.596307 0.405722 0.0852216
0.607843 0.407858 0.086305
0.61944 0.41001 0.0874037
0.63093 0.412192 0.0886091
0.64268 0.414511 0.0899519
0.654337 0.416632 0.0911116
0.665904 0.418814 0.0923781
0.677592 0.420935 0.0935836
0.223316 0.368154 0.0573739
0.240543 0.370535 0.0597696
0.257588 0.373083 0.0621347
0.274571 0.375814 0.0645609
0.29102 0.378393 0.0666514
0.3084 0.381201 0.0688182
0.326085 0.384131 0.0709239
0.344015 0.387167 0.0729839
0.362371 0.390326 0.0749828
0.381735 0.393912 0.0772259
0.400992 0.397284 0.079118
0.420264 0.400656 0.0809186
0.438346 0.403769 0.082475
0.454566 0.4065 0.0837415
0.469657 0.409064 0.084947
0.484138 0.411612 0.0861524
0.496483 0.413611 0.0869612
0.508797 0.415625 0.0877546
0.52105 0.417639 0.0885634
0.533257 0.419669 0.0893721
0.545434 0.421683 0.0901961
0.557733 0.423957 0.0912947
0.569833 0.426017 0.0921492
0.581857 0.428077 0.0930495
0.593637 0.430198 0.0940261
0.605142 0.432334 0.0950637
0.616663 0.434485 0.0961318
0.628305 0.43679 0.0973831
0.639765 0.439033 0.0986343
0.651331 0.441184 0.0997787
0.662943 0.443336 0.100938
0.674449 0.445548 0.102205
0.686061 0.447669 0.10341
0.233402 0.394629 0.0660563
0.250935 0.397208 0.0687572
0.267979 0.399649 0.071107
0.28484 0.402167 0.0733806
0.301335 0.404715 0.0755322
0.31873 0.407507 0.07776
0.336431 0.410422 0.0799268
0.354589 0.413703 0.0823224
0.372946 0.416846 0.0843519
0.39202 0.420172 0.0864118
0.411276 0.42356 0.0883803
0.430518 0.426932 0.0902266
0.448615 0.430076 0.0918441
0.464912 0.432975 0.0933242
0.479896 0.435599 0.0945907
0.494072 0.437995 0.0956283
0.50634 0.440024 0.0964675
0.518532 0.442054 0.0973068
0.530678 0.444083 0.0981155
0.542794 0.446159 0.09897
0.555016 0.448432 0.100038
0.567056 0.450462 0.100877
0.57908 0.452537 0.101732
0.590906 0.454627 0.102647
0.602426 0.456748 0.103624
0.613993 0.459052 0.104814
0.625574 0.461311 0.105989
0.637079 0.463493 0.107103
0.648417 0.465629 0.108217
0.659953 0.467811 0.109361
0.671504 0.469963 0.110506
0.682963 0.472251 0.111849
0.694667 0.474601 0.113268
0.244205 0.423529 0.0754253
0.26157 0.425788 0.0778821
0.278676 0.428138 0.0802777
0.295598 0.430594 0.0825971
0.312123 0.433051 0.0847944
0.329549 0.435798 0.0870527
0.347463 0.438895 0.0895247
0.365393 0.44184 0.0916762
0.383719 0.444923 0.0937972
0.402777 0.448188 0.0959029
0.422019 0.451514 0.0979171
0.441215 0.454841 0.0998245
0.459571 0.458228 0.101778
0.47567 0.460945 0.103151
0.490425 0.463416 0.104341
0.504479 0.465797 0.105425
0.516655 0.467796 0.106279
0.528771 0.469871 0.10721
0.540948 0.472084 0.108263
0.552956 0.474113 0.109117
0.564935 0.476127 0.109957
0.576883 0.478172 0.110826
0.588739 0.480232 0.111696
0.600259 0.482307 0.112627
0.611826 0.484688 0.113863
0.623316 0.4869 0.114946
0.63476 0.489082 0.116045
0.64622 0.491295 0.117159
0.657481 0.493462 0.118303
0.66894 0.495659 0.119448
0.680507 0.497948 0.120729
0.692027 0.500343 0.122133
0.703548 0.50251 0.123339
0.254887 0.452934 0.0846418
0.272328 0.455131 0.0871443
0.289525 0.457435 0.0895857
0.306508 0.459831 0.0919509
0.323339 0.462531 0.0944686
0.340764 0.465187 0.096788
0.358526 0.468025 0.0990768
0.376486 0.470939 0.101305
0.394797 0.474006 0.103502
0.41387 0.477241 0.105684
0.433341 0.480827 0.108034
0.452583 0.484184 0.110033
0.47068 0.487312 0.111772
0.486671 0.490028 0.113207
0.501289 0.492515 0.114427
0.515236 0.494896 0.115557
0.527443 0.497047 0.116594
0.539513 0.499199 0.117632
0.551461 0.501228 0.118517
0.563378 0.503243 0.119387
0.57528 0.505287 0.120272
0.587106 0.507332 0.121141
0.598642 0.509392 0.122042
0.610208 0.511772 0.123278
0.621653 0.513924 0.1243
0.633066 0.516106 0.125383
0.644465 0.518318 0.126497
0.655848 0.520531 0.127626
0.66717 0.522866 0.128923
0.678645 0.5252 0.13022
0.690089 0.527398 0.13138
0.701457 0.529656 0.132662
0.712917 0.531838 0.133883
0.265553 0.483192 0.0939498
0.283101 0.485328 0.0964828
0.300511 0.487724 0.0990921
0.317693 0.490211 0.10164
0.334356 0.492592 0.103929
0.351827 0.495216 0.10631
0.369635 0.497993 0.108659
0.38761 0.500893 0.110964
0.405982 0.503929 0.113222
0.425315 0.507408 0.115755
0.444572 0.510704 0.117922
0.463813 0.514015 0.119982
0.481834 0.517128 0.121782
0.497704 0.519844 0.123262
0.51223 0.522332 0.124559
0.526268 0.524971 0.126009
0.538354 0.526986 0.12697
0.550225 0.529 0.127901
0.562097 0.531014 0.128817
0.573953 0.533043 0.129717
0.585763 0.535119 0.130663
0.597421 0.537408 0.131823
0.60882 0.539467 0.132753
0.620249 0.541588 0.133745
0.631647 0.54374 0.134783
0.643 0.545937 0.135882
0.654353 0.548165 0.137026
0.665812 0.550622 0.138415
0.677028 0.55288 0.139635
0.68838 0.555108 0.140826
0.699763 0.557321 0.142016
0.71107 0.559609 0.143313
0.722484 0.561807 0.144549
0.276341 0.514549 0.10338
0.294133 0.516838 0.106142
0.311559 0.519112 0.108751
0.328695 0.521401 0.111208
0.345434 0.52372 0.113558
0.362921 0.526284 0.115969
0.380774 0.529015 0.118395
0.399039 0.532143 0.121035
0.417456 0.535119 0.123354
0.436561 0.538293 0.125689
0.455924 0.541558 0.127916
0.475105 0.544823 0.130037
0.493034 0.547906 0.13193
0.509026 0.550851 0.1337
0.523522 0.553353 0.135088
0.537285 0.555703 0.136309
0.549325 0.557733 0.137316
0.56112 0.559716 0.138277
0.572931 0.56173 0.139239
0.584772 0.563851 0.140291
0.596353 0.566064 0.141421
0.607706 0.568109 0.142351
0.619135 0.570184 0.143328
0.630533 0.572305 0.14435
0.641886 0.574487 0.145449
0.653193 0.576699 0.146578
0.664668 0.579217 0.148013
0.675944 0.581476 0.149203
0.687068 0.583703 0.150393
0.698375 0.585946 0.151583
0.70959 0.588266 0.152895
0.721019 0.590631 0.154238
0.732464 0.593011 0.155642
0.287648 0.547601 0.113329
0.305364 0.549615 0.115938
0.322805 0.551766 0.118502
0.340017 0.554009 0.120974
0.356817 0.556283 0.123354
0.374456 0.558907 0.125933
0.392493 0.561776 0.128573
0.410574 0.564569 0.130983
0.429038 0.567498 0.133364
0.448188 0.570626 0.13576
0.467536 0.573861 0.138079
0.486595 0.577111 0.140276
0.504662 0.580484 0.142519
0.520394 0.583185 0.144137
0.534783 0.585626 0.145541
0.548486 0.587961 0.146822
0.560525 0.589975 0.14789
0.572259 0.591959 0.148898
0.584176 0.594247 0.150179
0.595636 0.596262 0.151171
0.606958 0.598291 0.152163
0.618357 0.60032 0.15314
0.62977 0.60238 0.154131
0.641138 0.604517 0.155215
0.652613 0.606989 0.156603
0.66389 0.609201 0.157778
0.675151 0.61146 0.158984
0.686397 0.613718 0.160204
0.69749 0.615946 0.161425
0.708751 0.618204 0.162676
0.720043 0.620752 0.164233
0.731395 0.623087 0.165591
0.742702 0.62533 0.166873
0.298375 0.580499 0.122698
0.316197 0.582498 0.125338
0.333745 0.584619 0.127947
0.351049 0.586831 0.130495
0.368093 0.589273 0.133104
0.385779 0.591867 0.135729
0.403784 0.594522 0.138277
0.421958 0.597299 0.140764
0.440482 0.600214 0.143236
0.459724 0.603342 0.145724
0.479286 0.606851 0.148425
0.498222 0.610086 0.150713
0.516045 0.613169 0.152789
0.531731 0.615869 0.154498
0.546105 0.618326 0.155978
0.559747 0.620661 0.157336
0.571939 0.622889 0.158663
0.583658 0.624964 0.159808
0.595117 0.626963 0.160861
0.606409 0.628977 0.161913
0.617792 0.631006 0.162951
0.629175 0.633051 0.164004
0.640604 0.635218 0.165148
0.652049 0.637568 0.166476
0.663325 0.639765 0.167651
0.674556 0.642008 0.168887
0.685771 0.644266 0.170138
0.696986 0.64654 0.171405
0.708019 0.648783 0.172686
0.719417 0.651347 0.174243
0.730587 0.653666 0.175601
0.741848 0.655924 0.176913
0.753109 0.658167 0.178225
0.30901 0.613565 0.132082
0.326925 0.615534 0.134752
0.344732 0.617853 0.137575
0.362188 0.620111 0.14023
0.379171 0.622339 0.142718
0.396826 0.624796 0.145296
0.414923 0.62742 0.14789
0.433173 0.630167 0.150454
0.451865 0.633143 0.153079
0.47129 0.636439 0.15584
0.490517 0.639628 0.158343
0.509392 0.642832 0.160723
0.527184 0.645899 0.162875
0.54287 0.648585 0.164675
0.557214 0.651026 0.166217
0.571023 0.653635 0.16791
0.583078 0.65568 0.169116
0.594476 0.657649 0.170245
0.605768 0.659632 0.171344
0.617136 0.661646 0.172457
0.628534 0.663691 0.173571
0.640085 0.666026 0.174945
0.651423 0.668116 0.176074
0.662715 0.670268 0.177264
0.673961 0.67245 0.1785
0.685161 0.674693 0.179767
0.696345 0.676966 0.181079
0.707698 0.679545 0.182681
0.7187 0.681804 0.183993
0.7299 0.684077 0.185336
0.741024 0.686397 0.18674
0.752255 0.688655 0.188083
0.76347 0.690913 0.189471
0.319371 0.646754 0.141405
0.337606 0.648997 0.14435
0.355352 0.651057 0.147021
0.372839 0.653208 0.14963
0.389914 0.65539 0.152148
0.40766 0.657801 0.154757
0.425849 0.66038 0.157397
0.444343 0.663249 0.160159
0.463172 0.666239 0.162905
0.482353 0.669291 0.16553
0.501518 0.67245 0.168109
0.520348 0.675639 0.170581
0.538125 0.678691 0.172824
0.554025 0.681651 0.174975
0.568353 0.684092 0.176608
0.581964 0.686412 0.178103
0.59379 0.688426 0.179355
0.605035 0.690379 0.180529
0.616403 0.692363 0.18172
0.627909 0.69456 0.183047
0.639353 0.696696 0.184329
0.650706 0.698741 0.185489
0.662043 0.700832 0.186679
0.67332 0.702983 0.187915
0.684535 0.70518 0.189212
0.69575 0.707469 0.1906
0.707057 0.709987 0.192187
0.718196 0.712276 0.193561
0.729168 0.714534 0.194903
0.740322 0.716808 0.196277
0.751415 0.719173 0.197742
0.762585 0.721447 0.199145
0.773953 0.72401 0.200809
0.329946 0.680247 0.150912
0.348013 0.68217 0.153597
0.36582 0.684199 0.156283
0.383368 0.68632 0.158923
0.400504 0.688487 0.161471
0.418463 0.691081 0.164294
0.436805 0.693751 0.167086
0.455253 0.696422 0.169741
0.473945 0.69926 0.172396
0.493034 0.702281 0.175097
0.512154 0.705409 0.177737
0.530983 0.708629 0.180331
0.548974 0.71191 0.182879
0.564675 0.714565 0.184817
0.579034 0.716991 0.186511
0.592432 0.71928 0.188067
0.604166 0.721294 0.18938
0.615488 0.723232 0.1906
0.627039 0.725444 0.192081
0.638483 0.727489 0.193347
0.649851 0.729503 0.194568
0.661204 0.731548 0.195804
0.672526 0.733639 0.197055
0.683787 0.735775 0.198352
0.695171 0.738277 0.2
0.706325 0.74052 0.201389
0.717464 0.742794 0.202808
0.728588 0.745083 0.204242
0.739544 0.747341 0.205661
0.750683 0.749615 0.207095
0.761898 0.752255 0.208911
0.773068 0.754543 0.210361
0.784222 0.756802 0.21181
0.340063 0.713527 0.160006
0.358206 0.715434 0.162707
0.376074 0.717433 0.165393
0.393698 0.719524 0.168048
0.411154 0.721935 0.170871
0.429053 0.724315 0.173587
0.44741 0.726848 0.176318
0.465934 0.729503 0.179034
0.484581 0.73228 0.181765
0.503594 0.735256 0.184527
0.522805 0.738491 0.187381
0.541711 0.741787 0.190173
0.559548 0.744793 0.192584
0.57528 0.747448 0.194614
0.589502 0.749844 0.196399
0.602686 0.752132 0.198032
0.614725 0.754437 0.199695
0.626062 0.756374 0.201007
0.637476 0.758343 0.202304
0.648875 0.760327 0.203601
0.660258 0.762356 0.204898
0.671595 0.764385 0.206195
0.683009 0.766613 0.20766
0.694347 0.768902 0.209155
0.705531 0.771115 0.210575
0.716686 0.773342 0.212024
0.727825 0.775616 0.213504
0.738933 0.77789 0.214984
0.749889 0.780148 0.216495
0.761181 0.782696 0.218235
0.772213 0.785061 0.219806
0.783352 0.78732 0.221286
0.794491 0.789609 0.222797
0.35021 0.746761 0.169253
0.368414 0.748638 0.171939
0.386328 0.750622 0.17464
0.404273 0.753002 0.177584
0.421592 0.755108 0.180179
0.439521 0.757443 0.182879
0.457984 0.759945 0.185657
0.476478 0.762554 0.188403
0.495186 0.765484 0.191333
