public/sampleLut/22.cube
TITLE "Generated by Resolve"
LUT_3D_SIZE 9
0.0196078 0 0
0.0994125 0 0
0.182773 0 0
0.268589 0 0
0.334066 0 0
0.390661 0 0
0.446494 0 0
0.500267 0 0
0.552056 0.0011902 0
0.0823682 0.0555734 0
0.152605 0.0653239 0
0.23032 0.0758984 0
0.312139 0.0868391 0
0.374823 0.0947738 0
0.429679 0.101564 0
0.484199 0.108309 0
0.536355 0.115999 0
0.587137 0.123934 0
0.141451 0.172717 0
0.208011 0.183261 0
0.281346 0.195056 0
0.359701 0.207156 0.00503548
0.42005 0.215915 0.00915541
0.473121 0.223346 0.0127108
0.524987 0.230671 0.0165103
0.575067 0.238834 0.0216373
0.623545 0.24712 0.0273289
0.191348 0.287251 0.0301671
0.258198 0.297658 0.0381018
0.329931 0.30988 0.0455482
0.406226 0.322805 0.0520943
0.465171 0.332326 0.0562295
0.515877 0.340368 0.0595865
0.565332 0.348302 0.0630655
0.612894 0.356893 0.0677348
0.660105 0.36553 0.0728771
0.233402 0.394629 0.0660563
0.301335 0.404715 0.0755322
0.372946 0.416846 0.0843519
0.448615 0.430076 0.0918441
0.50634 0.440024 0.0964675
0.555016 0.448432 0.100038
0.602426 0.456748 0.103624
0.648417 0.465629 0.108217
0.694667 0.474601 0.113268
0.276341 0.514549 0.10338
0.345434 0.52372 0.113558
0.417456 0.535119 0.123354
0.493034 0.547906 0.13193
0.549325 0.557733 0.137316
0.596353 0.566064 0.141421
0.641886 0.574487 0.145449
0.687068 0.583703 0.150393
0.732464 0.593011 0.155642
0.319371 0.646754 0.141405
0.389914 0.65539 0.152148
0.463172 0.666239 0.162905
0.538125 0.678691 0.172824
0.59379 0.688426 0.179355
0.639353 0.696696 0.184329
0.684535 0.70518 0.189212
0.729168 0.714534 0.194903
0.773953 0.72401 0.200809
0.360433 0.77998 0.178714
0.431998 0.78822 0.189593
0.505699 0.798627 0.200977
0.580392 0.81062 0.212055
0.635309 0.820142 0.219699
0.681102 0.82826 0.225666
0.726207 0.836683 0.231617
0.770626 0.846021 0.238254
0.815091 0.855497 0.244984
0.402792 0.911879 0.219623
0.474815 0.920089 0.230304
0.547784 0.930251 0.241901
0.621302 0.941878 0.253651
0.676478 0.95111 0.262119
0.722545 0.95906 0.268956
0.767712 0.967391 0.275792
0.8121 0.976654 0.283314
0.856458 0.986068 0.290822
0.018677 0 0
0.0974441 0 0
0.181476 0 0
0.267857 0 0
0.332876 0 0
0.389075 0 0
0.444785 0 0.00463874
0.499168 0 0.0120089
0.551415 0.00715648 0.0194858
0.0852369 0.0619974 0.0171359
0.151156 0.072694 0.0228275
0.228458 0.0831617 0.028336
0.311421 0.0938735 0.0356603
0.373754 0.101869 0.0419928
0.428244 0.108583 0.0474403
0.482719 0.115343 0.0530556
0.535073 0.122911 0.0596475
0.58613 0.130404 0.0663005
0.150652 0.176837 0.0727703
0.211719 0.188861 0.0794385
0.282048 0.201587 0.0837873
0.359915 0.213947 0.0888991
0.419715 0.222858 0.0938888
0.472023 0.230106 0.0981613
0.523751 0.23772 0.103014
0.5738 0.245823 0.108659
0.6224 0.253788 0.114397
0.202731 0.290669 0.114839
0.266026 0.302007 0.124514
0.334203 0.315297 0.131563
0.408423 0.328939 0.137499
0.466239 0.338796 0.142321
0.515923 0.346868 0.146181
0.564904 0.355077 0.150393
0.612222 0.363729 0.155352
0.659342 0.372198 0.160418
0.24445 0.398306 0.149767
0.310582 0.408774 0.160922
0.379461 0.421439 0.170565
0.452857 0.435477 0.178943
0.509041 0.445853 0.184344
0.556527 0.454444 0.188251
0.603174 0.463066 0.192233
0.648692 0.472114 0.196887
0.694575 0.480919 0.201511
0.287617 0.517891 0.188357
0.355535 0.527291 0.199863
0.425681 0.53901 0.211002
0.499062 0.552422 0.220859
0.55378 0.562707 0.226871
0.599466 0.571344 0.231205
0.644114 0.580102 0.235294
0.68864 0.589563 0.240055
0.733471 0.598779 0.244587
0.330877 0.649882 0.22797
0.400717 0.658595 0.239918
0.472633 0.669703 0.251926
0.545586 0.682567 0.262913
0.599695 0.692729 0.269978
0.644053 0.701076 0.27483
0.688441 0.710155 0.279866
0.732326 0.719799 0.285176
0.77644 0.729274 0.290211
0.371359 0.783185 0.265629
0.442741 0.79144 0.277699
0.515297 0.801938 0.290211
0.588464 0.814221 0.30222
0.642374 0.824094 0.310307
0.687114 0.832303 0.316152
0.731456 0.84123 0.322011
0.775143 0.850858 0.328176
0.818936 0.860441 0.334035
0.412482 0.915602 0.30573
0.484474 0.923674 0.317433
0.55668 0.933684 0.3299
0.629328 0.945586 0.342596
0.683894 0.955062 0.3514
0.729198 0.963134 0.358129
0.773739 0.971817 0.364843
0.817502 0.981323 0.371893
0.861143 0.990692 0.378531
0.0273747 0 0.0228885
0.10103 0 0.0374304
0.182635 0 0.0526436
0.269001 0 0.067216
0.333471 0 0.0770123
0.388815 0 0.0847181
0.444526 0 0.0930037
0.498848 0.00642405 0.101747
0.551293 0.0135195 0.110323
0.090837 0.0694438 0.0782483
0.151736 0.0808576 0.0917372
0.226276 0.0910658 0.104585
0.310292 0.101335 0.11693
0.373648 0.108949 0.125597
0.427436 0.115389 0.132738
0.481682 0.122332 0.140307
0.533883 0.129809 0.148333
0.585031 0.137163 0.156176
0.161181 0.181872 0.143313
0.215579 0.195331 0.155535
0.280186 0.208865 0.164416
0.357748 0.2215 0.172259
0.418708 0.230091 0.178332
0.471031 0.237156 0.183932
0.522286 0.244816 0.190402
0.572061 0.252872 0.197391
0.62063 0.2607 0.204211
0.216587 0.293889 0.195422
0.275975 0.305959 0.209628
0.33753 0.320546 0.219211
0.40856 0.335531 0.225406
0.466148 0.345663 0.229694
0.515496 0.353674 0.23386
0.563882 0.362081 0.239338
0.610742 0.370779 0.245365
0.657542 0.379126 0.251209
0.257679 0.401404 0.234333
0.32256 0.411917 0.249104
0.387121 0.425406 0.261128
0.456641 0.440833 0.269642
0.511238 0.451881 0.274434
0.557519 0.460624 0.278386
0.603265 0.469642 0.283406
0.648051 0.478859 0.288853
0.693446 0.48777 0.294087
0.299031 0.52108 0.274189
0.366766 0.530327 0.287938
0.434775 0.542123 0.301122
0.505394 0.556527 0.312535
0.558282 0.567452 0.319188
0.602167 0.576257 0.32398
0.645747 0.585611 0.32903
0.689311 0.595361 0.334295
0.733425 0.604776 0.339193
0.342535 0.652644 0.316991
0.412131 0.661311 0.330282
0.48249 0.672236 0.343618
0.553613 0.685817 0.35671
0.606073 0.696468 0.364981
0.648997 0.705165 0.37055
0.692103 0.714656 0.37612
0.734874 0.724636 0.38172
0.778042 0.73434 0.386755
0.382864 0.785748 0.357
0.454383 0.793866 0.370306
0.525597 0.804044 0.383993
0.597314 0.816876 0.397894
0.650309 0.827131 0.40708
0.693751 0.835569 0.413474
0.736965 0.844968 0.419821
0.779553 0.854932 0.426078
0.822309 0.864713 0.431617
0.423102 0.918379 0.397818
0.495277 0.926192 0.410773
0.566781 0.935897 0.42446
0.638605 0.948074 0.438605
0.692592 0.957824 0.448203
0.736797 0.965942 0.455177
0.780484 0.975113 0.462287
0.823285 0.984939 0.469429
0.866041 0.994629 0.475975
0.0394903 0 0.0885176
0.112993 0 0.106722
0.190341 0 0.123018
0.274098 0 0.139879
0.337484 0 0.151217
0.392218 0 0.160632
0.447288 0.00613413 0.170367
0.500969 0.0129549 0.180209
0.553292 0.020264 0.190219
0.0986191 0.0773022 0.129854
0.160906 0.0875563 0.150469
0.231403 0.0984665 0.167987
0.313191 0.108843 0.185931
0.376181 0.116075 0.197498
0.429862 0.122621 0.206744
0.483406 0.129564 0.215991
0.535012 0.136873 0.225376
0.585977 0.144366 0.234791
0.172992 0.188602 0.193545
0.222354 0.203265 0.208423
0.28246 0.217411 0.224262
0.357412 0.230121 0.23949
0.418692 0.238148 0.249226
0.471748 0.244938 0.257069
0.523064 0.252384 0.265263
0.572305 0.260334 0.273793
0.620615 0.268208 0.282216
0.228397 0.29958 0.256657
0.286503 0.311894 0.270939
0.342489 0.327703 0.28574
0.408377 0.34374 0.296956
0.465248 0.353887 0.303395
0.515084 0.361685 0.308797
0.56405 0.369802 0.31519
0.610498 0.37818 0.322316
0.657053 0.386786 0.329839
0.270283 0.406058 0.303532
0.335729 0.416251 0.319692
0.397024 0.430259 0.336126
0.460624 0.447166 0.347814
0.512551 0.459052 0.353063
0.558083 0.46804 0.356847
0.603769 0.477089 0.361761
0.648157 0.486137 0.367681
0.693111 0.495354 0.374304
0.310597 0.525429 0.348074
0.379248 0.534249 0.363272
0.446571 0.545876 0.379934
0.513268 0.561135 0.394156
0.563058 0.572824 0.401068
0.605203 0.582437 0.405524
0.647807 0.592157 0.410269
0.690471 0.601968 0.415778
0.733867 0.611719 0.421698
0.353491 0.65687 0.393896
0.423041 0.665507 0.407553
0.493217 0.676173 0.422843
0.562707 0.689952 0.438056
0.613153 0.700984 0.447288
0.654612 0.710262 0.453559
0.696345 0.72015 0.459754
0.737865 0.730358 0.466178
0.780041 0.740429 0.472221
0.394003 0.789593 0.436713
0.465583 0.797559 0.450172
0.536309 0.807691 0.465507
0.606744 0.820615 0.4822
0.658839 0.831098 0.493904
0.701137 0.839857 0.502205
0.743114 0.849577 0.510246
0.784329 0.859586 0.517632
0.826139 0.869963 0.524727
0.433921 0.922118 0.480354
0.506127 0.929808 0.495415
0.577493 0.9393 0.512047
0.64863 0.951461 0.529931
0.702052 0.961379 0.542611
0.745373 0.96968 0.55198
0.788037 0.979126 0.561288
0.829664 0.988998 0.570077
0.871519 0.999222 0.578393
0.0490578 0 0.154147
0.12517 0 0.183215
0.20267 0 0.200748
0.283085 0 0.216739
0.345113 4.57771e-05 0.228763
0.399008 0.00646983 0.239414
0.453223 0.013077 0.250248
0.506004 0.0199893 0.261112
0.557671 0.0274052 0.272206
0.107836 0.0854353 0.187671
0.172198 0.0935836 0.219104
0.244205 0.104143 0.239307
0.322072 0.115618 0.258213
0.382956 0.123232 0.27158
0.435615 0.130007 0.282506
0.488182 0.137102 0.293217
0.538903 0.144381 0.303929
0.589273 0.15201 0.314824
0.180056 0.198169 0.243565
0.229618 0.212055 0.261357
0.292607 0.224948 0.284718
0.363638 0.238392 0.304555
0.422782 0.246464 0.318685
0.475242 0.2533 0.329824
0.526329 0.260563 0.340307
0.574899 0.26833 0.350408
0.62269 0.276387 0.360616
0.245182 0.305684 0.312749
0.299016 0.319356 0.323827
0.350301 0.336583 0.340047
0.411719 0.353277 0.358282
0.465934 0.363378 0.370626
0.515557 0.371084 0.380209
0.564935 0.378805 0.389349
0.611887 0.386801 0.398352
0.658228 0.395331 0.407568
0.288075 0.410742 0.370825
0.347936 0.42269 0.382452
0.408042 0.437415 0.397955
0.466072 0.455467 0.414984
0.513542 0.467994 0.424353
0.557687 0.47744 0.430976
0.603449 0.48632 0.43743
0.648432 0.495018 0.444343
0.693828 0.504036 0.452094
0.326345 0.5299 0.422248
0.392111 0.539452 0.43415
0.460349 0.55108 0.451545
0.523766 0.566766 0.47129
0.56878 0.579583 0.481926
0.607767 0.590158 0.487922
0.648951 0.600381 0.493111
0.691203 0.610193 0.498833
0.734722 0.620066 0.505623
0.367468 0.661463 0.472251
0.435065 0.670436 0.48542
0.505852 0.681056 0.503853
0.574792 0.69456 0.525231
0.622538 0.705959 0.538613
0.661524 0.716152 0.547097
0.701091 0.726757 0.554009
0.7411 0.737285 0.560449
0.782498 0.74789 0.567361
0.407996 0.79382 0.52372
0.477485 0.802304 0.537621
0.547326 0.812772 0.555138
0.617533 0.825452 0.576272
0.668772 0.835782 0.591562
0.709911 0.84509 0.603037
0.750393 0.855238 0.613504
0.790188 0.865675 0.62295
0.830716 0.876417 0.632288
0.44802 0.92607 0.577111
0.518151 0.933989 0.592676
0.588663 0.943969 0.612497
0.659617 0.956039 0.635599
0.712428 0.965713 0.652354
0.755154 0.974487 0.665446
0.796811 0.984161 0.677852
0.837278 0.994263 0.689265
0.878004 1 0.700008
0.0568856 0 0.211398
0.13196 0 0.247486
0.212314 0 0.272251
0.293278 0 0.289189
0.354635 0.0053254 0.30132
0.40766 0.0120089 0.312184
0.460945 0.0187228 0.323308
0.51281 0.0259403 0.334783
0.563668 0.0335088 0.34641
0.116304 0.0924697 0.245502
0.179187 0.100969 0.277928
0.255085 0.109316 0.308431
0.333333 0.120546 0.327947
0.392309 0.128893 0.340856
0.44361 0.136065 0.35201
0.495155 0.143328 0.363394
0.544915 0.150805 0.374945
0.594415 0.158572 0.386709
0.185489 0.206485 0.297627
0.237491 0.219883 0.313512
0.30251 0.231159 0.346563
0.375402 0.243824 0.368582
0.431968 0.252705 0.383093
0.482429 0.259998 0.395529
0.53196 0.267231 0.407187
0.579843 0.275364 0.418662
0.62681 0.283543 0.429892
0.251987 0.314244 0.361273
0.305608 0.328237 0.369421
0.357061 0.345296 0.386984
0.421271 0.360403 0.412772
0.472938 0.371038 0.427619
0.520317 0.379049 0.440467
0.56846 0.386603 0.452796
0.61503 0.394675 0.464927
0.661265 0.403052 0.476936
0.303563 0.416327 0.423438
0.363302 0.428504 0.433249
0.419928 0.444495 0.446311
0.47332 0.463783 0.463951
0.517937 0.47689 0.479561
0.559716 0.48661 0.492485
0.604257 0.495354 0.504509
0.649332 0.503838 0.515923
0.69514 0.51252 0.527123
0.347158 0.532982 0.487434
0.40943 0.543694 0.499733
0.472679 0.557198 0.515084
0.533578 0.573678 0.534615
0.57525 0.587289 0.550423
0.610483 0.598703 0.561318
0.649348 0.609354 0.570901
0.690959 0.619226 0.579889
0.734768 0.62887 0.589258
0.388067 0.664012 0.551385
0.452018 0.674189 0.564843
0.5196 0.685893 0.583246
0.587396 0.699611 0.608652
0.633341 0.711284 0.628702
0.669337 0.72221 0.642725
0.705486 0.733501 0.652979
0.743435 0.744976 0.661402
0.783795 0.755917 0.668986
0.428168 0.796185 0.615015
0.494392 0.805646 0.630808
0.561334 0.81706 0.65095
0.629877 0.830091 0.676143
0.6804 0.840513 0.695933
0.720287 0.850034 0.711177
0.758648 0.860533 0.724041
0.796414 0.871794 0.734798
0.835187 0.883162 0.743816
0.468849 0.927977 0.68249
0.535927 0.936797 0.699092
0.603235 0.947662 0.719142
0.67155 0.960479 0.741848
0.723339 0.970626 0.75967
0.765316 0.979522 0.774334
0.806073 0.989242 0.788464
0.845411 0.999741 0.801328
0.884779 1 0.812863
0.0665446 0 0.281941
0.138811 0 0.319387
0.22005 0 0.353094
0.304768 0.00352483 0.376883
0.36759 0.0110628 0.390509
0.420066 0.0179141 0.400824
0.472358 0.0247196 0.411276
0.523095 0.0323949 0.422644
0.5729 0.040238 0.434379
0.125978 0.101015 0.315785
0.187549 0.110414 0.345312
0.262608 0.11812 0.383581
0.344457 0.127062 0.411322
0.404837 0.135073 0.425544
0.455634 0.142412 0.43621
0.505867 0.149676 0.447471
0.554696 0.157656 0.460258
0.602945 0.165667 0.473808
0.192813 0.21593 0.364843
0.247074 0.228733 0.381018
0.310491 0.240421 0.413794
0.387381 0.250233 0.447929
0.445686 0.258762 0.46508
0.494438 0.266575 0.477714
0.541924 0.274342 0.490288
0.588556 0.282826 0.503853
0.63447 0.291203 0.5178
0.257649 0.324468 0.424567
0.312001 0.33843 0.433631
0.366644 0.354574 0.45008
0.431647 0.368185 0.485191
0.486763 0.3776 0.5066
0.532189 0.386069 0.52105
0.577813 0.394186 0.535744
0.622522 0.402762 0.551186
0.667689 0.411383 0.566445
0.313985 0.425452 0.487175
0.372091 0.43859 0.495079
0.428397 0.454902 0.505425
0.482094 0.473838 0.523308
0.528252 0.485496 0.550027
0.56939 0.495109 0.567102
0.611139 0.504158 0.58407
0.654627 0.513069 0.60206
0.699535 0.521767 0.619455
0.367956 0.538659 0.559777
0.429389 0.550088 0.570489
0.491859 0.56405 0.582925
0.550042 0.581323 0.598032
0.587457 0.596643 0.613001
0.616114 0.609476 0.631495
0.653239 0.61944 0.653773
0.693034 0.62977 0.671107
0.736126 0.639277 0.687266
0.418936 0.666041 0.64152
0.4822 0.67657 0.655558
0.547601 0.688914 0.672786
0.612421 0.703212 0.694041
0.656153 0.715938 0.712871
0.68809 0.727916 0.729274
0.717479 0.740902 0.744411
0.748135 0.754314 0.758419
0.784314 0.766094 0.772335
0.462181 0.796246 0.718532
0.526818 0.806378 0.734096
0.591104 0.818402 0.753017
0.657099 0.831601 0.776669
0.706355 0.842588 0.797879
0.743526 0.852689 0.815854
0.776974 0.864271 0.832441
0.80827 0.877501 0.846693
0.840528 0.890867 0.857023
0.502647 0.927504 0.792248
0.567498 0.937133 0.808423
0.631754 0.948653 0.827741
0.697139 0.962005 0.850278
0.747005 0.972747 0.869627
0.78677 0.982086 0.886381
0.82417 0.992432 0.902754
0.859678 1 0.918212
0.894667 1 0.930877
0.0774243 0 0.361273
0.147066 0 0.396994
0.226825 0.00492866 0.437125
0.313527 0.0120089 0.470924
0.378714 0.0183566 0.490623
0.433051 0.0243992 0.504845
0.485893 0.0309453 0.517708
0.535821 0.0388037 0.530877
0.584421 0.0467231 0.544152
0.136385 0.110399 0.397238
0.197559 0.120272 0.423957
0.269413 0.128923 0.463325
0.351797 0.13669 0.502861
0.414908 0.143206 0.525963
0.46804 0.149248 0.542092
0.519097 0.156252 0.55697
0.567544 0.164279 0.572091
0.614404 0.172412 0.587518
0.201495 0.22623 0.447868
0.257465 0.238682 0.464302
0.31957 0.251179 0.49424
0.393668 0.261204 0.536477
0.454261 0.268101 0.56495
0.505226 0.274479 0.584405
0.553994 0.281712 0.601633
0.600488 0.290059 0.618845
0.645701 0.298558 0.635996
0.26511 0.335927 0.509575
0.3205 0.349508 0.51986
0.377264 0.364828 0.538506
0.440284 0.379507 0.571832
0.494697 0.388067 0.604639
0.542489 0.394858 0.629328
0.58938 0.402213 0.650156
0.633829 0.410697 0.669245
0.678035 0.419272 0.686732
0.323201 0.437156 0.574243
0.379507 0.450721 0.583841
0.436393 0.466773 0.596338
0.49369 0.484611 0.615335
0.537621 0.497154 0.639307
0.578515 0.505821 0.666178
0.621302 0.513603 0.692058
0.665064 0.522026 0.71548
0.709209 0.53048 0.736065
0.38291 0.549096 0.650828
0.442069 0.561425 0.659525
0.501259 0.576486 0.670527
0.558663 0.594079 0.683024
0.598489 0.608637 0.694835
0.629068 0.620691 0.709651
0.66157 0.632136 0.732464
0.699229 0.641978 0.761715
0.74197 0.650401 0.789456
0.441398 0.67393 0.736126
0.503563 0.685145 0.746746
0.565942 0.698665 0.759335
0.627863 0.714275 0.772503
0.67068 0.727657 0.783429
0.702052 0.739849 0.794446
0.730541 0.753262 0.808469
0.758465 0.767315 0.826047
0.788525 0.780377 0.847257
0.493309 0.801083 0.819272
0.557794 0.811383 0.832059
0.621164 0.823743 0.847425
0.685603 0.837781 0.865202
0.734142 0.849302 0.880232
0.771054 0.859663 0.893782
0.804028 0.871504 0.908904
0.833371 0.885222 0.925689
0.860853 0.899351 0.941527
0.540368 0.929641 0.900816
0.605173 0.939284 0.915282
0.669383 0.950805 0.932616
0.734859 0.964172 0.952941
0.785367 0.974777 0.970504
0.825971 0.983841 0.98645
0.864042 0.993851 1
0.898619 1 1
0.929976 1 1
0.088304 0.00315862 0.455467
0.155688 0.0105898 0.488853
0.232105 0.0162661 0.531197
0.317998 0.0231937 0.57525
0.384161 0.0285649 0.6038
0.439887 0.0333562 0.62446
0.494331 0.0393378 0.643259
0.545449 0.0464942 0.660899
0.594614 0.0540017 0.677165
0.147143 0.120394 0.498497
0.208316 0.13051 0.523598
0.277104 0.140078 0.560296
0.356435 0.14873 0.605768
0.419562 0.154467 0.638025
0.473991 0.159335 0.661936
0.526589 0.165331 0.683299
0.576684 0.172457 0.70309
0.624506 0.179812 0.721309
0.21088 0.237079 0.552789
0.268208 0.249134 0.569284
0.330007 0.261692 0.596063
0.400381 0.273518 0.636072
0.45864 0.280552 0.670283
0.509438 0.285893 0.697292
0.559701 0.292103 0.721675
0.607538 0.299351 0.74377
0.654612 0.306722 0.764004
0.273182 0.347646 0.613474
0.329717 0.360815 0.624262
0.387991 0.375494 0.642206
0.45098 0.390723 0.671824
0.501701 0.400473 0.701839
0.546899 0.407248 0.729778
0.59324 0.41413 0.757275
0.638834 0.421622 0.782452
0.684825 0.429084 0.805356
0.330358 0.449378 0.6748
0.387472 0.46273 0.683558
0.445258 0.478111 0.696025
0.504784 0.495476 0.716594
0.549371 0.507912 0.738293
0.587777 0.517128 0.761151
0.628016 0.52575 0.788098
0.670375 0.533989 0.816358
0.714427 0.541756 0.843015
0.392081 0.561212 0.745998
0.450095 0.573846 0.754208
0.508492 0.588724 0.765133
0.566964 0.606241 0.779385
0.608789 0.619913 0.792401
0.641855 0.631006 0.806088
0.675502 0.64239 0.825086
0.710643 0.653284 0.849592
0.74905 0.662654 0.878248
0.454719 0.684977 0.828977
0.515877 0.696666 0.836896
0.576013 0.710567 0.847135
0.635248 0.727321 0.860395
0.677714 0.74078 0.870329
0.710811 0.752239 0.878614
0.742199 0.765011 0.889693
0.772107 0.778439 0.904921
0.802274 0.791272 0.924361
0.511543 0.810498 0.913283
0.574884 0.821317 0.923018
0.636973 0.834028 0.934508
0.698802 0.849348 0.948363
0.745174 0.861769 0.958801
0.781094 0.872328 0.967239
0.81445 0.88452 0.977676
0.844633 0.89807 0.990509
0.872557 0.912047 1
0.565103 0.936797 0.997299
0.62884 0.946899 1
0.691752 0.958587 1
0.756008 0.97293 1
0.804669 0.984329 1
0.843885 0.993255 1
0.881575 1 1
0.916121 1 1
0.946777 1 1
