public/sampleLut/23.cube
TITLE "Generate by Resolve"
LUT_3D_SIZE 9
0 0 0
0.0635996 0 0
0.181964 0 0
0.305043 0 0
0.428748 0 0.00401312
0.551125 0 0.0154269
0.671077 0 0.0273594
0.787823 0 0.0400092
0.902251 0 0.0533455
0 0.076585 0
0.0725414 0.0759289 0
0.192325 0.0741283 0
0.316365 0.0715038 0
0.441459 0.068986 0
0.565103 0.0673533 0.00444038
0.68632 0.0668193 0.0173953
0.804196 0.0676432 0.0311437
0.919722 0.0695354 0.0455329
0 0.195712 0
0.0807965 0.196078 0
0.201572 0.195392 0
0.327062 0.19379 0
0.453361 0.192355 0
0.578454 0.191623 0
0.700298 0.191775 0.00404364
0.818891 0.193362 0.0184329
0.934966 0.195758 0.0332494
0 0.320027 0
0.0889296 0.321553 0
0.210575 0.32163 0
0.336996 0.320867 0
0.464393 0.319982 0
0.590234 0.3196 0
0.712596 0.320195 0
0.8309 0.321477 0.000747692
0.94699 0.323629 0.0152285
0 0.447517 0
0.0991684 0.44979 0
0.221439 0.450431 0
0.347768 0.4495 0
0.47512 0.448493 0
0.60116 0.447822 0
0.723659 0.448157 0
0.842145 0.449561 0
0.958038 0.451225 0
0 0.575647 0
0.110811 0.577813 0
0.232609 0.578347 0
0.359121 0.577386 0
0.486351 0.576028 0
0.612482 0.575082 0
0.73492 0.575021 0
0.85304 0.575967 0
0.968658 0.57705 0
0.00827039 0.702251 0
0.123964 0.704356 0
0.245411 0.704662 0
0.371633 0.703441 0
0.498756 0.701518 0
0.624506 0.699855 0
0.746548 0.699062 0
0.864088 0.699245 0
0.97937 0.699748 0
0.0234684 0.826764 0
0.138582 0.828367 0
0.259251 0.828138 0
0.385077 0.826139 0
0.511543 0.823667 0
0.637049 0.821164 0
0.758785 0.819333 0
0.875578 0.818616 0
0.98999 0.818372 0
0.0389563 0.948562 0
0.153155 0.949432 0
0.272526 0.948226 0
0.39765 0.945434 0
0.523598 0.942138 0
0.648661 0.938857 0
0.770153 0.9364 0
0.886854 0.93518 0
1 0.934646 0
0 0 0.0772106
0.0491646 0 0.0881819
0.168017 0 0.0986343
0.291493 0 0.108766
0.41529 0 0.119326
0.538003 0 0.130419
0.658106 0 0.142168
0.774945 0 0.155062
0.889372 0 0.168627
0 0.0806439 0.0605631
0.0591745 0.0800641 0.0726177
0.178836 0.0784772 0.0842756
0.30338 0.0758526 0.0955978
0.428397 0.0735332 0.107347
0.552407 0.0719158 0.119677
0.673564 0.071519 0.132937
0.791409 0.0724651 0.147189
0.906889 0.074464 0.162051
0 0.200214 0.041413
0.0676738 0.200717 0.0547036
0.188586 0.200122 0.0678264
0.314244 0.198581 0.0805219
0.44062 0.197223 0.0935836
0.565713 0.196551 0.10724
0.687556 0.196811 0.121584
0.805936 0.198322 0.136751
0.921874 0.200671 0.152605
0 0.324254 0.0230411
0.0760662 0.326467 0.0365606
0.197726 0.326604 0.0505074
0.324224 0.325811 0.0643778
0.451179 0.325017 0.0783551
0.576684 0.324559 0.093492
0.698924 0.324971 0.109178
0.816938 0.326162 0.124422
0.932754 0.328313 0.139849
0 0.452491 0.00602731
0.085771 0.45478 0.0216526
0.207691 0.455329 0.0373083
0.33373 0.454353 0.0515145
0.460807 0.453239 0.0654459
0.586664 0.452552 0.0792554
0.709026 0.452811 0.09337
0.827314 0.454124 0.107836
0.943267 0.455741 0.122225
0 0.580392 0
0.0963149 0.582544 0.00979629
0.218036 0.583032 0.0238804
0.344228 0.58201 0.0370642
0.47129 0.580667 0.0498512
0.597406 0.579629 0.0627298
0.719676 0.579492 0.0760052
0.837659 0.580362 0.089662
0.953124 0.581353 0.10312
0 0.706905 0
0.108919 0.708949 0
0.230152 0.709209 0.0106203
0.356374 0.707866 0.0231479
0.483024 0.705928 0.0349432
0.608774 0.704158 0.046891
0.730861 0.703212 0.0591287
0.84828 0.703288 0.0717479
0.963256 0.703746 0.0844282
0.00799573 0.831205 0
0.122942 0.832746 0
0.243503 0.83241 0
0.369009 0.830365 0.0102083
0.495445 0.827756 0.0213626
0.620935 0.825116 0.0322881
0.742336 0.823316 0.0432746
0.859144 0.822461 0.0548257
0.973617 0.822095 0.0665293
0.0229801 0.952697 0
0.137026 0.95349 0
0.256474 0.952392 0
0.38114 0.94934 0
0.506935 0.945953 0.00697337
0.632029 0.942565 0.0168765
0.753338 0.940078 0.0271458
0.869886 0.938857 0.0377356
0.984009 0.938231 0.0490272
0 0 0.215763
0.0307469 0 0.226169
0.149813 0 0.23653
0.273503 0 0.246143
0.397726 0 0.256107
0.520546 0 0.26659
0.640925 0 0.277684
0.758007 0 0.289998
0.872755 0 0.302968
0 0.084062 0.198047
0.0412757 0.0836042 0.209766
0.161379 0.0820325 0.221042
0.285939 0.0796216 0.231754
0.41149 0.0773327 0.242969
0.535637 0.0759136 0.254536
0.657145 0.0756237 0.267155
0.775311 0.0766766 0.280629
0.891035 0.0787671 0.294835
0 0.203937 0.177737
0.0507362 0.204562 0.190585
0.171862 0.204105 0.203082
0.320928 0.214954 0.211521
0.424369 0.201495 0.22739
0.549767 0.200916 0.240131
0.672007 0.201175 0.253513
0.790616 0.202762 0.267689
0.906737 0.205188 0.282353
0 0.325734 0.163989
0.0595712 0.330312 0.175463
0.181796 0.331014 0.183062
0.308309 0.330358 0.196063
0.435706 0.329549 0.208881
0.561807 0.329107 0.221958
0.684276 0.329595 0.235615
0.802457 0.330846 0.249317
0.918639 0.332967 0.263981
0 0.457084 0.136294
0.0718395 0.458595 0.153994
0.192645 0.460029 0.164599
0.319097 0.458991 0.177066
0.446448 0.457923 0.189883
0.572534 0.457252 0.202731
0.695201 0.457481 0.216114
0.813458 0.458732 0.229969
0.929335 0.46041 0.244083
0 0.585138 0.118944
0.0819409 0.587304 0.133364
0.203693 0.587839 0.146929
0.330251 0.586923 0.159609
0.457404 0.585382 0.171817
0.583459 0.584298 0.184375
0.705837 0.584054 0.197559
0.823758 0.584878 0.211109
0.939391 0.585977 0.22472
0 0.711666 0.104494
0.094789 0.713695 0.118837
0.216114 0.713909 0.132113
0.342168 0.712551 0.144472
0.468879 0.71046 0.156268
0.594644 0.708583 0.168444
0.716442 0.707622 0.180713
0.833722 0.707591 0.193652
0.948623 0.707927 0.206775
0 0.83595 0.0935836
0.108812 0.837293 0.107149
0.229206 0.836881 0.119936
0.354559 0.83473 0.131899
0.48098 0.831983 0.143313
0.606088 0.829313 0.154742
0.72755 0.827359 0.166812
0.844099 0.826398 0.17966
0.957855 0.826017 0.193347
0.00852979 0.957031 0.0834669
0.122423 0.957748 0.0967117
0.241596 0.956619 0.108934
0.366323 0.953506 0.120104
0.491707 0.949874 0.131243
0.616068 0.94638 0.143862
0.737209 0.943755 0.155657
0.853376 0.942473 0.167727
0.967269 0.941833 0.179782
0 0 0.364675
0.0102846 0 0.375158
0.129625 0 0.385275
0.253407 0 0.394995
0.37763 0 0.404852
0.500801 0 0.415198
0.621408 0 0.426276
0.738705 0 0.438529
0.853422 0 0.451286
0 0.0870222 0.347036
0.0212253 0.0866712 0.358633
0.14139 0.0852522 0.369757
0.266331 0.0828565 0.380621
0.391791 0.0807813 0.391577
0.51635 0.0793927 0.403082
0.637949 0.0792248 0.415641
0.756191 0.0804303 0.428885
0.872053 0.0825971 0.442832
0 0.207309 0.326253
0.00515755 0.21854 0.315709
0.110521 0.22182 0.337804
0.278401 0.206424 0.363592
0.405234 0.205264 0.375845
0.530816 0.204761 0.388174
0.652995 0.205081 0.401328
0.771725 0.206714 0.415213
0.887968 0.20911 0.429572
0 0.332799 0.304189
0.0413977 0.334707 0.31783
0.141024 0.340993 0.33727
0.289433 0.334264 0.343954
0.458656 0.359686 0.363058
0.542931 0.333059 0.369116
0.665583 0.333501 0.382239
0.7841 0.334768 0.395773
0.900069 0.336873 0.409979
0 0.461021 0.283772
0.0615244 0.459342 0.307454
0.172595 0.463539 0.318318
0.300221 0.462913 0.323812
0.427756 0.46186 0.335851
0.553994 0.461173 0.348257
0.6766 0.461433 0.361318
0.794949 0.462608 0.374716
0.911299 0.464179 0.388342
0 0.589075 0.264973
0.0632792 0.591272 0.279179
0.186419 0.590921 0.296269
0.311711 0.59086 0.304509
0.438849 0.589303 0.316304
0.564935 0.588235 0.328069
0.687465 0.58793 0.340581
0.805493 0.588693 0.353491
0.921126 0.589731 0.366461
0 0.715602 0.249042
0.0763561 0.717617 0.262852
0.197604 0.717815 0.275776
0.323827 0.716381 0.287465
0.450599 0.714244 0.298329
0.576394 0.712367 0.309606
0.698543 0.711238 0.32108
0.815946 0.711147 0.333104
0.930831 0.711467 0.345464
0 0.839796 0.236011
0.0904707 0.841077 0.24918
0.210742 0.84065 0.261433
0.33637 0.838407 0.272236
0.462806 0.835645 0.282643
0.588144 0.832883 0.293095
0.709773 0.830915 0.303639
0.826627 0.830014 0.315007
0.94107 0.829587 0.326467
0 0.960693 0.22356
0.10428 0.961349 0.236072
0.22356 0.960189 0.247471
0.348394 0.957137 0.257481
0.474128 0.953582 0.267063
0.599069 0.949905 0.276539
0.720394 0.947311 0.286763
0.837003 0.946029 0.297292
0.951156 0.945373 0.308598
0 0 0.515892
0 0 0.526909
0.108721 0 0.537133
0.232578 0 0.54696
0.357336 0 0.557122
0.480369 0 0.567498
0.601129 0 0.578698
0.718471 0 0.591058
0.833448 0 0.603983
0 0.0899214 0.499031
0.000518807 0.089662 0.510842
0.120974 0.0883955 0.522194
0.238163 0.089189 0.525902
0.371664 0.0840314 0.544137
0.496101 0.082826 0.555642
0.61796 0.0827192 0.568276
0.736355 0.0839857 0.581704
0.852277 0.0862135 0.595804
0 0.210529 0.478782
0 0.225467 0.427405
0.09337 0.228367 0.457008
0.242176 0.216327 0.503258
0.38526 0.208896 0.528618
0.510933 0.208423 0.541161
0.633295 0.208728 0.554299
0.752026 0.210391 0.568154
0.868208 0.212787 0.582452
0 0.336431 0.45687
0.0252384 0.341939 0.431571
0.117769 0.350134 0.45301
0.233661 0.351339 0.475227
0.396963 0.337224 0.509239
0.523125 0.336736 0.521996
0.64567 0.337163 0.534874
0.764126 0.338415 0.548486
0.880217 0.340536 0.5626
0 0.464805 0.436515
0.0316777 0.467094 0.450874
0.151675 0.468925 0.459922
0.263401 0.471717 0.476509
0.407797 0.465568 0.488472
0.592111 0.505028 0.522591
0.656825 0.465049 0.513634
0.775235 0.466346 0.526925
0.891463 0.46772 0.540429
0 0.592828 0.41738
0.0431525 0.595041 0.43154
0.173327 0.592065 0.452674
0.291325 0.593957 0.462516
0.41886 0.59295 0.468238
0.545052 0.591775 0.480125
0.667475 0.591455 0.492241
0.785473 0.592157 0.504784
0.901137 0.593118 0.517433
0 0.719326 0.400992
0.0561837 0.721294 0.414832
0.177478 0.721416 0.427405
0.30515 0.719036 0.44271
0.430625 0.717968 0.450004
0.556298 0.71574 0.460533
0.678264 0.71458 0.471717
0.795666 0.714412 0.483406
0.910704 0.714626 0.495232
0 0.843275 0.387411
0.0702373 0.844526 0.400473
0.19057 0.844007 0.412299
0.31603 0.841718 0.423041
0.442512 0.83888 0.432883
0.56791 0.836027 0.442954
0.689723 0.833936 0.453162
0.806485 0.833021 0.464027
0.920821 0.832609 0.47512
0 0.963973 0.37406
0.0839246 0.964553 0.386358
0.203037 0.963394 0.39733
0.328099 0.96025 0.40708
0.453941 0.956695 0.41622
0.578958 0.953185 0.425467
0.70016 0.950362 0.43473
0.816907 0.949081 0.445029
0.93106 0.948516 0.455711
0 0 0.66894
0 0 0.679881
0.0876631 0 0.690089
0.211917 0 0.700084
0.336507 0 0.710094
0.459968 0 0.720562
0.580728 0 0.731807
0.698222 0 0.744152
0.813306 0 0.757198
0 0.0928206 0.652003
0 0.0927749 0.663966
0.100359 0.0916609 0.675395
0.22562 0.0895247 0.686458
0.351125 0.0873884 0.697322
0.475914 0.0861982 0.709087
0.597787 0.086244 0.721614
0.716197 0.087602 0.735012
0.832258 0.0898604 0.749325
0 0.213794 0.63209
0 0.214817 0.645197
0.111696 0.214679 0.65774
0.210422 0.227176 0.623743
0.358877 0.215351 0.673915
0.490929 0.2121 0.694682
0.613489 0.212696 0.707912
0.732036 0.214115 0.721523
0.84828 0.216464 0.735805
0 0.340017 0.610529
0.000350958 0.342092 0.624689
0.10164 0.358022 0.560235
0.216861 0.358541 0.590539
0.363851 0.346792 0.646036
0.503059 0.340429 0.675258
0.625681 0.34078 0.688426
0.744091 0.342031 0.701854
0.860273 0.344152 0.715908
0 0.468528 0.590127
0.0115511 0.470817 0.604471
0.134997 0.476936 0.567712
0.241962 0.481239 0.585641
0.360342 0.481239 0.609018
0.513985 0.468513 0.654093
0.636622 0.468681 0.667018
0.755077 0.469902 0.680369
0.871214 0.471244 0.693675
0 0.596536 0.570764
0.0229648 0.598718 0.585
0.144823 0.599191 0.598032
0.273503 0.599008 0.59707
0.388876 0.600397 0.612314
0.524636 0.595346 0.633127
0.722438 0.650172 0.685405
0.765164 0.595514 0.657938
0.88069 0.596414 0.670573
0 0.722988 0.554253
0.0358892 0.724865 0.567987
0.157 0.724971 0.580697
0.293111 0.719951 0.595987
0.411154 0.720806 0.604761
0.535683 0.719051 0.613443
0.657755 0.717739 0.624674
0.775158 0.717464 0.63624
0.889921 0.717678 0.647883
0 0.846738 0.540444
0.0495766 0.847913 0.553414
0.169772 0.847333 0.565164
0.295308 0.844938 0.575616
0.421668 0.841993 0.585733
0.546929 0.839109 0.595544
0.668742 0.836927 0.605646
0.785611 0.835904 0.616556
0.900099 0.835401 0.627543
0 0.967132 0.526848
0.0630503 0.967666 0.539055
0.182071 0.96643 0.549935
0.306996 0.963256 0.559594
0.432883 0.959609 0.568627
0.558022 0.956039 0.577768
0.679438 0.953445 0.587121
0.796262 0.951949 0.597375
0.910307 0.951431 0.608103
0 0 0.820325
0 0 0.831388
0.067277 0 0.84184
0.191272 0 0.851637
0.316136 0 0.86157
0.439612 0 0.872053
0.56054 0 0.883406
0.678126 0 0.895796
0.793423 0 0.90898
0 0.0960403 0.803861
0 0.0960098 0.815778
0.0800336 0.0948959 0.827085
0.205264 0.0928817 0.838132
0.331502 0.0910201 0.849409
0.455985 0.0897231 0.860807
0.578103 0.0898146 0.873472
0.696574 0.0912184 0.887404
0.81265 0.0935531 0.901503
0 0.217151 0.783719
0 0.21825 0.79704
0.0918593 0.218219 0.809689
0.218067 0.217273 0.821729
0.345357 0.216236 0.834257
0.471214 0.215824 0.846922
0.593835 0.216388 0.860304
0.712291 0.217868 0.873823
0.828504 0.220188 0.887999
0 0.343725 0.7626
0 0.345876 0.776776
0.102708 0.346319 0.789899
0.22945 0.345556 0.802731
0.334829 0.357549 0.76109
0.478523 0.346639 0.818189
0.605982 0.344488 0.840299
0.724376 0.345724 0.853559
0.840772 0.347784 0.867597
0 0.472358 0.742199
0 0.474632 0.756451
0.113588 0.475196 0.769558
0.226184 0.489403 0.687694
0.343969 0.488655 0.719554
0.484733 0.477424 0.785382
0.616907 0.472358 0.818387
0.735424 0.473503 0.831693
0.851408 0.474815 0.845029
0 0.60032 0.722423
0.00300603 0.602502 0.736507
0.124773 0.602991 0.749447
0.258122 0.607355 0.696544
0.371374 0.608164 0.721263
0.499657 0.602106 0.769589
0.627192 0.598444 0.796262
0.745052 0.598978 0.808774
0.860746 0.599817 0.821378
0 0.726665 0.705516
0.0158236 0.728542 0.719219
0.13698 0.728588 0.731655
0.262989 0.726955 0.742992
0.390158 0.724804 0.753216
0.515572 0.722393 0.764233
0.637522 0.721035 0.775006
0.754818 0.720699 0.786633
0.869764 0.720745 0.798245
0 0.850355 0.691463
0.0294804 0.851316 0.704158
0.149569 0.85066 0.715816
0.274952 0.848203 0.726268
0.401312 0.845182 0.736065
0.526711 0.842176 0.745724
0.648356 0.839948 0.75581
0.765255 0.83888 0.766369
0.879545 0.838376 0.777508
0 0.970382 0.677333
0.042649 0.970825 0.689357
0.161669 0.969497 0.700175
0.286519 0.966278 0.709697
0.412314 0.962615 0.7187
0.537163 0.959091 0.72752
0.658839 0.95639 0.737041
0.775525 0.955077 0.747066
0.889937 0.954376 0.758038
0 0 0.969055
0 0 0.98027
0.0470588 0 0.990585
0.171344 0 1
0.296208 0 1
0.420005 0 1
0.54107 0 1
0.658808 0 1
0.774151 0 1
0 0.0991989 0.95259
0 0.0992599 0.964569
0.0602579 0.0982528 0.976059
0.185718 0.0963455 0.986999
0.31191 0.0946517 0.99823
0.436851 0.0935836 1
0.558816 0.0936446 1
0.67744 0.0951247 1
0.793637 0.0974594 1
0 0.220722 0.932723
0 0.221942 0.945937
0.072343 0.222004 0.958618
0.198947 0.221042 0.970779
0.326192 0.220157 0.98294
0.452079 0.219791 0.995407
0.574838 0.220295 1
0.693431 0.221744 1
0.809659 0.224033 1
0 0.347585 0.911254
0 0.349813 0.925444
0.0838331 0.350378 0.938704
0.210422 0.349508 0.950973
0.338109 0.348638 0.963088
0.464302 0.348013 0.975448
0.586969 0.348379 0.988373
0.705638 0.349798 1
0.821988 0.351583 1
0 0.476295 0.89044
0 0.478553 0.904631
0.0946212 0.479072 0.917693
0.22118 0.478096 0.929778
0.348669 0.476936 0.941604
0.459495 0.487816 0.89218
0.594537 0.478355 0.955886
0.716289 0.477272 0.979461
0.832273 0.478553 0.992569
0 0.604227 0.870451
0 0.606409 0.884474
0.105577 0.606882 0.897398
0.232242 0.605768 0.909239
0.356527 0.613077 0.847303
0.484123 0.604166 0.922148
0.608072 0.60206 0.943648
0.725963 0.602487 0.955993
0.841428 0.603281 0.968475
0 0.73051 0.853086
0 0.732311 0.866804
0.117617 0.732311 0.879164
0.24361 0.730632 0.890333
0.370565 0.728374 0.900816
0.496117 0.725902 0.911116
0.618097 0.724407 0.921935
0.735363 0.723964 0.933623
0.850111 0.72398 0.945037
0 0.854002 0.838636
0.0100404 0.854963 0.851286
0.129885 0.854185 0.862745
0.255375 0.851591 0.872984
0.381598 0.848493 0.883116
0.506859 0.845441 0.89247
0.628595 0.843107 0.902678
0.74548 0.841962 0.913298
0.859953 0.841382 0.924086
0 0.973754 0.823972
0.0228885 0.974121 0.836316
0.141878 0.972717 0.846906
0.266529 0.969467 0.856611
0.392432 0.965743 0.86537
0.517357 0.962188 0.87393
0.639048 0.959442 0.883467
0.755947 0.958068 0.893385
0.870237 0.957443 0.90425
0 0 1
0 0 1
0.0272526 0 1
0.151507 0 1
0.276692 0 1
0.400519 0 1
0.521737 0 1
0.639567 0 1
0.755108 0 1
0 0.102464 1
0 0.102602 1
0.0407874 0.101732 1
0.166293 0.0999466 1
0.292866 0.0982834 1
0.417838 0.0973678 1
0.539864 0.0974899 1
0.658701 0.0989853 1
0.774884 0.101366 1
0 0.224598 1
0 0.225635 1
0.0533455 0.225788 1
0.179767 0.224994 1
0.307286 0.224079 1
0.433371 0.223697 1
0.555978 0.224216 1
0.674571 0.225696 1
0.790875 0.227909 1
0 0.351553 1
0 0.35378 1
0.0647746 0.354406 1
0.191516 0.353506 1
0.319188 0.35259 1
0.445411 0.351934 1
0.568292 0.352239 1
0.686839 0.353643 1
0.803082 0.355505 1
0 0.480323 1
0 0.482551 1
0.0754864 0.483085 1
0.202152 0.482033 1
0.329839 0.480842 1
0.456275 0.479973 1
0.578973 0.480018 1
0.697398 0.481071 1
0.813474 0.482246 1
0 0.608225 1
0 0.610407 1
0.0865949 0.610803 1
0.213062 0.609705 1
0.340215 0.607858 1
0.466621 0.606348 1
0.588983 0.605737 1
0.706828 0.606073 1
0.822263 0.60679 1
0 0.734371 0.999939
0 0.736156 1
0.0982986 0.73611 1
0.22443 0.73431 1
0.351293 0.73196 1
0.47686 0.729427 1
0.598795 0.727825 1
0.71606 0.727321 1
0.830747 0.727275 1
0 0.857633 0.984985
0 0.858518 0.997497
0.110597 0.857649 1
0.235935 0.855024 1
0.362097 0.851896 1
0.487587 0.848661 1
0.60914 0.846357 1
0.726192 0.845136 1
0.840482 0.844572 1
0 0.977142 0.96965
0.00347906 0.977447 0.981476
0.122255 0.976028 0.99202
0.24715 0.972671 1
0.37293 0.968933 1
0.497871 0.965347 1
0.61944 0.962676 1
0.736461 0.961257 1
0.850996 0.960571 1
