public/sampleLut/23.cube
TITLE "Generate by Resolve"
LUT_3D_SIZE 33
0 0 0
0 0 0
0.00569162 0 0
0.0344244 0 0
0.0635996 0 0
0.0926986 0 0
0.122103 0 0
0.151843 0 0
0.181964 0 0
0.212299 0 0
0.243015 0 0
0.274189 0 0
0.305043 0 0
0.336065 0 0
0.367025 0 0
0.397986 0 0.00129702
0.428748 0 0.00401312
0.459342 0 0.00679026
0.490288 0 0.00982681
0.520851 0 0.0125887
0.551125 0 0.0154269
0.581415 0 0.0182803
0.611749 0 0.0214237
0.641443 0 0.0243687
0.671077 0 0.0273594
0.700496 0 0.0303807
0.730007 0 0.0337224
0.758999 0 0.0368353
0.787823 0 0.0400092
0.816388 0 0.0432746
0.845029 0 0.0467994
0.873625 0 0.0500649
0.902251 0 0.0533455
0 0 0
0 0 0
0.0084535 0 0
0.0373083 0 0
0.0661479 0 0
0.0955367 0 0
0.125093 0 0
0.15494 0 0
0.185046 0 0
0.215854 0 0
0.246601 0 0
0.27744 0 0
0.308614 0 0
0.339666 0 0
0.370611 0 0
0.401526 0 0
0.432486 0 0.00210575
0.463066 0 0.00462348
0.493812 0 0.00743114
0.5243 0 0.0102846
0.555062 0 0.0134127
0.585412 0 0.0162966
0.615412 0 0.0192569
0.645411 0 0.0223239
0.675303 0 0.0255589
0.704768 0 0.0286412
0.733944 0 0.0317998
0.763058 0 0.0349889
0.79234 0 0.0384833
0.820951 0 0.0417792
0.849363 0 0.0451362
0.878019 0 0.0484779
0.906996 0 0.0520943
0 0.0186618 0
0 0.018616 0
0.0102693 0.0181582 0
0.0394446 0.0179904 0
0.0683604 0.0175784 0
0.0975662 0.0170901 0
0.127169 0.016495 0
0.157259 0.0161593 0
0.187533 0.0154116 0
0.218143 0.0145876 0
0.248936 0.0140078 0
0.28011 0.0131838 0
0.311299 0.012253 0
0.34226 0.011429 0
0.373709 0.0108339 0
0.404623 0.010071 0
0.435462 0.00933852 0
0.466407 0.00860609 0.00187686
0.497322 0.00825513 0.00492866
0.528069 0.00762951 0.00787366
0.558633 0.00709545 0.0107576
0.588922 0.00665293 0.0137636
0.619257 0.00660716 0.0168154
0.64918 0.00633249 0.0197604
0.678965 0.00611887 0.0229496
0.708476 0.00601205 0.0261845
0.738033 0.00627146 0.0295567
0.767285 0.00630198 0.0328679
0.796124 0.00650034 0.035874
0.825071 0.00665293 0.0392004
0.853529 0.00733959 0.0429236
0.882261 0.00761425 0.0463417
0.911025 0.00790417 0.0497597
0 0.047364 0
0 0.0475929 0
0.0123903 0.0472572 0
0.0411536 0.0469215 0
0.0702525 0.0465095 0
0.0999008 0.0462959 0
0.129564 0.0457618 0
0.159442 0.0451972 0
0.189914 0.0446326 0
0.220645 0.0440375 0
0.251392 0.0432898 0
0.282551 0.0424201 0
0.313863 0.0419165 0
0.345129 0.041062 0
0.376379 0.0402533 0
0.407218 0.0395972 0
0.43856 0.0391546 0
0.469596 0.038468 0
0.500282 0.0379339 0.00154116
0.531136 0.0373693 0.00454719
0.561883 0.037232 0.00770581
0.592401 0.0368048 0.0107729
0.622766 0.0364691 0.013901
0.652613 0.0363165 0.0169375
0.68278 0.0364233 0.0204318
0.712474 0.036347 0.0237125
0.741833 0.0364233 0.0268864
0.77113 0.0365148 0.0302586
0.800366 0.0369268 0.0339055
0.829511 0.037171 0.0373999
0.857771 0.0376745 0.0408026
0.88661 0.037995 0.0443275
0.915541 0.0383917 0.0479286
0 0.076585 0
0 0.0766308 0
0.0141604 0.0764019 0
0.0433356 0.0763104 0
0.0725414 0.0759289 0
0.101976 0.0755016 0
0.131655 0.0751049 0
0.161913 0.0747692 0
0.192325 0.0741283 0
0.222782 0.073518 0
0.254032 0.0729992 0
0.285298 0.072221 0
0.316365 0.0715038 0
0.347753 0.0707103 0
0.379294 0.0702525 0
0.4103 0.0696269 0
0.441459 0.068986 0
0.472419 0.0684215 0
0.503639 0.0681773 0
0.534585 0.0676738 0.00148013
0.565103 0.0673533 0.00444038
0.595728 0.0669871 0.00756847
0.6262 0.066865 0.0108797
0.656352 0.0669108 0.0141146
0.68632 0.0668193 0.0173953
0.716075 0.066804 0.020737
0.745342 0.0670024 0.0239872
0.77496 0.0674296 0.0276799
0.804196 0.0676432 0.0311437
0.833356 0.0679179 0.034638
0.861631 0.0684672 0.0381018
0.890761 0.0690929 0.0419013
0.919722 0.0695354 0.0455329
0 0.105791 0
0 0.106081 0
0.0160983 0.105989 0
0.045243 0.105669 0
0.0747539 0.105577 0
0.104295 0.105241 0
0.133959 0.10486 0
0.164096 0.104356 0
0.194629 0.103944 0
0.22536 0.103502 0
0.256458 0.1028 0
0.287724 0.102068 0
0.319188 0.101656 0
0.350683 0.100954 0
0.381903 0.100343 0
0.413123 0.0997482 0
0.444617 0.099443 0
0.475685 0.0989548 0
0.506737 0.0984817 0
0.537621 0.0981003 0
0.568582 0.0979934 0.00129702
0.599359 0.0977646 0.00454719
0.629694 0.0975967 0.00779736
0.659846 0.0975357 0.0109255
0.689876 0.0975052 0.0142672
0.719814 0.0978866 0.0179599
0.74931 0.098085 0.0212406
0.778714 0.0983139 0.0247349
0.807996 0.0986038 0.0282444
0.83714 0.0989548 0.0318151
0.866026 0.0997482 0.0355688
0.894728 0.100267 0.0392004
0.923674 0.10071 0.0428321
0 0.135546 0
0 0.135622 0
0.0179904 0.135744 0
0.0473945 0.135607 0
0.0767529 0.135332 0
0.106325 0.135027 0
0.136324 0.134981 0
0.166461 0.134569 0
0.196918 0.134081 0
0.22768 0.133547 0
0.258961 0.133013 0
0.290364 0.13257 0
0.321782 0.131945 0
0.353338 0.131273 0
0.384726 0.130816 0
0.41622 0.130465 0
0.447425 0.130007 0
0.478721 0.129519 0
0.509773 0.129152 0
0.541054 0.129076 0
0.571939 0.128817 0
0.602518 0.128634 0.00114443
0.633097 0.128496 0.00442512
0.663584 0.12874 0.00788891
0.693538 0.128847 0.0113069
0.723415 0.128969 0.0147555
0.753048 0.129183 0.0182193
0.782406 0.129519 0.0216068
0.811856 0.130159 0.0254673
0.841093 0.130526 0.0290684
0.869963 0.131029 0.0327153
0.898558 0.131624 0.0362402
0.927611 0.132189 0.0399634
0 0.165362 0
0 0.165774 0
0.0200504 0.165759 0
0.0492103 0.165606 0
0.0788281 0.16556 0
0.108568 0.165423 0
0.138384 0.165179 0
0.16849 0.164858 0
0.199344 0.164645 0
0.230243 0.164233 0
0.261448 0.163684 0
0.292821 0.163119 0
0.3243 0.162554 0
0.356069 0.162264 0
0.387655 0.161715 0
0.418997 0.161273 0
0.450278 0.160861 0
0.48191 0.160678 0
0.512978 0.160433 0
0.544182 0.160128 0
0.575128 0.159915 0
0.605798 0.159823 0
0.636713 0.159991 0.00112917
0.667018 0.160021 0.00453193
0.696986 0.160174 0.00781262
0.726894 0.160342 0.0112917
0.756725 0.160723 0.0149538
0.786099 0.161288 0.0185092
0.815457 0.161654 0.0221103
0.844724 0.162066 0.0257267
0.873625 0.162585 0.0294041
0.902434 0.163363 0.0331731
0.931502 0.163989 0.0368963
0 0.195712 0
0 0.195972 0
0.0217288 0.196094 0
0.0512703 0.196231 0
0.0807965 0.196078 0
0.110521 0.195911 0
0.140459 0.195789 0
0.170871 0.195758 0
0.201572 0.195392 0
0.232486 0.19501 0
0.263661 0.194553 0
0.295491 0.194278 0
0.327062 0.19379 0
0.358618 0.193317 0
0.390295 0.192813 0
0.421927 0.192721 0
0.453361 0.192355 0
0.484855 0.191989 0
0.515969 0.191775 0
0.547219 0.191501 0
0.578454 0.191623 0
0.609232 0.191546 0
0.639918 0.191516 0
0.670222 0.191592 0.000732433
0.700298 0.191775 0.00404364
0.730526 0.192248 0.00781262
0.760113 0.192569 0.0113985
0.789639 0.19292 0.0149844
0.818891 0.193362 0.0184329
0.848157 0.19379 0.0220645
0.877668 0.194507 0.0259709
0.906081 0.195178 0.0297398
0.934966 0.195758 0.0332494
0 0.226184 0
0 0.22678 0
0.0239719 0.226871 0
0.0530098 0.226932 0
0.0826581 0.226856 0
0.112734 0.227024 0
0.142687 0.226917 0
0.172946 0.226734 0
0.203723 0.226444 0
0.234989 0.226337 0
0.266224 0.226001 0
0.297856 0.225528 0
0.329534 0.225086 0
0.361181 0.22472 0
0.393164 0.224506 0
0.424536 0.224231 0
0.456123 0.22388 0
0.487633 0.223575 0
0.519142 0.223514 0
0.550439 0.223423 0
0.58146 0.223316 0
0.612406 0.223239 0
0.642878 0.223301 0
0.673579 0.22359 0
0.703868 0.223789 0.000396735
0.733562 0.224109 0.00378424
0.763317 0.224414 0.00733959
0.792859 0.224765 0.0109407
0.822416 0.225406 0.0147097
0.851667 0.22594 0.0182956
0.880796 0.226413 0.0219577
0.909331 0.22707 0.0256809
0.938338 0.227573 0.0293584
0 0.257252 0
0 0.257664 0
0.0256962 0.257847 0
0.055024 0.258259 0
0.0847791 0.258228 0
0.114672 0.258198 0
0.144594 0.258183 0
0.175036 0.258061 0
0.206134 0.258076 0
0.237324 0.257771 0
0.268498 0.257496 0
0.300206 0.257099 0
0.332174 0.256886 0
0.363897 0.256611 0
0.395712 0.256229 0
0.427253 0.255924 0
0.458793 0.25568 0
0.490532 0.255711 0
0.522042 0.255451 0
0.553262 0.255314 0
0.584344 0.255222 0
0.615351 0.255146 0
0.646113 0.255512 0
0.676616 0.255604 0
0.706859 0.255756 0
0.736706 0.256046 0
0.766339 0.256382 0.00296025
0.796155 0.257023 0.00682078
0.825544 0.25742 0.0104219
0.854582 0.257939 0.0139773
0.883741 0.258396 0.0175174
0.912612 0.25893 0.0211948
0.941588 0.25977 0.0251316
0 0.288365 0
0 0.289067 0
0.027863 0.289342 0
0.0567788 0.289631 0
0.0866865 0.289647 0
0.116701 0.289723 0
0.14699 0.289967 0
0.177417 0.289921 0
0.208331 0.289738 0
0.239567 0.289494 0
0.271077 0.289464 0
0.302831 0.289174 0
0.3346 0.288823 0
0.366445 0.288487 0
0.39823 0.288151 0
0.430106 0.288167 0
0.461753 0.287892 0
0.493187 0.287709 0
0.524758 0.28748 0
0.556023 0.287343 0
0.587396 0.287541 0
0.618433 0.287465 0
0.649073 0.287526 0
0.679469 0.287663 0
0.709667 0.287831 0
0.739834 0.28835 0
0.769558 0.288655 0
0.799008 0.289052 0.002121
0.828305 0.289464 0.00572213
0.857481 0.289906 0.00932326
0.886824 0.290593 0.0130617
0.915648 0.291157 0.0166629
0.94435 0.291691 0.0202945
0 0.320027 0
0.00077821 0.320577 0
0.0298619 0.320867 0
0.0589456 0.321187 0
0.0889296 0.321553 0
0.11902 0.321675 0
0.149142 0.321736 0
0.179751 0.321691 0
0.210575 0.32163 0
0.242115 0.321691 0
0.273564 0.321447 0
0.305226 0.321172 0
0.336996 0.320867 0
0.368963 0.3205 0
0.400992 0.3205 0
0.432654 0.320256 0
0.464393 0.319982 0
0.495811 0.319814 0
0.527413 0.319585 0
0.558968 0.319722 0
0.590234 0.3196 0
0.620996 0.319631 0
0.65182 0.319615 0
0.682338 0.319692 0
0.712596 0.320195 0
0.742565 0.320409 0
0.77232 0.320684 0
0.801785 0.321035 0
0.8309 0.321477 0.000747692
0.86038 0.322133 0.00457771
0.889555 0.322545 0.00814832
0.918334 0.323079 0.0116579
0.94699 0.323629 0.0152285
0 0.351629 0
0.00288396 0.352255 0
0.0319982 0.352621 0
0.0614328 0.353246 0
0.0911421 0.35346 0
0.121263 0.353582 0
0.151446 0.353689 0
0.182147 0.35375 0
0.213321 0.353872 0
0.244495 0.35375 0
0.275975 0.353521 0
0.30782 0.353231 0
0.339574 0.353079 0
0.371756 0.352911 0
0.403525 0.352636 0
0.435218 0.352392 0
0.466987 0.352117 0
0.498619 0.35198 0
0.530327 0.351995 0
0.561624 0.351858 0
0.592905 0.351705 0
0.623743 0.35169 0
0.654521 0.35172 0
0.685267 0.35201 0
0.715358 0.352178 0
0.745205 0.352407 0
0.774929 0.352651 0
0.80444 0.352972 0
0.833814 0.353658 0
0.862974 0.354086 0
0.892134 0.354498 0.00300603
0.921294 0.35491 0.00657664
0.94966 0.355566 0.0101625
0 0.383413 0
0.00549325 0.38436 0
0.0346075 0.384771 0
0.0640726 0.385107 0
0.0935988 0.385412 0
0.123705 0.385657 0
0.154147 0.386007 0
0.184833 0.386038 0
0.215839 0.385962 0
0.247028 0.385855 0
0.278584 0.385718 0
0.310643 0.385641 0
0.342443 0.385351 0
0.374334 0.385061 0
0.406119 0.384787 0
0.43798 0.384512 0
0.469718 0.384573 0
0.501457 0.384283 0
0.533089 0.384039 0
0.564294 0.383917 0
0.59556 0.383749 0
0.626703 0.383932 0
0.657389 0.383932 0
0.687892 0.383963 0
0.717983 0.384115 0
0.747951 0.384283 0
0.777829 0.384863 0
0.807172 0.385214 0
0.836515 0.38558 0
0.865675 0.385992 0
0.894743 0.386435 0
0.924147 0.387106 0.00170901
0.95259 0.387701 0.00534066
0 0.415534 0
0.00814832 0.416266 0
0.0371862 0.416754 0
0.0666209 0.417105 0
0.0962081 0.417624 0
0.126619 0.417899 0
0.156756 0.418097 0
0.187457 0.418128 0
0.218479 0.418067 0
0.24979 0.418097 0
0.281453 0.418036 0
0.313298 0.417746 0
0.345113 0.417456 0
0.37705 0.417121 0
0.408881 0.416953 0
0.440879 0.416815 0
0.472465 0.416571 0
0.504128 0.416297 0
0.535637 0.416037 0
0.567117 0.415885 0
0.598474 0.41593 0
0.629389 0.415839 0
0.660182 0.415793 0
0.690517 0.415869 0
0.720714 0.416052 0
0.750927 0.416464 0
0.780652 0.416709 0
0.809873 0.417105 0
0.8392 0.417456 0
0.868406 0.417838 0
0.897765 0.418524 0
0.926802 0.418967 0
0.955505 0.419471 0.000198367
0 0.447517 0
0.0108797 0.448264 0
0.0399939 0.448737 0
0.0695811 0.449454 0
0.0991684 0.44979 0
0.129244 0.449989 0
0.159564 0.450141 0
0.190143 0.450233 0
0.221439 0.450431 0
0.252613 0.450324 0
0.284245 0.450065 0
0.315862 0.449836 0
0.347768 0.4495 0
0.380026 0.449393 0
0.411688 0.449134 0
0.443503 0.448783 0
0.47512 0.448493 0
0.506752 0.448218 0
0.538491 0.448234 0
0.569986 0.447974 0
0.60116 0.447822 0
0.632074 0.447745 0
0.662898 0.447684 0
0.693568 0.448005 0
0.723659 0.448157 0
0.753628 0.448325 0
0.783352 0.448569 0
0.81268 0.448905 0
0.842145 0.449561 0
0.871321 0.449928 0
0.90042 0.450294 0
0.929473 0.45069 0
0.958038 0.451225 0
0 0.479545 0
0.0138552 0.480507 0
0.0430304 0.481071 0
0.0724346 0.481468 0
0.101823 0.481895 0
0.131914 0.482094 0
0.162417 0.482383 0
0.193225 0.482506 0
0.224109 0.482475 0
0.255283 0.482353 0
0.286885 0.482078 0
0.31873 0.481926 0
0.350637 0.481727 0
0.38262 0.481331 0
0.414405 0.480995 0
0.446113 0.48069 0
0.477852 0.480507 0
0.509773 0.480339 0
0.541146 0.48014 0
0.572671 0.479881 0
0.603891 0.479698 0
0.634836 0.479683 0
0.665873 0.47982 0
0.696239 0.479866 0
0.726482 0.479942 0
0.756329 0.48014 0
0.785962 0.480369 0
0.81561 0.480934 0
0.844892 0.481254 0
0.87393 0.481651 0
0.902998 0.482017 0
0.93196 0.482383 0
0.960937 0.483085 0
0 0.511849 0
0.0168002 0.512612 0
0.0458686 0.513115 0
0.075227 0.513497 0
0.104936 0.513802 0
0.134737 0.514397 0
0.16524 0.514488 0
0.195926 0.514488 0
0.226902 0.514366 0
0.257923 0.514275 0
0.289738 0.514199 0
0.321462 0.513954 0
0.353399 0.513573 0
0.385229 0.513237 0
0.41706 0.512886 0
0.449073 0.512703 0
0.48069 0.512566 0
0.512459 0.512215 0
0.543969 0.51194 0
0.575372 0.511711 0
0.606668 0.511635 0
0.637888 0.51165 0
0.668589 0.511604 0
0.698955 0.511635 0
0.729183 0.511681 0
0.759167 0.511833 0
0.788815 0.512352 0
0.81825 0.512612 0
0.847517 0.512901 0
0.876631 0.513207 0
0.905562 0.513603 0
0.934707 0.514229 0
0.963729 0.514534 0
0 0.54377 0
0.019791 0.544549 0
0.0487526 0.545068 0
0.0782788 0.545647 0
0.107973 0.545998 0
0.137545 0.546288 0
0.167956 0.546365 0
0.198627 0.546334 0
0.22974 0.546441 0
0.261021 0.546349 0
0.2925 0.546105 0
0.324163 0.545815 0
0.35613 0.545434 0
0.388159 0.54519 0
0.42005 0.544991 0
0.451896 0.544625 0
0.483543 0.54432 0
0.515206 0.544015 0
0.546792 0.543786 0
0.578531 0.543679 0
0.609567 0.543526 0
0.64065 0.543343 0
0.671473 0.543221 0
0.701701 0.543267 0
0.732174 0.543557 0
0.762097 0.543648 0
0.791623 0.543862 0
0.820905 0.544137 0
0.850141 0.544396 0
0.879484 0.544945 0
0.90837 0.545266 0
0.937194 0.545617 0
0.966186 0.545892 0
0 0.575647 0
0.0227817 0.576364 0
0.0520485 0.577096 0
0.0812238 0.577523 0
0.110811 0.577813 0
0.140536 0.578058 0
0.170871 0.578134 0
0.201709 0.578393 0
0.232609 0.578347 0
0.263859 0.578164 0
0.29546 0.577859 0
0.326986 0.5776 0
0.359121 0.577386 0
0.391089 0.577096 0
0.422919 0.57673 0
0.454688 0.576379 0
0.486351 0.576028 0
0.518196 0.575769 0
0.549798 0.575647 0
0.581338 0.575311 0
0.612482 0.575082 0
0.643442 0.574899 0
0.67425 0.574792 0
0.70486 0.574975 0
0.73492 0.575021 0
0.764782 0.575097 0
0.794324 0.57525 0
0.823713 0.575433 0
0.85304 0.575967 0
0.882094 0.576226 0
0.910903 0.576516 0
0.939834 0.576776 0
0.968658 0.57705 0
0 0.60737 0
0.0260929 0.608362 0
0.0550698 0.60882 0
0.0843366 0.609201 0
0.113771 0.609552 0
0.14342 0.609842 0
0.17406 0.610147 0
0.204791 0.610117 0
0.235508 0.610086 0
0.266789 0.609873 0
0.29839 0.609583 0
0.330297 0.609522 0
0.362112 0.60914 0
0.393927 0.608759 0
0.425879 0.608316 0
0.457481 0.607996 0
0.489479 0.607874 0
0.521248 0.607446 0
0.552666 0.607141 0
0.584161 0.606775 0
0.615335 0.606516 0
0.646601 0.606546 0
0.677165 0.606409 0
0.707652 0.606302 0
0.737835 0.606256 0
0.767483 0.606363 0
0.797314 0.606714 0
0.826658 0.606851 0
0.855817 0.607034 0
0.884718 0.607294 0
0.913481 0.607553 0
0.942626 0.608026 0
0.971527 0.608194 0
0.00125124 0.639292 0
0.0292821 0.640024 0
0.0582589 0.640482 0
0.0875105 0.640879 0
0.117281 0.641428 0
0.147097 0.641657 0
0.177111 0.64181 0
0.207858 0.641749 0
0.238682 0.641642 0
0.270039 0.641657 0
0.301686 0.641413 0
0.333318 0.641062 0
0.365179 0.64065 0
0.396918 0.640253 0
0.428962 0.639902 0
0.460761 0.639658 0
0.492424 0.639261 0
0.524071 0.638849 0
0.555688 0.638437 0
0.587121 0.638132 0
0.618479 0.638025 0
0.649546 0.63772 0
0.680034 0.637583 0
0.710506 0.63743 0
0.740688 0.637354 0
0.770581 0.637613 0
0.800076 0.637705 0
0.829389 0.637797 0
0.858518 0.637934 0
0.88748 0.638178 0
0.916335 0.638605 0
0.945174 0.638758 0
0.974029 0.638895 0
0.00476081 0.670802 0
0.0327001 0.67155 0
0.0616007 0.672038 0
0.0910811 0.672679 0
0.120577 0.672969 0
0.150423 0.673136 0
0.180285 0.67332 0
0.210956 0.673259 0
0.2421 0.67335 0
0.273411 0.673121 0
0.304707 0.672847 0
0.336431 0.672435 0
0.368338 0.671962 0
0.400168 0.671748 0
0.432166 0.671336 0
0.463798 0.670909 0
0.495567 0.67042 0
0.527016 0.670039 0
0.558801 0.669688 0
0.590311 0.669413 0
0.621454 0.669062 0
0.652491 0.668696 0
0.683085 0.668467 0
0.713527 0.668437 0
0.743709 0.668452 0
0.773465 0.668406 0
0.802899 0.668437 0
0.832166 0.668482 0
0.861341 0.668772 0
0.890257 0.668971 0
0.919036 0.669108 0
0.947753 0.669245 0
0.976547 0.669322 0
0.00827039 0.702251 0
0.0365301 0.703227 0
0.0654154 0.703685 0
0.0944991 0.704082 0
0.123964 0.704356 0
0.153765 0.704524 0
0.183841 0.704845 0
0.21445 0.70486 0
0.245411 0.704662 0
0.276661 0.704372 0
0.308034 0.704036 0
0.339773 0.703761 0
0.371633 0.703441 0
0.40354 0.702907 0
0.435233 0.702434 0
0.466911 0.701946 0
0.498756 0.701518 0
0.530388 0.701244 0
0.56199 0.700725 0
0.593317 0.700267 0
0.624506 0.699855 0
0.655497 0.699611 0
0.68632 0.699443 0
0.716686 0.699184 0
0.746548 0.699062 0
0.776333 0.69894 0
0.806043 0.699062 0
0.835218 0.699168 0
0.864088 0.699245 0
0.892973 0.69929 0
0.921752 0.699351 0
0.950622 0.699718 0
0.97937 0.699748 0
0.0121614 0.733822 0
0.0401312 0.734508 0
0.0690318 0.734936 0
0.098146 0.735286 0
0.127443 0.735561 0
0.157443 0.735958 0
0.187472 0.736034 0
0.217945 0.735958 0
0.248783 0.735759 0
0.279896 0.73547 0
0.311528 0.735256 0
0.343221 0.734874 0
0.374868 0.734386 0
0.40676 0.733822 0
0.438392 0.733303 0
0.470253 0.732952 0
0.501915 0.732494 0
0.533593 0.731929 0
0.565042 0.731411 0
0.596368 0.730892 0
0.627848 0.730602 0
0.65861 0.730282 0
0.689311 0.729885 0
0.719692 0.729564 0
0.749462 0.729397 0
0.779477 0.729473 0
0.808957 0.729351 0
0.83801 0.729351 0
0.86688 0.729366 0
0.895842 0.729488 0
0.924712 0.729625 0
0.953323 0.729671 0
0.981979 0.729686 0
0.0158846 0.764981 0
0.0438087 0.765637 0
0.0726635 0.766033 0
0.101762 0.766339 0
0.131365 0.766842 0
0.160967 0.766995 0
0.190753 0.767071 0
0.221363 0.766903 0
0.252293 0.766629 0
0.283482 0.766613 0
0.314946 0.766155 0
0.346487 0.765652 0
0.378149 0.765133 0
0.409979 0.764523 0
0.441932 0.764187 0
0.473518 0.763622 0
0.505043 0.763043 0
0.536706 0.762417 0
0.568017 0.761868 0
0.599695 0.761532 0
0.630838 0.760967 0
0.661616 0.760525 0
0.692287 0.760067 0
0.722606 0.759854 0
0.752697 0.759731 0
0.782391 0.759503 0
0.811826 0.759335 0
0.840833 0.759258 0
0.869932 0.759503 0
0.898726 0.759457 0
0.927428 0.759411 0
0.956069 0.75938 0
0.984787 0.759533 0
0.0196536 0.795972 0
0.0475471 0.796597 0
0.0766155 0.797223 0
0.105669 0.797498 0
0.134997 0.797681 0
0.164553 0.797818 0
0.194583 0.797772 0
0.225071 0.797894 0
0.25594 0.797589 0
