public/sampleLut/23.cube
TITLE "Generate by Resolve"
LUT_3D_SIZE 5
0 0 0
0.181964 0 0
0.428748 0 0.00401312
0.671077 0 0.0273594
0.902251 0 0.0533455
0 0.195712 0
0.201572 0.195392 0
0.453361 0.192355 0
0.700298 0.191775 0.00404364
0.934966 0.195758 0.0332494
0 0.447517 0
0.221439 0.450431 0
0.47512 0.448493 0
0.723659 0.448157 0
0.958038 0.451225 0
0.00827039 0.702251 0
0.245411 0.704662 0
0.498756 0.701518 0
0.746548 0.699062 0
0.97937 0.699748 0
0.0389563 0.948562 0
0.272526 0.948226 0
0.523598 0.942138 0
0.770153 0.9364 0
1 0.934646 0
0 0 0.215763
0.149813 0 0.23653
0.397726 0 0.256107
0.640925 0 0.277684
0.872755 0 0.302968
0 0.203937 0.177737
0.171862 0.204105 0.203082
0.424369 0.201495 0.22739
0.672007 0.201175 0.253513
0.906737 0.205188 0.282353
0 0.457084 0.136294
0.192645 0.460029 0.164599
0.446448 0.457923 0.189883
0.695201 0.457481 0.216114
0.929335 0.46041 0.244083
0 0.711666 0.104494
0.216114 0.713909 0.132113
0.468879 0.71046 0.156268
0.716442 0.707622 0.180713
0.948623 0.707927 0.206775
0.00852979 0.957031 0.0834669
0.241596 0.956619 0.108934
0.491707 0.949874 0.131243
0.737209 0.943755 0.155657
0.967269 0.941833 0.179782
0 0 0.515892
0.108721 0 0.537133
0.357336 0 0.557122
0.601129 0 0.578698
0.833448 0 0.603983
0 0.210529 0.478782
0.09337 0.228367 0.457008
0.38526 0.208896 0.528618
0.633295 0.208728 0.554299
0.868208 0.212787 0.582452
0 0.464805 0.436515
0.151675 0.468925 0.459922
0.407797 0.465568 0.488472
0.656825 0.465049 0.513634
0.891463 0.46772 0.540429
0 0.719326 0.400992
0.177478 0.721416 0.427405
0.430625 0.717968 0.450004
0.678264 0.71458 0.471717
0.910704 0.714626 0.495232
0 0.963973 0.37406
0.203037 0.963394 0.39733
0.453941 0.956695 0.41622
0.70016 0.950362 0.43473
0.93106 0.948516 0.455711
0 0 0.820325
0.067277 0 0.84184
0.316136 0 0.86157
0.56054 0 0.883406
0.793423 0 0.90898
0 0.217151 0.783719
0.0918593 0.218219 0.809689
0.345357 0.216236 0.834257
0.593835 0.216388 0.860304
0.828504 0.220188 0.887999
0 0.472358 0.742199
0.113588 0.475196 0.769558
0.343969 0.488655 0.719554
0.616907 0.472358 0.818387
0.851408 0.474815 0.845029
0 0.726665 0.705516
0.13698 0.728588 0.731655
0.390158 0.724804 0.753216
0.637522 0.721035 0.775006
0.869764 0.720745 0.798245
0 0.970382 0.677333
0.161669 0.969497 0.700175
0.412314 0.962615 0.7187
0.658839 0.95639 0.737041
0.889937 0.954376 0.758038
0 0 1
0.0272526 0 1
0.276692 0 1
0.521737 0 1
0.755108 0 1
0 0.224598 1
0.0533455 0.225788 1
0.307286 0.224079 1
0.555978 0.224216 1
0.790875 0.227909 1
0 0.480323 1
0.0754864 0.483085 1
0.329839 0.480842 1
0.578973 0.480018 1
0.813474 0.482246 1
0 0.734371 0.999939
0.0982986 0.73611 1
0.351293 0.73196 1
0.598795 0.727825 1
0.830747 0.727275 1
0 0.977142 0.96965
0.122255 0.976028 0.99202
0.37293 0.968933 1
0.61944 0.962676 1
0.850996 0.960571 1
