public/sampleLut/25.cube
TITLE "Generated by Resolve"
LUT_3D_SIZE 9
0.0565194 0.0565194 0.0565194
0.141711 0.0451972 0.0451972
0.296651 0 0
0.448203 0 0
0.598062 0 0
0.750744 0 0
0.90518 0 0
1 0 0
1 0 0
0 0.145052 0
0.118578 0.136584 0
0.282338 0.13431 0
0.433677 0.100221 0
0.587137 0 0
0.742763 0 0
0.898711 0 0
1 0 0
1 0 0
0 0.303166 0
0 0.298955 0
0.269093 0.282841 0
0.430167 0.271046 0
0.566857 0.265461 0
0.718074 0.247181 0
0.875685 0.193103 0
1 0.101167 0
1 0.000320439 0
0 0.457496 0
0 0.455131 0
0 0.444892 0
0.412924 0.423911 0
0.579812 0.407279 0
0.713329 0.405234 0
0.856489 0.401511 0
0.994492 0.382864 0
1 0.352972 0
0 0.610925 0
0 0.609354 0
0 0.60267 0
0.200259 0.588876 0
0.557122 0.565957 0
0.73225 0.546975 0
0.866819 0.543893 0
0.989425 0.536049 0
1 0.51632 0
0 0.76704 0
0 0.765881 0
0 0.760983 0
0 0.751049 0
0.416129 0.734813 0
0.703853 0.710536 0
0.886091 0.689403 0
1 0.673838 0
1 0.649653 0
0 0.925765 0
0 0.924865 0
0 0.921096 0
0 0.91342 0
0 0.900969 0
0.584344 0.882933 0
0.852567 0.857053 0
1 0.821042 0
1 0.783352 0
0 1 0
0 1 0
0 1 0
0 1 0
0 1 0
0.27245 1 0
0.728481 1 0
0.983093 0.98529 0
1 0.935164 0
0 1 0
0 1 0
0 1 0
0 1 0
0 1 0
0 1 0
0.517479 1 0
0.854551 1 0
1 1 0
0.0417639 0.0417639 0.169039
0.160678 0 0.161242
0.323354 0 0.129625
0.463767 0 0.0733654
0.607431 0 0
0.756573 0 0
0.910765 0 0
1 0 0
1 0 0
0 0.142107 0.127871
0.11664 0.128923 0.11693
0.294377 0.0998093 0.115312
0.446342 0.0546731 0.056199
0.596628 0 0
0.749599 0 0
0.904128 0 0
1 0 0
1 0 0
0 0.301747 0
0 0.298466 0
0.264591 0.281559 0
0.428138 0.267857 0
0.568063 0.259037 0
0.721599 0.234821 0
0.879805 0.154223 0
1 0.0824292 0
1 0 0
0 0.456703 0
0 0.454932 0
0 0.444678 0
0.411261 0.423087 0
0.578027 0.405966 0
0.712184 0.403449 0
0.856901 0.398291 0
0.995621 0.378637 0
1 0.347402 0
0 0.610391 0
0 0.609232 0
0 0.602518 0
0.194202 0.588602 0
0.556252 0.565408 0
0.731121 0.546136 0
0.865476 0.542962 0
0.988632 0.53492 0
1 0.51519 0
0 0.766674 0
0 0.765774 0
0 0.760952 0
0 0.750927 0
0.412192 0.734615 0
0.703334 0.710155 0
0.885496 0.688762 0
1 0.673014 0
1 0.649271 0
0 0.925475 0
0 0.924834 0
0 0.921035 0
0 0.913344 0
0 0.900847 0
0.582574 0.882765 0
0.852415 0.856901 0
1 0.820569 0
1 0.78294 0
0 1 0
0 1 0
0 1 0
0 1 0
0 1 0
0.265843 1 0
0.727382 1 0
0.982803 0.985031 0
1 0.934691 0
0 1 0
0 1 0
0 1 0
0 1 0
0 1 0
0 1 0
0.515297 1 0
0.853712 1 0
1 1 0
0 0 0.358099
0.158663 0 0.354772
0.342504 0 0.341878
0.512169 0 0.311147
0.652323 0 0.262486
0.790768 0 0.196414
0.935546 0 0.0995804
1 0 0
1 0 0
0 0.12784 0.3467
0.0958419 0.0977493 0.345739
0.331228 0 0.330663
0.501839 0 0.295613
0.641199 0 0.248951
0.781445 0 0.18291
0.928069 0 0.0896162
1 0 0
1 0 0
0 0.296864 0.290623
0 0.2925 0.284642
0.259602 0.271672 0.256535
0.441825 0.249592 0.264347
0.591669 0.214191 0.243046
0.745205 0.157427 0.200366
0.900832 0.095201 0.100786
1 0 0
1 0 0
0 0.453315 0.0539254
0 0.451514 0
0 0.440955 0
0.405356 0.420676 0
0.570031 0.407172 0.154391
0.71043 0.402991 0.219532
0.861982 0.392157 0.18967
1 0.367483 0.0879988
1 0.335363 0
0 0.608148 0
0 0.606989 0
0 0.600229 0
0.187655 0.586175 0
0.552987 0.563317 0
0.725383 0.546166 0
0.860609 0.543969 0
0.986923 0.53579 0.102068
1 0.516945 0.0855421
0 0.765011 0
0 0.764187 0
0 0.75935 0
0 0.749233 0
0.406882 0.732876 0
0.701198 0.708492 0
0.881605 0.688228 0
1 0.674327 0
1 0.652186 0
0 0.924178 0
0 0.923552 0
0 0.91986 0
0 0.912108 0
0 0.89958 0
0.579675 0.881422 0
0.850752 0.855467 0
1 0.820066 0
1 0.783871 0
0 1 0
0 1 0
0 1 0
0 1 0
0 1 0
0.259541 1 0
0.725826 1 0
0.981674 0.983948 0
1 0.933669 0
0 1 0
0 1 0
0 1 0
0 1 0
0 1 0
0 1 0
0.51397 1 0
0.852171 1 0
1 1 0
0 0 0.541299
0.115663 0 0.539391
0.334157 0 0.53135
0.515526 0 0.514977
0.691752 0 0.487327
0.848356 0 0.444129
0.987716 0 0.395254
1 0 0.340749
1 0 0.256168
0 0.0817426 0.53489
0 0 0.5346
0.319127 0 0.526543
0.509697 0 0.509117
0.687205 0 0.479011
0.841779 0 0.434775
0.980148 0 0.387213
1 0 0.334676
1 0 0.250507
0 0.285969 0.507012
0 0.277928 0.50631
0.22652 0.254704 0.497322
0.479011 0.172488 0.47837
0.658915 0.0539406 0.446754
0.809796 0 0.407843
0.951186 0 0.370306
1 0 0.327657
1 0 0.26273
0 0.446342 0.441917
0 0.444068 0.439368
0 0.433402 0.428183
0.403235 0.412039 0.406546
0.585641 0.392706 0.406394
0.73875 0.377783 0.390616
0.894224 0.355032 0.366796
1 0.323598 0.33637
1 0.276997 0.30042
0 0.603555 0.238682
0 0.60238 0.230381
0 0.595453 0.211917
0.173663 0.581277 0.162341
0.545205 0.559594 0.131533
0.713161 0.546838 0.293736
0.854612 0.543877 0.370108
0.990311 0.532769 0.364218
1 0.514733 0.348424
0 0.7617 0
0 0.76083 0
0 0.755917 0
0 0.745876 0
0.392935 0.729397 0
0.696544 0.705242 0
0.872969 0.687434 0
0.994217 0.676493 0.226993
1 0.658305 0.262516
0 0.92163 0
0 0.920974 0
0 0.91725 0
0 0.909636 0
0 0.897108 0
0.573098 0.878798 0
0.847669 0.852903 0
1 0.819257 0
1 0.786816 0
0 1 0
0 1 0
0 1 0
0 1 0
0 1 0
0.243046 1 0
0.722744 1 0
0.979446 0.981842 0
1 0.932738 0
0 1 0
0 1 0
0 1 0
0 1 0
0 1 0
0 1 0
0.513832 1 0
0.850904 1 0
1 1 0
0 0 0.723156
0 0 0.721904
0.317235 0 0.716625
0.507622 0 0.705898
0.689113 0 0.688685
0.870588 0 0.664973
1 0 0.627985
1 0 0.570871
1 0 0.504372
0 0 0.718853
0 0 0.718746
0.298909 0 0.713466
0.500084 0 0.702525
0.685328 0 0.684886
0.867872 0 0.659937
1 0 0.621698
1 0 0.564813
1 0 0.499107
0 0.263737 0.700877
0 0.252811 0.700633
0.184588 0.222217 0.695109
0.468727 0.123262 0.683574
0.665705 0 0.665232
0.852567 0 0.638697
1 0 0.599023
1 0 0.546654
1 0 0.487297
0 0.436225 0.662318
0 0.432425 0.661707
0 0.4215 0.655589
0.392416 0.398001 0.643046
0.623606 0.354025 0.622995
0.813367 0.268925 0.593225
0.972045 0.163729 0.557366
1 0.0956283 0.51928
1 0.0298314 0.476677
0 0.596582 0.59321
0 0.595117 0.591669
0 0.588129 0.584512
0.131014 0.573678 0.569665
0.540993 0.550912 0.546746
0.730571 0.531395 0.545434
0.886534 0.518685 0.531609
1 0.503029 0.512947
1 0.483604 0.493355
0 0.756329 0.465049
0 0.755459 0.460548
0 0.750469 0.448859
0 0.740353 0.421515
0.347158 0.723888 0.340459
0.687907 0.700481 0.296162
0.857359 0.687221 0.468269
0.984024 0.679423 0.513161
1 0.66598 0.512612
0 0.917479 0.0191043
0 0.916808 0.00842298
0 0.913039 0
0 0.90544 0
0 0.893172 0
0.561364 0.874647 0
0.842405 0.848783 0
1 0.81883 0.185153
1 0.793942 0.313878
0 1 0
0 1 0
0 1 0
0 1 0
0 1 0
0.205661 1 0
0.71783 1 0
0.975906 0.978531 0
1 0.933333 0
0 1 0
0 1 0
0 1 0
0 1 0
0 1 0
0 1 0
0.518578 1 0
0.851942 1 0
1 1 0
0 0 0.908141
0 0 0.90721
0.289616 0 0.903365
0.496498 0 0.895567
0.683299 0 0.882933
0.865507 0 0.865202
1 0 0.843671
1 0 0.800397
1 0 0.736492
0 0 0.904982
0 0 0.904921
0.265232 0 0.901106
0.487739 0 0.893233
0.678553 0 0.880476
0.862776 0 0.86247
1 0 0.840238
1 0 0.796185
1 0 0.731945
0 0.220722 0.891981
0 0.194461 0.89189
0.134173 0.139925 0.888075
0.454505 0.0604105 0.879911
0.658579 0 0.86685
0.848737 0 0.848432
1 0 0.825437
1 0 0.780011
1 0 0.716381
0 0.421332 0.86479
0 0.416434 0.864561
0 0.404257 0.860487
0.370138 0.377874 0.852232
0.61503 0.32813 0.838727
0.819532 0.195346 0.819165
1 0 0.793957
1 0 0.746715
1 0 0.687526
0 0.588388 0.818753
0 0.586084 0.81825
0 0.57882 0.81384
0.0713054 0.563561 0.804898
0.532723 0.536965 0.790753
0.769482 0.497307 0.76907
0.968429 0.444297 0.738888
1 0.404456 0.698131
1 0.344091 0.655787
0 0.749249 0.746761
0 0.748226 0.745708
0 0.74316 0.740581
0 0.732799 0.730053
0.306249 0.715846 0.712795
0.681712 0.692103 0.688991
0.874311 0.673228 0.686107
1 0.662287 0.673533
1 0.648997 0.659129
0 0.911543 0.634104
0 0.910872 0.631632
0 0.907057 0.624643
0 0.899351 0.609796
0 0.886976 0.583459
0.544732 0.868528 0.542733
0.83386 0.843076 0.516335
0.986496 0.82179 0.624582
1 0.808042 0.643412
0 1 0.377737
0 1 0.372015
0 1 0.360098
0 1 0.333654
0 1 0.279713
0.101778 1 0.0910811
0.713802 1 0
0.970703 0.973754 0
1 0.936568 0.23093
0 1 0
0 1 0
0 1 0
0 1 0
0 1 0
0 1 0
0.533883 1 0
0.856626 1 0
1 1 0
0 0 1
0 0 1
0.230503 0 1
0.480461 0 1
0.675593 0 1
0.861616 0 1
1 0 1
1 0 1
1 0 0.952041
0 0 1
0 0 1
0.174655 0 1
0.470573 0 1
0.67013 0 1
0.85832 0 1
1 0 1
1 0 1
1 0 0.94902
0 0.119265 1
0 0.101122 1
0.0570382 0.0547494 1
0.434073 0 1
0.649287 0 1
0.843976 0 1
1 0 1
1 0 0.994125
1 0 0.93756
0 0.399466 1
0 0.393484 1
0 0.379232 1
0.333745 0.347402 1
0.60322 0.283146 1
0.813809 0.0969711 1
1 0 1
1 0 0.971267
1 0 0.915145
0 0.577249 1
0 0.574273 1
0 0.566354 1
0 0.549477 1
0.514672 0.519661 1
0.76141 0.476967 0.994049
0.973144 0.409873 0.972854
1 0.29984 0.933227
1 0.0395209 0.879789
0 0.742763 0.976867
0 0.741207 0.976471
0 0.735882 0.973098
0 0.724865 0.966323
0.268574 0.706127 0.955612
0.67512 0.678157 0.939666
0.916548 0.640452 0.916182
1 0.600092 0.875593
1 0.562631 0.832227
0 0.903593 0.901961
0 0.902815 0.901167
0 0.89897 0.897292
0 0.891096 0.889372
0 0.878355 0.876509
0.526589 0.859525 0.857496
0.825284 0.834485 0.832486
0.998474 0.819059 0.828153
1 0.807279 0.817273
0 1 0.783123
0 1 0.781537
0 1 0.777005
0 1 0.767758
0 1 0.75285
0.0402228 1 0.733684
0.716381 0.992844 0.716289
0.963973 0.967956 0.699397
1 0.945342 0.726909
0 1 0.597375
0 1 0.594537
0 1 0.58883
0 1 0.57966
0 1 0.568811
0 1 0.561257
0.561151 1 0.560265
0.866987 1 0.516838
1 1 0.476295
0 0 1
0 0 1
0.125139 0 1
0.449119 0 1
0.652079 0 1
0.840314 0 1
1 0 1
1 0 1
1 0 1
0 0 1
0 0 1
0.0942397 0 1
0.438422 0 1
0.646281 0 1
0.836637 0 1
1 0 1
1 0 1
1 0 1
0 0 1
0 0 1
0 0 1
0.400137 0 1
0.625513 0 1
0.822293 0 1
1 0 1
1 0 1
1 0 1
0 0.360449 1
0 0.353704 1
0 0.339391 1
0.246571 0.306355 1
0.579965 0.194598 1
0.792309 0.0412146 1
0.987305 0 1
1 0 1
1 0 1
0 0.551034 1
0 0.547768 1
0 0.540413 1
0 0.525063 1
0.492943 0.498405 1
0.741054 0.455726 1
0.950225 0.386069 1
1 0.224735 1
1 0 1
0 0.720394 1
0 0.718517 1
0 0.713481 1
0 0.703105 1
0.242496 0.686152 1
0.660426 0.663432 1
0.894987 0.628031 1
1 0.578927 1
1 0.52398 1
0 0.882536 1
0 0.881437 1
0 0.877546 1
0 0.869718 1
0 0.857053 1
0.517769 0.839963 1
0.819394 0.821347 1
1 0.792447 1
1 0.758267 1
0 1 1
0 1 1
0 1 1
0 1 1
0 1 1
0.00430304 1 1
0.707774 0.98262 0.981933
0.958038 0.961288 0.960922
1 0.952178 0.951843
0 1 0.913893
0 1 0.912581
0 1 0.90869
0 1 0.902556
0 1 0.895705
0 1 0.888945
0.547997 1 0.883558
0.872328 1 0.872374
1 1 0.846601
0 0 1
0 0 1
0.0114443 0 1
0.404517 0 1
0.617273 0 1
0.806775 0 1
0.988128 0 1
1 0 1
1 0 1
0 0 1
0 0 1
0 0 1
0.39295 0 1
0.611353 0 1
0.802869 0 1
0.985336 0 1
1 0 1
1 0 1
0 0 1
0 0 1
0 0 1
0.35288 0 1
0.591455 0 1
0.788968 0 1
0.974411 0 1
1 0 1
1 0 1
0 0.302205 1
0 0.294118 1
0 0.280827 1
0.18732 0.241505 1
0.549081 0.100969 1
0.760891 0 1
0.953033 0 1
1 0 1
1 0 1
0 0.51339 1
0 0.510109 1
0 0.504295 1
0 0.493446 1
0.468467 0.474357 1
0.715236 0.432898 1
0.919646 0.361151 1
1 0.118791 1
1 0 1
0 0.686595 1
0 0.68455 1
0 0.680232 1
0 0.672465 1
0.218189 0.661433 1
0.644541 0.647364 1
0.87219 0.614664 1
1 0.566323 1
1 0.499962 1
0 0.848875 1
0 0.847486 1
0 0.843793 1
0 0.837339 1
0 0.828565 1
0.509331 0.818921 1
0.807904 0.809552 1
1 0.782223 1
1 0.74551 1
0 1 1
0 1 1
0 1 1
0 0.996063 1
0 0.988495 1
0.00627146 0.979309 1
0.698344 0.968994 1
0.953323 0.953643 1
1 0.92578 1
0 1 1
0 1 1
0 1 1
0 1 1
0 1 1
0 1 1
0.52665 1 1
0.861067 1 1
1 1 1
