public/sampleLut/25.cube
TITLE "Generated by Resolve"
LUT_3D_SIZE 5
0.0565194 0.0565194 0.0565194
0.296651 0 0
0.598062 0 0
0.90518 0 0
1 0 0
0 0.303166 0
0.269093 0.282841 0
0.566857 0.265461 0
0.875685 0.193103 0
1 0.000320439 0
0 0.610925 0
0 0.60267 0
0.557122 0.565957 0
0.866819 0.543893 0
1 0.51632 0
0 0.925765 0
0 0.921096 0
0 0.900969 0
0.852567 0.857053 0
1 0.783352 0
0 1 0
0 1 0
0 1 0
0.517479 1 0
1 1 0
0 0 0.358099
0.342504 0 0.341878
0.652323 0 0.262486
0.935546 0 0.0995804
1 0 0
0 0.296864 0.290623
0.259602 0.271672 0.256535
0.591669 0.214191 0.243046
0.900832 0.095201 0.100786
1 0 0
0 0.608148 0
0 0.600229 0
0.552987 0.563317 0
0.860609 0.543969 0
1 0.516945 0.0855421
0 0.924178 0
0 0.91986 0
0 0.89958 0
0.850752 0.855467 0
1 0.783871 0
0 1 0
0 1 0
0 1 0
0.51397 1 0
1 1 0
0 0 0.723156
0.317235 0 0.716625
0.689113 0 0.688685
1 0 0.627985
1 0 0.504372
0 0.263737 0.700877
0.184588 0.222217 0.695109
0.665705 0 0.665232
1 0 0.599023
1 0 0.487297
0 0.596582 0.59321
0 0.588129 0.584512
0.540993 0.550912 0.546746
0.886534 0.518685 0.531609
1 0.483604 0.493355
0 0.917479 0.0191043
0 0.913039 0
0 0.893172 0
0.842405 0.848783 0
1 0.793942 0.313878
0 1 0
0 1 0
0 1 0
0.518578 1 0
1 1 0
0 0 1
0.230503 0 1
0.675593 0 1
1 0 1
1 0 0.952041
0 0.119265 1
0.0570382 0.0547494 1
0.649287 0 1
1 0 1
1 0 0.93756
0 0.577249 1
0 0.566354 1
0.514672 0.519661 1
0.973144 0.409873 0.972854
1 0.0395209 0.879789
0 0.903593 0.901961
0 0.89897 0.897292
0 0.878355 0.876509
0.825284 0.834485 0.832486
1 0.807279 0.817273
0 1 0.597375
0 1 0.58883
0 1 0.568811
0.561151 1 0.560265
1 1 0.476295
0 0 1
0.0114443 0 1
0.617273 0 1
0.988128 0 1
1 0 1
0 0 1
0 0 1
0.591455 0 1
0.974411 0 1
1 0 1
0 0.51339 1
0 0.504295 1
0.468467 0.474357 1
0.919646 0.361151 1
1 0 1
0 0.848875 1
0 0.843793 1
0 0.828565 1
0.807904 0.809552 1
1 0.74551 1
0 1 1
0 1 1
0 1 1
0.52665 1 1
1 1 1
