public/sampleLut/25.cube
TITLE "Generated by Resolve"
LUT_3D_SIZE 33
0.0565194 0.0565194 0.0565194
0.0686351 0.0557107 0.0557107
0.0807507 0.054902 0.054902
0.109926 0.0503395 0.0503395
0.141711 0.0451972 0.0451972
0.179278 0.0149691 0.0149691
0.218936 0 0
0.258 0 0
0.296651 0 0
0.335241 0 0
0.373754 0 0
0.411627 0 0
0.448203 0 0
0.484962 0 0
0.522484 0 0
0.560021 0 0
0.598062 0 0
0.636103 0 0
0.674205 0 0
0.712322 0 0
0.750744 0 0
0.789242 0 0
0.827893 0 0
0.866621 0 0
0.90518 0 0
0.943572 0 0
0.980194 0 0
1 0 0
1 0 0
1 0 0
1 0 0
1 0 0
1 0 0
0.0416876 0.0691386 0.0416876
0.0601816 0.0679026 0.0321965
0.0786755 0.0666667 0.0227054
0.107774 0.0643015 0.0316625
0.138506 0.0617685 0.043473
0.175784 0.0447547 0.0198978
0.215427 0.0224765 0
0.254734 0.00427253 0
0.293782 0 0
0.332738 0 0
0.371572 0 0
0.40972 0 0
0.446494 0 0
0.483436 0 0
0.52108 0 0
0.558755 0 0
0.596902 0 0
0.635035 0 0
0.673228 0 0
0.711406 0 0
0.750072 0 0
0.788846 0 0
0.827359 0 0
0.865721 0 0
0.904265 0 0
0.942977 0 0
0.979767 0 0
1 0 0
1 0 0
1 0 0
1 0 0
1 0 0
1 0 0
0.0268559 0.0817578 0.0268559
0.0517281 0.0800946 0.00866712
0.0766003 0.0784161 0
0.105638 0.0782635 0.0129854
0.135302 0.0783398 0.0417334
0.172274 0.0745403 0.0248264
0.211917 0.0693523 0
0.251453 0.0586557 0
0.290929 0.0443275 0
0.330251 0.0130159 0
0.36939 0 0
0.407813 0 0
0.444785 0 0
0.48191 0 0
0.519692 0 0
0.557504 0 0
0.595743 0 0
0.633982 0 0
0.672236 0 0
0.710506 0 0
0.749401 0 0
0.788464 0 0
0.82681 0 0
0.86482 0 0
0.903365 0 0
0.942367 0 0
0.979339 0 0
1 0 0
1 0 0
1 0 0
1 0 0
1 0 0
1 0 0
0 0.112047 0
0 0.110674 0
0.0141909 0.109285 0
0.0682383 0.107927 0
0.127306 0.106554 0
0.171695 0.10518 0
0.210758 0.103777 0
0.249012 0.0982834 0
0.286732 0.090074 0
0.325017 0.0702831 0
0.363943 0.0372931 0
0.402289 0.0107881 0
0.439506 0 0
0.476905 0 0
0.515023 0 0
0.553155 0 0
0.591669 0 0
0.630167 0 0
0.668666 0 0
0.707164 0 0
0.746273 0 0
0.785519 0 0
0.824201 0 0
0.862577 0 0
0.901137 0 0
0.939849 0 0
0.976822 0 0
1 0 0
1 0 0
1 0 0
1 0 0
1 0 0
1 0 0
0 0.145052 0
0 0.144076 0
0 0.143099 0
0.0254215 0.140002 0
0.118578 0.136584 0
0.171572 0.135927 0
0.209949 0.136294 0
0.246693 0.135637 0
0.282338 0.13431 0
0.319371 0.129076 0
0.357977 0.119371 0
0.396201 0.109743 0
0.433677 0.100221 0
0.471366 0.0894636 0
0.509834 0.0737926 0
0.548333 0.0548409 0
0.587137 0 0
0.62594 0 0
0.664714 0 0
0.703471 0 0
0.742763 0 0
0.782177 0 0
0.821256 0 0
0.860136 0 0
0.898711 0 0
0.937041 0 0
0.973968 0 0
1 0 0
1 0 0
1 0 0
1 0 0
1 0 0
1 0 0
0 0.183017 0
0 0.182269 0
0 0.181521 0
0 0.178454 0
0.0741283 0.175051 0
0.142504 0.173297 0
0.200717 0.172152 0
0.246143 0.171405 0
0.28307 0.170916 0
0.319875 0.16968 0
0.356558 0.167559 0
0.393088 0.164141 0
0.429343 0.158129 0
0.46595 0.151003 0
0.504036 0.139452 0
0.542153 0.125353 0
0.581018 0.0758068 0
0.619898 0.0262455 0
0.658854 0.0030518 0
0.697826 0 0
0.737285 0 0
0.776852 0 0
0.816236 0 0
0.855528 0 0
0.894347 0 0
0.932784 0 0
0.969787 0 0
1 0 0
1 0 0
1 0 0
1 0 0
1 0 0
1 0 0
0 0.222812 0
0 0.222202 0
0 0.221607 0
0 0.219242 0
0.0166781 0.216587 0
0.102907 0.213062 0
0.188418 0.209216 0
0.246265 0.206577 0
0.285664 0.204761 0
0.322621 0.203677 0
0.356786 0.203403 0
0.391043 0.202335 0
0.425528 0.199649 0
0.460609 0.196368 0
0.497993 0.190753 0
0.535485 0.184268 0
0.574334 0.165743 0
0.613184 0.147204 0
0.652323 0.133867 0
0.691478 0.120897 0
0.73109 0.105226 0
0.770809 0.0888685 0
0.810483 0.0645609 0
0.850126 0.0362554 0
0.889281 0 0
0.928008 0 0
0.965118 0 0
0.999832 0 0
1 0 0
1 0 0
1 0 0
1 0 0
1 0 0
0 0.262898 0
0 0.262394 0
0 0.261906 0
0 0.259998 0
0 0.257862 0
0.0420386 0.254002 0
0.155901 0.249516 0
0.230945 0.245762 0
0.280095 0.242496 0
0.322942 0.240299 0
0.358587 0.239307 0
0.393332 0.238178 0
0.426322 0.236805 0
0.459892 0.235218 0
0.495857 0.232822 0
0.531945 0.230289 0
0.569848 0.22562 0
0.607752 0.220951 0
0.646448 0.213443 0
0.685191 0.205737 0
0.724666 0.194034 0
0.764309 0.181323 0
0.803952 0.160815 0
0.84358 0.136431 0
0.882902 0.0891432 0
0.92195 0.0218357 0
0.959274 0 0
0.994018 0 0
1 0 0
1 0 0
1 0 0
1 0 0
1 0 0
0 0.303166 0
0 0.302754 0
0 0.302342 0
0 0.30074 0
0 0.298955 0
0 0.295735 0
0.109926 0.291997 0
0.205341 0.287633 0
0.269093 0.282841 0
0.321645 0.278676 0
0.36144 0.275227 0
0.398505 0.272465 0
0.430167 0.271046 0
0.462287 0.269718 0
0.496315 0.268757 0
0.53051 0.267704 0
0.566857 0.265461 0
0.603204 0.263218 0
0.641016 0.258885 0
0.678935 0.254383 0
0.718074 0.247181 0
0.757519 0.239292 0
0.796918 0.228077 0
0.836301 0.215183 0
0.875685 0.193103 0
0.915068 0.162951 0
0.952651 0.137819 0
0.987564 0.120195 0
1 0.101167 0
1 0.078294 0
1 0.0548257 0
1 0.0275731 0
1 0.000320439 0
0 0.342702 0
0 0.342351 0
0 0.342 0
0 0.340642 0
0 0.339147 0
0 0.336431 0
0.0236973 0.333288 0
0.136049 0.328862 0
0.234211 0.323583 0
0.308782 0.318471 0
0.356435 0.313558 0
0.399344 0.309392 0
0.432807 0.306752 0
0.466148 0.304524 0
0.499016 0.304021 0
0.532036 0.303487 0
0.566873 0.30277 0
0.601724 0.302052 0
0.638361 0.299931 0
0.67512 0.297704 0
0.71339 0.293782 0
0.752041 0.289418 0
0.79089 0.284092 0
0.829847 0.278294 0
0.869047 0.270741 0
0.908476 0.261662 0
0.946105 0.250935 0
0.981003 0.237736 0
1 0.222171 0
1 0.200076 0
1 0.177447 0
1 0.151369 0
1 0.125292 0
0 0.381369 0
0 0.381079 0
0 0.380774 0
0 0.379599 0
0 0.378302 0
0 0.375967 0
0 0.373236 0
0.0168307 0.36939 0
0.17203 0.364782 0
0.282689 0.359884 0
0.342458 0.35462 0
0.395239 0.349371 0
0.434073 0.344137 0
0.471672 0.339696 0
0.50428 0.338521 0
0.53695 0.337407 0
0.570352 0.337163 0
0.603769 0.336934 0
0.63888 0.335973 0
0.674128 0.334951 0
0.710887 0.332906 0
0.748028 0.330587 0
0.785977 0.327291 0
0.824323 0.323491 0
0.863096 0.318303 0
0.902251 0.311879 0
0.939635 0.304143 0
0.974365 0.294453 0
1 0.282948 0
1 0.266468 0
1 0.250248 0
1 0.235813 0
1 0.221378 0
0 0.419745 0
0 0.419486 0
0 0.419226 0
0 0.418219 0
0 0.41709 0
0 0.415076 0
0 0.412711 0
0 0.409384 0
0.0865797 0.405417 0
0.221729 0.400809 0
0.309575 0.395483 0
0.383459 0.389639 0
0.429419 0.382773 0
0.473075 0.376791 0
0.507469 0.374411 0
0.541772 0.372168 0
0.574456 0.371893 0
0.607156 0.371633 0
0.64097 0.37142 0
0.674861 0.371206 0
0.710246 0.37055 0
0.745998 0.369772 0
0.782925 0.368139 0
0.820417 0.366049 0
0.858473 0.36289 0
0.897017 0.35877 0
0.933898 0.353552 0
0.968307 0.346654 0
0.999908 0.338323 0
1 0.326055 0
1 0.314595 0
1 0.308461 0
1 0.302312 0
0 0.457496 0
0 0.457267 0
0 0.457053 0
0 0.456138 0
0 0.455131 0
0 0.453346 0
0 0.451255 0
0 0.448341 0
0 0.444892 0
0.0910353 0.440772 0
0.238911 0.435889 0
0.356344 0.430457 0
0.412924 0.423911 0
0.466255 0.417731 0
0.506554 0.413062 0
0.54638 0.408621 0
0.579812 0.407279 0
0.61323 0.405951 0
0.646174 0.405661 0
0.679072 0.405447 0
0.713329 0.405234 0
0.747921 0.405005 0
0.783551 0.404273 0
0.81973 0.403296 0
0.856489 0.401511 0
0.893751 0.399008 0
0.929641 0.395315 0
0.963455 0.389792 0
0.994492 0.382864 0
1 0.37203 0
1 0.362036 0
1 0.357504 0
1 0.352972 0
0 0.495369 0
0 0.495171 0
0 0.494972 0
0 0.494179 0
0 0.493278 0
0 0.491691 0
0 0.489845 0
0 0.487327 0
0 0.484337 0
0 0.48069 0
0.168887 0.476265 0
0.323674 0.47126 0
0.391699 0.465126 0
0.455482 0.4589 0
0.502251 0.452399 0
0.548257 0.446143 0
0.583444 0.443549 0
0.618647 0.440955 0
0.651255 0.440345 0
0.683665 0.439887 0
0.717006 0.439918 0
0.750561 0.440055 0
0.785016 0.44007 0
0.819913 0.440024 0
0.855421 0.439414 0
0.891447 0.438331 0
0.926314 0.435981 0
0.959442 0.431724 0
0.989837 0.426047 0
1 0.41648 0
1 0.407782 0
1 0.404654 0
1 0.401526 0
0 0.533715 0
0 0.533532 0
0 0.533349 0
0 0.532616 0
0 0.531792 0
0 0.530358 0
0 0.528695 0
0 0.526406 0
0 0.52372 0
0 0.520424 0
0.101411 0.516457 0
0.268696 0.512016 0
0.351553 0.5066 0
0.428962 0.500954 0
0.48452 0.494408 0
0.539117 0.487984 0
0.580285 0.48336 0
0.621454 0.478737 0
0.655863 0.476799 0
0.689784 0.475059 0
0.723079 0.474571 0
0.756191 0.474372 0
0.789761 0.474449 0
0.82356 0.474647 0
0.858 0.474464 0
0.892989 0.47396 0
0.926802 0.472251 0
0.958862 0.468742 0
0.98822 0.463783 0
1 0.454871 0
1 0.446799 0
1 0.444221 0
1 0.441642 0
0 0.572076 0
0 0.571908 0
0 0.57174 0
0 0.571084 0
0 0.570352 0
0 0.569055 0
0 0.567559 0
0 0.565515 0
0 0.563104 0
0 0.560174 0
0.0280003 0.556664 0
0.205325 0.552743 0
0.306966 0.548028 0
0.40116 0.542947 0
0.465553 0.536416 0
0.528801 0.52987 0
0.576074 0.523354 0
0.623331 0.516823 0
0.659815 0.513542 0
0.695537 0.510491 0
0.728954 0.509407 0
0.761807 0.508827 0
0.794598 0.508888 0
0.82739 0.50927 0
0.860807 0.509468 0
0.894774 0.509499 0
0.92755 0.5084 0
0.958556 0.505592 0
0.986893 0.50132 0
1 0.493019 0
1 0.485542 0
1 0.483482 0
1 0.481407 0
0 0.610925 0
0 0.610773 0
0 0.61062 0
0 0.610025 0
0 0.609354 0
0 0.608148 0
0 0.60676 0
0 0.604883 0
0 0.60267 0
0 0.599985 0
0 0.596765 0
0.024506 0.593179 0
0.200259 0.588876 0
0.355642 0.584268 0
0.429572 0.578454 0
0.502235 0.572595 0
0.557122 0.565957 0
0.612024 0.559304 0
0.654505 0.55433 0
0.696101 0.549477 0
0.73225 0.546975 0
0.76704 0.545068 0
0.800671 0.544259 0
0.833707 0.544015 0
0.866819 0.543893 0
0.900008 0.543893 0
0.931945 0.54284 0
0.962036 0.540185 0
0.989425 0.536049 0
1 0.527794 0
1 0.520363 0
1 0.518334 0
1 0.51632 0
0 0.649775 0
0 0.649638 0
0 0.6495 0
0 0.648951 0
0 0.648341 0
0 0.647242 0
0 0.64596 0
0 0.644251 0
0 0.642237 0
0 0.639796 0
0 0.636866 0
0 0.633616 0
0.0935378 0.629709 0
0.310124 0.625574 0
0.393591 0.620508 0
0.47567 0.61532 0
0.538186 0.608545 0
0.600717 0.601785 0
0.649195 0.595117 0
0.696666 0.588479 0
0.735546 0.584543 0
0.772274 0.581308 0
0.806729 0.579629 0
0.840024 0.578744 0
0.872847 0.578317 0
0.905241 0.578286 0
0.936355 0.577264 0
0.965499 0.574792 0
0.991943 0.570779 0
1 0.562554 0
1 0.555184 0
1 0.553201 0
1 0.551232 0
0 0.688701 0
0 0.688563 0
0 0.688441 0
0 0.687922 0
0 0.687358 0
0 0.686336 0
0 0.685161 0
0 0.683558 0
0 0.681682 0
0 0.679423 0
0 0.676707 0
0 0.673716 0
0 0.670115 0
0.121828 0.6663 0
0.281636 0.661646 0
0.435431 0.656886 0
0.505135 0.650767 0
0.574838 0.644663 0
0.630137 0.637873 0
0.684398 0.631052 0
0.729046 0.625849 0
0.771282 0.621057 0
0.809064 0.617975 0
0.844602 0.615747 0
0.87863 0.614343 0
0.91133 0.613657 0
0.942382 0.612116 0
0.970947 0.609323 0
0.996796 0.604974 0
1 0.596338 0
1 0.588571 0
1 0.586419 0
1 0.584253 0
0 0.727642 0
0 0.727504 0
0 0.727382 0
0 0.726909 0
0 0.726375 0
0 0.725429 0
0 0.724346 0
0 0.72285 0
0 0.721111 0
0 0.71902 0
0 0.716548 0
0 0.713787 0
0 0.710491 0
0 0.706996 0
0.164248 0.702708 0
0.394232 0.69836 0
0.471077 0.692958 0
0.547921 0.687556 0
0.610086 0.680781 0
0.671214 0.673884 0
0.721843 0.667414 0
0.769848 0.661051 0
0.811139 0.656535 0
0.849073 0.652918 0
0.884413 0.650492 0
0.917464 0.649104 0
0.948516 0.646998 0
0.976532 0.643854 0
1 0.639124 0
1 0.630045 0
1 0.621866 0
1 0.619516 0
1 0.617151 0
0 0.76704 0
0 0.766934 0
0 0.766827 0
0 0.766369 0
0 0.765881 0
0 0.764996 0
0 0.763973 0
0 0.7626 0
0 0.760983 0
0 0.759045 0
0 0.75671 0
0 0.754131 0
0 0.751049 0
0 0.747784 0
0.0708019 0.743816 0
0.321187 0.739788 0
0.416129 0.734813 0
0.511086 0.729839 0
0.580072 0.723598 0
0.647196 0.717266 0
0.703853 0.710536 0
0.757885 0.703731 0
0.804456 0.698146 0
0.847288 0.693187 0
0.886091 0.689403 0
0.921355 0.686641 0
0.953902 0.683391 0
0.982345 0.679393 0
1 0.673838 0
1 0.663981 0
1 0.655085 0
1 0.652369 0
1 0.649653 0
0 0.806546 0
0 0.80647 0
0 0.806378 0
0 0.805966 0
0 0.805493 0
0 0.804669 0
0 0.803723 0
0 0.802457 0
0 0.800961 0
0 0.799146 0
0 0.796963 0
0 0.794537 0
0 0.791653 0
0 0.788617 0
0 0.784939 0
0.240192 0.781201 0
0.355978 0.776577 0
0.471778 0.771969 0
0.547555 0.7664 0
0.620478 0.760784 0
0.683162 0.754055 0
0.743297 0.747066 0
0.795575 0.74052 0
0.843946 0.734218 0
0.886748 0.728985 0
0.924697 0.724712 0
0.959106 0.72015 0
0.988205 0.71519 0
1 0.70869 0
1 0.697993 0
1 0.688304 0
1 0.685176 0
1 0.682063 0
0 0.846464 0
0 0.846387 0
0 0.846296 0
0 0.845914 0
0 0.845472 0
0 0.844709 0
0 0.843809 0
0 0.842618 0
0 0.84123 0
0 0.839521 0
0 0.837476 0
0 0.835218 0
0 0.832502 0
0 0.829648 0
0 0.8262 0
0.0516213 0.82269 0
0.232654 0.818387 0
0.413703 0.814084 0
0.503273 0.808972 0
0.586297 0.8038 0
0.655268 0.797482 0
0.720714 0.790906 0
0.77847 0.7841 0
0.832364 0.777203 0
0.880049 0.770916 0
0.922301 0.765164 0
0.960204 0.759197 0
0.991592 0.75288 0
1 0.745068 0
1 0.733166 0
1 0.722362 0
1 0.718761 0
1 0.715175 0
0 0.88658 0
0 0.886488 0
0 0.886397 0
0 0.88603 0
0 0.885634 0
0 0.884916 0
0 0.884077 0
0 0.882948 0
0 0.881621 0
0 0.880034 0
0 0.878126 0
0 0.87602 0
0 0.873472 0
0 0.870787 0
0 0.867536 0
0 0.864225 0
0.07776 0.860227 0
0.346242 0.856229 0
0.453086 0.851423 0
0.548394 0.846555 0
0.623758 0.840879 0
0.694133 0.834989 0
0.757229 0.828275 0
0.816678 0.821164 0
0.869688 0.814008 0
0.917067 0.806836 0
0.959274 0.799374 0
0.993759 0.791516 0
1 0.782208 0
1 0.768917 0
1 0.756863 0
1 0.752743 0
1 0.748623 0
0 0.925765 0
0 0.925673 0
0 0.925582 0
0 0.925246 0
0 0.924865 0
0 0.924178 0
0 0.9234 0
0 0.922347 0
0 0.921096 0
0 0.9196 0
0 0.9178 0
0 0.915816 0
0 0.91342 0
0 0.910887 0
0 0.90782 0
0 0.904723 0
0 0.900969 0
0.17705 0.897215 0
0.338003 0.892714 0
0.491798 0.888151 0
0.584344 0.882933 0
0.661585 0.877531 0
0.730175 0.871168 0
0.794446 0.864332 0
0.852567 0.857053 0
0.905303 0.849378 0
0.952392 0.841062 0
0.990982 0.8318 0
1 0.821042 0
1 0.806165 0
1 0.79266 0
1 0.788006 0
1 0.783352 0
0 0.964157 0
0 0.96408 0
0 0.963989 0
0 0.963653 0
0 0.963256 0
0 0.962631 0
0 0.961913 0
0 0.960922 0
0 0.959747 0
0 0.958328 0
0 0.956619 0
0 0.954726 0
0 0.952453 0
0 0.950072 0
0 0.947219 0
0 0.944305 0
0 0.940749 0
0 0.937194 0
0.16611 0.932982 0
0.41886 0.928725 0
0.538033 0.923812 0
0.623819 0.91873 0
0.698039 0.912947 0
0.766476 0.906798 0
0.829526 0.900023 0
0.887861 0.892699 0
0.940291 0.884077 0
0.983856 0.873533 0
1 0.861357 0
1 0.844724 0
1 0.829618 0
1 0.824414 0
1 0.819211 0
0 1 0
0 1 0
0 1 0
0 1 0
0 1 0
0 0.99942 0
0 0.998749 0
0 0.997818 0
0 0.996719 0
0 0.995361 0
0 0.993744 0
0 0.991943 0
0 0.989822 0
0 0.987579 0
0 0.984878 0
0 0.982147 0
0 0.97879 0
0 0.975448 0
0.0215763 0.971496 0
0.332082 0.967498 0
0.47567 0.962875 0
0.577523 0.958114 0
0.660441 0.952789 0
0.733913 0.947219 0
0.801801 0.940932 0
0.86482 0.934066 0
0.922377 0.92575 0
0.97174 0.915297 0
1 0.902754 0
1 0.884428 0
1 0.867781 0
1 0.862058 0
1 0.856352 0
0 1 0
0 1 0
0 1 0
0 1 0
0 1 0
0 1 0
0 1 0
0 1 0
0 1 0
