public/sampleLut/26.cube
TITLE "Generated by Resolve"
LUT_3D_SIZE 5
0.0311437 0.0318456 0.0309148
0.378332 0.060914 0.058793
0.465278 0.119478 0.101549
0.866102 0.152056 0.134371
0.941649 0.124758 0.118395
0.0646677 0.381277 0.0601816
0.387198 0.375677 0.0569162
0.728817 0.393011 0.0878767
0.942916 0.398001 0.114244
0.942992 0.40528 0.118196
0.0953994 0.721492 0.0927291
0.401648 0.698787 0.0930495
0.725017 0.70013 0.096376
0.945083 0.679789 0.109911
0.945083 0.681407 0.112673
0.139147 0.947967 0.119341
0.415946 0.948302 0.110292
0.704509 0.948669 0.107195
0.946395 0.94934 0.11339
0.946395 0.94934 0.114733
0.142199 0.947967 0.121202
0.420905 0.948302 0.111803
0.704509 0.948669 0.107454
0.946395 0.94934 0.111803
0.946395 0.94934 0.111711
0.048127 0.048127 0.323842
0.333715 0.0671244 0.262226
0.471672 0.137835 0.247761
0.942184 0.128008 0.359564
0.942123 0.126375 0.379889
0.0609445 0.384405 0.31548
0.39585 0.38529 0.319463
0.745953 0.410254 0.345769
0.95523 0.433188 0.36585
0.955612 0.439429 0.371374
0.0953536 0.715145 0.334539
0.413504 0.705669 0.333181
0.726497 0.70106 0.325154
0.955215 0.690471 0.343297
0.955535 0.691768 0.349035
0.139315 0.948074 0.336706
0.441428 0.958587 0.345342
0.710964 0.958267 0.334615
0.955642 0.957443 0.339391
0.955779 0.95494 0.342367
0.142702 0.948074 0.339513
0.445991 0.958648 0.346258
0.709239 0.958236 0.333883
0.955413 0.958526 0.334691
0.955398 0.958526 0.334478
0.0755322 0.0751507 0.678859
0.297826 0.0967269 0.406958
0.51426 0.146319 0.435523
0.941863 0.119448 0.680598
0.942321 0.129107 0.68986
0.0830243 0.394995 0.658747
0.417594 0.406363 0.67042
0.75198 0.416464 0.680156
0.959854 0.438483 0.659968
0.960189 0.444221 0.661036
0.102144 0.714641 0.66244
0.419883 0.709178 0.654017
0.742107 0.713924 0.653346
0.972457 0.716472 0.658549
0.972625 0.718654 0.661189
0.141512 0.948211 0.637903
0.442649 0.963607 0.633677
0.727214 0.975067 0.640345
0.971572 0.970855 0.634348
0.971893 0.967102 0.640604
0.144213 0.948211 0.636744
0.446433 0.963821 0.629023
0.726207 0.974792 0.635309
0.971115 0.974502 0.625727
0.970977 0.97438 0.623362
0.0959945 0.0952468 0.855558
0.306004 0.128939 0.542489
0.654444 0.145418 0.802426
0.942092 0.12343 0.893553
0.94258 0.133211 0.894072
0.10042 0.393591 0.889586
0.434638 0.424018 0.906828
0.729931 0.431617 0.9084
0.960128 0.441016 0.911192
0.960372 0.445472 0.911437
0.117983 0.690959 0.892424
0.441077 0.700557 0.905852
0.750607 0.725383 0.921996
0.97557 0.723003 0.918654
0.975647 0.724544 0.912261
0.144915 0.948333 0.895613
0.445808 0.963821 0.894499
0.737804 0.980117 0.906935
0.98732 0.987411 0.925994
0.987152 0.984436 0.92343
0.146471 0.948333 0.895369
0.44625 0.963836 0.887175
0.734447 0.979934 0.894209
0.983795 0.990356 0.91635
0.986694 0.990219 0.913085
0.113207 0.112291 0.873655
0.338598 0.160449 0.711009
0.712123 0.125078 0.890379
0.942321 0.127977 0.893797
0.942733 0.136614 0.894255
0.103075 0.396704 0.889601
0.438102 0.427161 0.907118
0.728985 0.43505 0.908583
0.960281 0.443839 0.911345
0.960479 0.447349 0.911528
0.1205 0.691386 0.892424
0.446738 0.699016 0.908843
0.75198 0.726757 0.924163
0.975738 0.726162 0.927062
0.975708 0.725536 0.927031
0.146715 0.948333 0.895613
0.450889 0.964111 0.911559
0.746242 0.979294 0.929274
0.988098 0.987427 0.941222
0.988037 0.984451 0.941161
0.147372 0.948333 0.895613
0.448737 0.963989 0.911437
0.736614 0.980056 0.928756
0.984131 0.991638 0.941268
0.988159 0.991684 0.941314
