public/sampleLut/26.cube
TITLE "Generated by Resolve"
LUT_3D_SIZE 33
0.0311437 0.0318456 0.0309148
0.0649882 0.0315404 0.0307012
0.123308 0.0344701 0.0337224
0.181735 0.0390478 0.0381933
0.232486 0.043061 0.0420386
0.280354 0.0470893 0.0458686
0.326619 0.0514382 0.0499428
0.358618 0.0563821 0.0545663
0.378332 0.060914 0.058793
0.392477 0.0654307 0.0630198
0.403311 0.0701305 0.0673381
0.412451 0.0762493 0.0719921
0.420951 0.0838483 0.0770733
0.429801 0.0921187 0.0826734
0.439475 0.101015 0.0886854
0.451011 0.110124 0.0949264
0.465278 0.119478 0.101549
0.482353 0.128832 0.108278
0.502373 0.13785 0.114687
0.526894 0.145037 0.120485
0.561776 0.151293 0.12578
0.609567 0.155627 0.130175
0.67837 0.158022 0.133349
0.769635 0.156954 0.13492
0.866102 0.152056 0.134371
0.930556 0.143481 0.130434
0.941833 0.133745 0.124224
0.941695 0.127382 0.119997
0.941634 0.123705 0.117617
0.941619 0.122377 0.116732
0.941619 0.122713 0.116945
0.941634 0.123705 0.117617
0.941649 0.124758 0.118395
0.0272984 0.0571298 0.0271611
0.0534066 0.0540322 0.026215
0.114366 0.0533913 0.0301518
0.179294 0.0591287 0.0370489
0.223133 0.0647746 0.0433051
0.257359 0.070573 0.0488899
0.283604 0.0766918 0.0540475
0.305379 0.0833143 0.0590677
0.324132 0.0900587 0.0641489
0.340337 0.0976425 0.0708629
0.355825 0.105531 0.0776532
0.371374 0.114137 0.0846418
0.387732 0.123735 0.0914778
0.405188 0.133791 0.0975662
0.42414 0.143313 0.103182
0.445609 0.151644 0.1084
0.471244 0.159228 0.113359
0.505089 0.164675 0.117617
0.550973 0.168536 0.120424
0.61474 0.169879 0.122194
0.701045 0.168246 0.123033
0.800763 0.163821 0.123049
0.884932 0.155627 0.121386
0.932525 0.148089 0.11812
0.941649 0.142519 0.114412
0.941604 0.139818 0.112352
0.941604 0.139178 0.111955
0.941604 0.140078 0.112367
0.941604 0.140993 0.112795
0.941619 0.142153 0.113497
0.941649 0.143374 0.114336
0.94168 0.144701 0.115312
0.941711 0.146105 0.116197
0.0311589 0.109804 0.0304875
0.052491 0.106233 0.0315251
0.104112 0.103944 0.0350652
0.155764 0.103395 0.0419776
0.195529 0.106432 0.0485695
0.227085 0.112184 0.0547494
0.254719 0.119158 0.0614786
0.278431 0.12752 0.0694133
0.300557 0.13608 0.0768292
0.321859 0.144717 0.0836347
0.342977 0.153063 0.0899062
0.364813 0.160662 0.0956283
0.387884 0.168002 0.10074
0.414343 0.174121 0.105013
0.44686 0.178653 0.107988
0.489509 0.18117 0.109331
0.545785 0.181353 0.109133
0.620523 0.17998 0.107469
0.70985 0.17792 0.105379
0.797971 0.175814 0.103807
0.86746 0.172915 0.10515
0.913054 0.16878 0.10631
0.937026 0.163973 0.106798
0.941665 0.163394 0.106996
0.941665 0.16492 0.107454
0.94168 0.166751 0.108003
0.94168 0.168582 0.108568
0.94168 0.170169 0.109102
0.941695 0.172045 0.109728
0.941695 0.173556 0.110185
0.941695 0.175372 0.11075
0.941711 0.177172 0.111299
0.941711 0.178729 0.111833
0.0457313 0.155749 0.0435798
0.0720378 0.154269 0.0461585
0.112459 0.153521 0.0492103
0.157519 0.155505 0.0541238
0.194705 0.159625 0.0620584
0.225742 0.164065 0.0699779
0.253986 0.169528 0.0771496
0.279744 0.175784 0.08365
0.305119 0.181643 0.0894331
0.330755 0.187442 0.0943923
0.358267 0.192721 0.0981155
0.390494 0.196094 0.100008
0.429679 0.197879 0.0998856
0.478645 0.197024 0.0974594
0.539818 0.194766 0.0934462
0.611353 0.193103 0.089662
0.687587 0.194827 0.0905928
0.759014 0.197665 0.0929122
0.81825 0.199969 0.0955673
0.864363 0.201953 0.098436
0.897612 0.203403 0.101289
0.919951 0.202701 0.103471
0.937545 0.201114 0.105303
0.941787 0.201846 0.106081
0.941787 0.203387 0.106615
0.941787 0.204913 0.107164
0.941787 0.206485 0.107774
0.941802 0.208026 0.108309
0.941802 0.209583 0.108858
0.941802 0.211154 0.109407
0.941817 0.212665 0.109865
0.941817 0.214206 0.110414
0.941817 0.215763 0.110948
0.0657206 0.192828 0.0595712
0.0957656 0.194278 0.0637522
0.135134 0.196353 0.0678874
0.173541 0.199863 0.0727855
0.207111 0.203555 0.0782483
0.238041 0.208103 0.0836194
0.267689 0.212619 0.088014
0.296757 0.216556 0.0910048
0.328923 0.219409 0.0917678
0.36495 0.220539 0.0900587
0.407782 0.219547 0.0857099
0.456886 0.216312 0.0796826
0.512474 0.214893 0.07776
0.57113 0.216022 0.0780194
0.629587 0.219074 0.0796216
0.685954 0.223972 0.0823987
0.738247 0.229877 0.0861677
0.783932 0.235492 0.0902724
0.826596 0.240604 0.094377
0.863676 0.243915 0.098024
0.895003 0.245274 0.101076
0.918395 0.24416 0.103426
0.935821 0.241245 0.105104
0.941894 0.241062 0.106065
0.941909 0.242344 0.1066
0.941909 0.24387 0.107134
0.941909 0.245136 0.107668
0.941909 0.246662 0.108217
0.941924 0.248188 0.108751
0.941924 0.249409 0.109209
0.941924 0.250919 0.109743
0.941939 0.252399 0.110201
0.941939 0.253651 0.110735
0.0922103 0.228931 0.077348
0.119951 0.232532 0.0813458
0.157321 0.236103 0.0833143
0.189975 0.240375 0.0849012
0.222232 0.245212 0.085359
0.255451 0.250355 0.0835737
0.289036 0.252506 0.0797894
0.32697 0.252033 0.0733501
0.368475 0.250492 0.0687724
0.413626 0.248631 0.0669718
0.459098 0.246799 0.0664683
0.505501 0.247028 0.0674296
0.551949 0.24921 0.0696422
0.59704 0.253193 0.0730144
0.643168 0.258915 0.0772564
0.689479 0.26537 0.0815747
0.736019 0.271824 0.0860151
0.781552 0.278065 0.0904707
0.823529 0.282887 0.0945754
0.861387 0.286015 0.0982681
0.892653 0.286702 0.101366
0.916991 0.285313 0.103868
0.934386 0.281209 0.105547
0.942031 0.280247 0.106645
0.942046 0.281468 0.107118
0.942046 0.282719 0.107683
0.942061 0.28397 0.108248
0.942061 0.285206 0.108812
0.942077 0.286458 0.109377
0.942077 0.287938 0.10988
0.942077 0.289174 0.110445
0.942092 0.290394 0.110933
0.942092 0.2916 0.111421
0.108171 0.268284 0.0885939
0.131136 0.274189 0.0877699
0.160159 0.279118 0.0824903
0.188037 0.284993 0.0748913
0.22089 0.290272 0.0656596
0.26041 0.294591 0.0608225
0.30338 0.295903 0.0575875
0.346838 0.294148 0.0561837
0.388403 0.29015 0.0567025
0.429587 0.287816 0.0587167
0.46949 0.286931 0.0618753
0.509819 0.287556 0.0654459
0.552087 0.290486 0.0692454
0.595026 0.294453 0.0731518
0.640848 0.300206 0.0774701
0.686671 0.306264 0.0819104
0.733486 0.313008 0.0864424
0.778881 0.319249 0.0908675
0.821103 0.324117 0.0950332
0.859358 0.327245 0.0989548
0.890623 0.327855 0.102495
0.915938 0.326192 0.105379
0.933303 0.321386 0.107164
0.942245 0.319356 0.108324
0.94226 0.320317 0.108873
0.94226 0.321508 0.109361
0.94226 0.322469 0.109911
0.942275 0.32369 0.110475
0.942275 0.324895 0.110964
0.94229 0.326116 0.111528
0.94229 0.327306 0.112016
0.942306 0.328527 0.112596
0.942306 0.329717 0.113085
0.0872816 0.320439 0.0761273
0.0986954 0.328359 0.0669718
0.121874 0.332952 0.060441
0.159716 0.336614 0.0556802
0.204303 0.33843 0.0526284
0.252277 0.33933 0.0511788
0.301534 0.339818 0.0513771
0.347265 0.337881 0.0532235
0.388907 0.333883 0.0559091
0.428717 0.330892 0.0590066
0.468025 0.328756 0.0622568
0.508507 0.329 0.0658274
0.550149 0.331258 0.0696422
0.593027 0.334874 0.0735637
0.638529 0.340658 0.0780194
0.684565 0.346609 0.0824598
0.730968 0.353567 0.0870832
0.776547 0.359915 0.0916762
0.818799 0.364813 0.0963455
0.857725 0.368444 0.100771
0.888945 0.368704 0.104601
0.915145 0.367071 0.107713
0.932311 0.361303 0.109453
0.942535 0.358404 0.110704
0.94255 0.359335 0.111192
0.94255 0.360281 0.111757
0.942565 0.361212 0.112245
0.94258 0.362158 0.112825
0.94258 0.363348 0.113344
0.942596 0.364294 0.113909
0.942611 0.365499 0.114427
0.942611 0.366415 0.114916
0.942626 0.367605 0.115419
0.0646677 0.381277 0.0601816
0.0763561 0.382559 0.0570535
0.100328 0.380591 0.0535286
0.146914 0.3794 0.0526741
0.197879 0.378561 0.052842
0.2477 0.377707 0.0534066
0.295979 0.377218 0.0540169
0.342473 0.376699 0.0552377
0.387198 0.375677 0.0569162
0.42742 0.372351 0.0597238
0.466453 0.369543 0.0628519
0.506874 0.369268 0.066392
0.548516 0.370962 0.0702525
0.591348 0.374594 0.0742504
0.636561 0.380056 0.0786755
0.6822 0.386099 0.0830854
0.728817 0.393011 0.0878767
0.774563 0.399786 0.0927291
0.816968 0.405234 0.0986343
0.85658 0.409735 0.104097
0.887709 0.409567 0.107942
0.914504 0.407752 0.111025
0.931701 0.401144 0.112551
0.942916 0.397345 0.11371
0.942916 0.398001 0.114244
0.942931 0.398917 0.114733
0.942931 0.399542 0.11519
0.942946 0.400458 0.115679
0.942946 0.401389 0.116228
0.942962 0.402564 0.116747
0.942977 0.403494 0.117311
0.942977 0.404395 0.117784
0.942992 0.40528 0.118196
0.0644541 0.425727 0.0600748
0.0767987 0.422721 0.0589303
0.101503 0.418738 0.0568399
0.147158 0.416907 0.05626
0.19649 0.415656 0.0563363
0.245075 0.414649 0.056611
0.292226 0.414023 0.057145
0.338109 0.413474 0.0579385
0.383322 0.413336 0.0590219
0.424949 0.411536 0.061265
0.465461 0.40943 0.0638743
0.505547 0.408896 0.0673381
0.546899 0.410254 0.0710307
0.589654 0.413352 0.0750439
0.634638 0.41886 0.0796063
0.680598 0.425254 0.0842908
0.726955 0.432456 0.0897536
0.773053 0.439689 0.0953841
0.815396 0.445289 0.100969
0.855558 0.449928 0.106188
0.886549 0.449363 0.109407
0.914153 0.447395 0.112108
0.931121 0.44007 0.113466
0.943297 0.434989 0.114565
0.943313 0.435599 0.114961
0.943313 0.43621 0.115373
0.943328 0.436805 0.11577
0.943328 0.437705 0.116258
0.943343 0.4383 0.11667
0.943343 0.43917 0.117082
0.943358 0.440055 0.117571
0.943358 0.440909 0.117891
0.943374 0.441779 0.118303
0.068452 0.463691 0.0638895
0.0807507 0.460288 0.0627451
0.103822 0.455772 0.0606088
0.147997 0.453681 0.0599985
0.196063 0.452171 0.0598459
0.243153 0.450874 0.0598611
0.289342 0.450126 0.0603342
0.334249 0.449439 0.0608988
0.378637 0.449058 0.061799
0.42211 0.448844 0.0632029
0.46424 0.448737 0.0650187
0.504494 0.447669 0.0684215
0.545281 0.448402 0.0720684
0.588281 0.451789 0.0760662
0.633051 0.457115 0.0807202
0.679057 0.463584 0.0857404
0.725582 0.471595 0.0922713
0.772076 0.47985 0.0991073
0.814313 0.485069 0.103578
0.854856 0.489799 0.107836
0.885664 0.48867 0.110033
0.913832 0.486229 0.112108
0.930694 0.477882 0.113375
0.943694 0.471794 0.114488
0.943694 0.472129 0.114885
0.943709 0.472724 0.115282
0.943709 0.47332 0.115694
0.943725 0.474189 0.116091
0.943725 0.474784 0.116503
0.94374 0.47538 0.116899
0.94374 0.476249 0.117388
0.943755 0.477089 0.117708
0.943755 0.477668 0.11809
0.072221 0.501671 0.0676585
0.0845197 0.498268 0.0665599
0.106722 0.493706 0.0643626
0.150072 0.491554 0.0637064
0.197452 0.489998 0.0635233
0.243946 0.488701 0.0636149
0.28925 0.487678 0.0640269
0.333776 0.486915 0.0645457
0.377203 0.486412 0.0653697
0.420279 0.486076 0.066453
0.462272 0.485771 0.0677653
0.502998 0.485618 0.0702678
0.544396 0.486427 0.073518
0.587213 0.489754 0.0780041
0.631998 0.49543 0.083238
0.678294 0.502602 0.0889906
0.724697 0.510491 0.0946517
0.771435 0.518898 0.100252
0.813367 0.524025 0.103868
0.854246 0.528588 0.10724
0.884855 0.52694 0.109316
0.913512 0.524056 0.111192
0.930282 0.514946 0.112474
0.944091 0.507485 0.113664
0.944091 0.508049 0.11397
0.944091 0.50837 0.114366
0.944106 0.508934 0.114748
0.944106 0.509514 0.115129
0.944121 0.510094 0.115526
0.944121 0.510674 0.115908
0.944121 0.511238 0.116289
0.944137 0.512078 0.116686
0.944137 0.512642 0.116991
0.0762036 0.542214 0.0718242
0.0885176 0.53814 0.0706645
0.110185 0.533013 0.0683757
0.153124 0.530526 0.0677195
0.199817 0.528405 0.0674449
0.245701 0.526879 0.0675669
0.290349 0.525658 0.0679179
0.334234 0.524712 0.0683757
0.377066 0.524071 0.0691386
0.419333 0.523156 0.0699779
0.460853 0.52282 0.070985
0.502251 0.523003 0.0726177
0.543679 0.524102 0.075227
0.586557 0.527596 0.0801404
0.631357 0.533333 0.0859846
0.677974 0.541253 0.0925154
0.724269 0.549249 0.0972305
0.770474 0.55726 0.101152
0.812741 0.562387 0.103838
0.85391 0.567041 0.106416
0.884291 0.564584 0.108339
0.913344 0.561517 0.110216
0.929992 0.55169 0.111498
0.944472 0.543175 0.112734
0.944472 0.543435 0.113069
0.944472 0.543709 0.113481
0.944472 0.543984 0.113802
0.944488 0.544549 0.114183
0.944488 0.545098 0.114565
0.944488 0.545403 0.114961
0.944488 0.545953 0.115343
0.944488 0.546502 0.115724
0.944503 0.547295 0.11603
0.0802777 0.583368 0.0760662
0.0927749 0.579278 0.0749828
0.114382 0.574151 0.072694
0.157565 0.571374 0.0720226
0.204044 0.569512 0.071931
0.249348 0.567956 0.0720226
0.293965 0.566705 0.0723278
0.33727 0.565454 0.0728008
0.380102 0.564797 0.0735485
0.422248 0.563973 0.0746319
0.463951 0.563775 0.0759899
0.50518 0.563821 0.0781567
0.546273 0.564584 0.0808576
0.58793 0.566842 0.0846113
0.631861 0.571771 0.0888533
0.677943 0.579217 0.0935073
0.72398 0.587091 0.0971237
0.769955 0.595041 0.100343
0.811948 0.59971 0.102907
0.852659 0.603983 0.105409
0.88333 0.601328 0.107317
0.912825 0.598062 0.109255
0.929427 0.587198 0.110536
0.94464 0.577478 0.111727
0.94464 0.577493 0.112062
0.94464 0.577752 0.11249
0.94464 0.578027 0.11281
0.94464 0.578546 0.113237
0.944656 0.57882 0.113634
0.944656 0.57937 0.114015
0.944656 0.57966 0.114412
0.944656 0.580209 0.114717
0.944656 0.580743 0.115023
0.0848554 0.62855 0.0811322
0.0974746 0.623636 0.0798657
0.119463 0.617853 0.0774243
0.162936 0.614649 0.0768444
0.209201 0.612512 0.0767376
0.254246 0.610391 0.0769207
0.298756 0.608972 0.0775006
0.342214 0.607904 0.0781567
0.384848 0.606836 0.0789807
0.426856 0.606256 0.0801556
0.46836 0.605722 0.0816205
0.509544 0.605631 0.0838941
0.550042 0.605997 0.0862593
0.590494 0.60676 0.0888228
0.633188 0.610498 0.0915541
0.678447 0.617182 0.0944381
0.723995 0.62475 0.0971389
0.769665 0.632319 0.0997635
0.811414 0.636835 0.102113
0.851698 0.640787 0.104448
0.882582 0.637629 0.106493
0.9122 0.634195 0.1084
0.929 0.622507 0.109682
0.944808 0.611368 0.110918
0.944808 0.611627 0.111254
0.944808 0.611643 0.111589
0.944808 0.611917 0.111925
0.944808 0.612177 0.112337
0.944808 0.612436 0.112673
0.944808 0.612711 0.1131
0.944808 0.613245 0.113497
0.944808 0.613535 0.113802
0.944808 0.614084 0.114122
0.0894942 0.673487 0.086183
0.102449 0.668894 0.0849165
0.125078 0.663096 0.0825208
0.168994 0.659556 0.0819715
0.21532 0.65742 0.0820325
0.260777 0.65536 0.082475
0.305394 0.654185 0.0837873
0.349569 0.653376 0.0851606
0.392676 0.652628 0.0867628
0.434852 0.651865 0.0878767
0.476768 0.651438 0.0889754
0.517723 0.651087 0.0897993
0.558175 0.651133 0.0907454
0.598245 0.651316 0.0916915
0.638621 0.652964 0.0928817
0.680186 0.656107 0.0944381
0.723842 0.661891 0.0965744
0.768811 0.669215 0.0990311
0.810452 0.673808 0.101427
0.850568 0.67744 0.103853
0.881514 0.67425 0.105837
0.911299 0.67039 0.107744
0.928542 0.658167 0.10898
0.944945 0.645747 0.110246
0.944945 0.645762 0.110582
0.944945 0.645762 0.110918
0.944945 0.646021 0.111254
0.944945 0.646036 0.111589
0.944945 0.646296 0.111925
0.944945 0.646571 0.112337
0.944945 0.647089 0.112764
0.944945 0.647349 0.1131
0.944945 0.647623 0.11342
0.0953994 0.721492 0.0927291
0.108598 0.716258 0.09131
0.132113 0.71014 0.0890822
0.17705 0.706477 0.0889601
0.223667 0.703914 0.08925
0.269322 0.702083 0.0897993
0.31429 0.700801 0.0906691
0.35819 0.699565 0.0917067
0.401648 0.698787 0.0930495
0.444053 0.697948 0.0939193
0.485588 0.697414 0.0945907
0.526375 0.696773 0.0946059
0.566598 0.696468 0.0945449
0.605966 0.696117 0.0944076
0.644846 0.695949 0.0945296
0.683558 0.696345 0.0949569
0.725017 0.70013 0.096376
0.768521 0.70631 0.0985122
0.809491 0.710689 0.100847
0.849454 0.714015 0.103258
0.880903 0.711025 0.10518
0.910384 0.706538 0.107103
0.928084 0.693568 0.108354
0.944457 0.680293 0.109621
0.945083 0.679789 0.109911
0.945083 0.679789 0.110246
0.945083 0.679805 0.110582
0.945083 0.680064 0.110918
0.945083 0.680339 0.111254
0.945083 0.680339 0.111666
0.945083 0.680613 0.112001
0.945083 0.680888 0.112337
0.945083 0.681407 0.112673
0.101625 0.768521 0.0993362
0.1149 0.763561 0.0978256
0.1393 0.757198 0.0958877
0.185641 0.754131 0.0967575
0.233219 0.751751 0.0975814
0.279301 0.749691 0.0982223
0.324361 0.748318 0.0979782
0.368521 0.746929 0.0977493
0.411795 0.745907 0.0975967
0.453925 0.744839 0.0974746
0.495705 0.744106 0.0973678
0.535698 0.74313 0.0970169
0.575036 0.742153 0.0966506
0.613931 0.741497 0.0964981
0.652277 0.740917 0.0964218
0.69015 0.74078 0.0965744
0.729122 0.742092 0.0972305
0.768933 0.744595 0.0983902
0.808804 0.747692 0.10042
0.84863 0.751278 0.10277
0.880064 0.747692 0.104707
0.909697 0.743099 0.106538
0.927611 0.729686 0.10782
0.944076 0.715175 0.10901
0.945205 0.714199 0.109331
0.945205 0.714199 0.109667
0.945205 0.714214 0.110002
0.945205 0.714214 0.110338
0.945205 0.714488 0.110674
0.945205 0.714488 0.110994
0.945205 0.714748 0.11133
0.945205 0.715023 0.111666
0.945205 0.715282 0.111925
0.110536 0.813199 0.107012
0.124224 0.80824 0.10544
0.148348 0.802136 0.102861
0.195163 0.798825 0.102678
0.242588 0.796551 0.1028
0.288869 0.794583 0.103029
0.333471 0.793194 0.102327
0.377142 0.791775 0.101656
0.419989 0.790326 0.100938
0.461921 0.789502 0.100328
0.502876 0.788327 0.099855
0.542687 0.787274 0.099321
0.581872 0.786511 0.0988937
0.620233 0.785412 0.0986343
0.658351 0.784634 0.0984817
0.695888 0.784161 0.0983597
0.733227 0.783581 0.0985275
0.770169 0.78349 0.09897
0.808713 0.785306 0.100435
0.847929 0.788357 0.102388
0.879454 0.784619 0.104265
0.908995 0.779355 0.106081
0.927275 0.765438 0.107378
0.943572 0.750439 0.108476
0.945327 0.748562 0.108827
0.945327 0.748562 0.109163
0.945327 0.748577 0.109407
0.945327 0.748577 0.109743
0.945327 0.748577 0.110079
0.945327 0.748592 0.110414
0.945327 0.748852 0.11075
0.945327 0.748867 0.110994
0.945327 0.749142 0.11133
0.119051 0.854963 0.113451
0.13312 0.851255 0.112337
0.157656 0.846082 0.109728
0.204822 0.842588 0.108019
0.251865 0.840101 0.106798
0.298024 0.837934 0.105913
0.342016 0.835996 0.104891
0.384695 0.834348 0.103944
0.426368 0.832975 0.103182
0.46717 0.831586 0.102556
0.507683 0.830213 0.102037
0.547051 0.829084 0.101595
0.585855 0.828275 0.101152
0.62417 0.827146 0.100908
0.662226 0.826322 0.100679
0.699413 0.825498 0.100542
0.736599 0.825071 0.100511
0.773236 0.82472 0.100633
0.810437 0.825238 0.10135
0.847578 0.82623 0.102358
0.879088 0.821912 0.103975
0.908293 0.816236 0.105653
0.926909 0.801877 0.106859
0.943191 0.785794 0.108019
0.945434 0.783337 0.1084
0.945434 0.783337 0.108659
0.945434 0.783062 0.108904
0.945434 0.783062 0.109163
0.945434 0.783078 0.109499
0.945434 0.783078 0.109834
0.945434 0.783352 0.11017
0.945434 0.783352 0.110414
0.945434 0.783627 0.110674
0.126421 0.887739 0.115389
0.140566 0.884016 0.114382
0.164172 0.879393 0.112032
0.211048 0.876738 0.11046
0.256947 0.874815 0.109148
0.302083 0.873137 0.107988
0.345312 0.871626 0.106966
0.387594 0.870344 0.106035
0.428916 0.869001 0.105196
0.469123 0.867887 0.104585
0.509056 0.867018 0.104036
0.548348 0.865904 0.103624
0.58706 0.865293 0.103243
0.625391 0.864424 0.102937
0.662882 0.863798 0.102739
0.700343 0.863172 0.102525
0.737163 0.862547 0.102403
0.773602 0.862165 0.102388
0.809949 0.861952 0.102571
0.845853 0.86183 0.102968
0.877546 0.857908 0.104204
0.907485 0.852796 0.10576
0.926711 0.837797 0.106874
0.942931 0.82089 0.107851
0.945556 0.817929 0.108217
0.945556 0.817945 0.108385
0.945556 0.81767 0.108629
0.945556 0.81767 0.108965
0.945556 0.81767 0.109224
0.945556 0.81767 0.10956
0.945556 0.81767 0.109804
0.945556 0.81767 0.110063
0.945556 0.817685 0.110307
0.132784 0.916716 0.117144
0.147189 0.914641 0.116228
0.170459 0.911864 0.114061
0.216266 0.909041 0.112306
0.260716 0.906722 0.110933
0.304173 0.904875 0.109728
0.346441 0.903273 0.10869
0.387961 0.9019 0.10782
0.428351 0.900526 0.107134
0.468437 0.899397 0.106462
0.507698 0.898497 0.105913
0.546349 0.897368 0.105425
0.584695 0.896483 0.105028
0.622354 0.895827 0.104646
0.659724 0.895186 0.104448
0.696544 0.89453 0.104234
0.733043 0.893889 0.104036
0.768933 0.893233 0.104036
0.804852 0.892912 0.104219
0.840299 0.892638 0.104738
0.873915 0.890913 0.10573
0.906554 0.888533 0.107118
0.926467 0.874235 0.107851
0.94258 0.856474 0.108492
0.945663 0.852842 0.108736
0.945663 0.852567 0.108904
0.945663 0.852308 0.109148
0.945663 0.852308 0.109392
0.945663 0.852033 0.109636
0.945663 0.852033 0.109972
0.945663 0.852033 0.110231
0.945663 0.852033 0.110399
0.945663 0.852033 0.110643
0.136172 0.934707 0.118196
0.149981 0.932631 0.117342
0.170855 0.930022 0.115099
0.216052 0.928481 0.113542
0.259358 0.927199 0.112184
0.302129 0.926162 0.111055
0.343572 0.925261 0.110155
0.384329 0.924376 0.109255
0.424552 0.923751 0.108537
0.463783 0.923003 0.107897
0.502678 0.922515 0.107362
0.541039 0.921889 0.106828
0.57908 0.921401 0.106462
0.616114 0.92105 0.106096
0.653254 0.920562 0.105821
0.689525 0.920226 0.105623
0.725765 0.919875 0.105486
0.761349 0.919661 0.105501
0.797024 0.919326 0.105776
0.83209 0.919142 0.106325
0.866911 0.919081 0.107317
0.901228 0.919066 0.108354
0.92369 0.907179 0.109041
0.941939 0.89099 0.109453
0.94583 0.887297 0.109682
0.94583 0.887022 0.109834
0.94583 0.886748 0.110063
0.94583 0.886748 0.110231
0.94583 0.886473 0.11046
0.94583 0.886473 0.110719
0.94583 0.886473 0.110964
0.94583 0.886473 0.111131
0.94583 0.886473 0.111391
0.13872 0.947967 0.119097
0.152407 0.947967 0.11841
0.171847 0.947707 0.116182
0.215091 0.946105 0.114611
0.257115 0.944915 0.113405
0.29868 0.943725 0.112306
0.339284 0.942809 0.11133
0.378912 0.942046 0.11043
0.418112 0.941268 0.109712
0.456519 0.940627 0.10901
0.494713 0.940002 0.108461
0.532082 0.939361 0.107927
0.569146 0.938857 0.107546
0.605753 0.938491 0.107103
0.641932 0.938003 0.106828
0.677531 0.937636 0.106554
0.712856 0.937285 0.106493
0.74815 0.936934 0.106661
0.782818 0.936721 0.107073
0.817105 0.936385 0.107637
0.851209 0.936233 0.108507
0.885039 0.93611 0.10959
0.913603 0.93109 0.110567
0.939879 0.923949 0.111482
0.946151 0.922042 0.111757
0.946151 0.921767 0.111894
0.946151 0.921492 0.112047
0.946136 0.921218 0.112276
0.946136 0.920943 0.11252
0.946136 0.920943 0.112688
0.946136 0.920668 0.112825
0.946136 0.920668 0.112993
0.946136 0.920668 0.113252
0.139147 0.947967 0.119341
0.153094 0.947967 0.118639
0.173007 0.947982 0.116426
0.215991 0.948043 0.114946
0.257389 0.948104 0.113802
0.29839 0.94815 0.112718
0.338247 0.948211 0.111803
0.377356 0.948257 0.110964
0.415946 0.948302 0.110292
0.453742 0.948348 0.109621
0.49102 0.948394 0.109026
0.527687 0.94844 0.108522
0.563821 0.948486 0.10811
0.599527 0.948531 0.107774
0.634974 0.948562 0.107439
0.669886 0.948608 0.107195
0.704509 0.948669 0.107195
0.738811 0.948714 0.107439
0.772839 0.948775 0.107942
0.806577 0.948837 0.108614
0.839689 0.948898 0.109422
0.872709 0.948959 0.110399
0.905379 0.949111 0.11165
0.938094 0.949294 0.112993
0.946395 0.94934 0.11339
0.946395 0.94934 0.113558
0.946395 0.94934 0.113725
0.946395 0.94934 0.113893
0.946395 0.94934 0.114061
0.946395 0.94934 0.114229
0.946395 0.94934 0.114397
0.946395 0.94934 0.114565
0.946395 0.94934 0.114733
0.13959 0.947967 0.119661
0.153689 0.947967 0.118868
0.174472 0.947982 0.116732
0.217166 0.948043 0.115251
0.258534 0.948104 0.114031
0.299184 0.94815 0.112978
0.33904 0.948211 0.112047
0.378134 0.948257 0.111208
0.416464 0.948302 0.11046
0.454002 0.948348 0.109789
0.491279 0.948394 0.109194
0.527947 0.94844 0.10869
0.56408 0.948486 0.108186
0.599542 0.948531 0.107866
0.634974 0.948562 0.10753
0.669886 0.948608 0.107195
0.70425 0.948669 0.107118
0.738552 0.948714 0.107347
0.77258 0.948775 0.107851
0.806073 0.948837 0.108431
0.839185 0.948898 0.109316
0.872206 0.948959 0.110292
0.904875 0.949111 0.111467
0.937591 0.949294 0.112718
0.946395 0.94934 0.113146
0.946395 0.94934 0.113313
0.946395 0.94934 0.11339
0.946395 0.94934 0.113558
0.946395 0.94934 0.113725
0.946395 0.94934 0.113802
0.946395 0.94934 0.11397
0.946395 0.94934 0.114061
0.946395 0.94934 0.114229
0.140032 0.947967 0.119905
0.154421 0.947967 0.119188
0.175875 0.947982 0.11696
0.218296 0.948058 0.11548
0.259663 0.948104 0.114275
0.300237 0.94815 0.113222
0.339818 0.948211 0.112215
0.378668 0.948257 0.111376
0.416983 0.948302 0.110628
0.45452 0.948348 0.109957
0.491539 0.948394 0.109361
0.528206 0.94844 0.108782
0.56408 0.948486 0.108354
0.599786 0.948531 0.107942
0.634974 0.948562 0.10753
0.669642 0.948608 0.107271
0.70425 0.948669 0.107195
0.738308 0.948714 0.107347
0.772076 0.948775 0.107759
0.805829 0.948837 0.108431
0.838926 0.948898 0.109224
0.871717 0.948959 0.110109
0.904372 0.949111 0.111269
0.937087 0.949294 0.112535
0.946395 0.94934 0.112978
0.946395 0.94934 0.113054
0.946395 0.94934 0.113146
