public/sampleLut/26.cube
TITLE "Generated by Resolve"
LUT_3D_SIZE 9
0.0311437 0.0318456 0.0309148
0.232486 0.043061 0.0420386
0.378332 0.060914 0.058793
0.420951 0.0838483 0.0770733
0.465278 0.119478 0.101549
0.561776 0.151293 0.12578
0.866102 0.152056 0.134371
0.941634 0.123705 0.117617
0.941649 0.124758 0.118395
0.0657206 0.192828 0.0595712
0.207111 0.203555 0.0782483
0.328923 0.219409 0.0917678
0.512474 0.214893 0.07776
0.738247 0.229877 0.0861677
0.895003 0.245274 0.101076
0.941909 0.242344 0.1066
0.941924 0.248188 0.108751
0.941939 0.253651 0.110735
0.0646677 0.381277 0.0601816
0.197879 0.378561 0.052842
0.387198 0.375677 0.0569162
0.548516 0.370962 0.0702525
0.728817 0.393011 0.0878767
0.887709 0.409567 0.107942
0.942916 0.398001 0.114244
0.942946 0.401389 0.116228
0.942992 0.40528 0.118196
0.0762036 0.542214 0.0718242
0.199817 0.528405 0.0674449
0.377066 0.524071 0.0691386
0.543679 0.524102 0.075227
0.724269 0.549249 0.0972305
0.884291 0.564584 0.108339
0.944472 0.543435 0.113069
0.944488 0.545098 0.114565
0.944503 0.547295 0.11603
0.0953994 0.721492 0.0927291
0.223667 0.703914 0.08925
0.401648 0.698787 0.0930495
0.566598 0.696468 0.0945449
0.725017 0.70013 0.096376
0.880903 0.711025 0.10518
0.945083 0.679789 0.109911
0.945083 0.680339 0.111254
0.945083 0.681407 0.112673
0.126421 0.887739 0.115389
0.256947 0.874815 0.109148
0.428916 0.869001 0.105196
0.58706 0.865293 0.103243
0.737163 0.862547 0.102403
0.877546 0.857908 0.104204
0.945556 0.817929 0.108217
0.945556 0.81767 0.109224
0.945556 0.817685 0.110307
0.139147 0.947967 0.119341
0.257389 0.948104 0.113802
0.415946 0.948302 0.110292
0.563821 0.948486 0.10811
0.704509 0.948669 0.107195
0.839689 0.948898 0.109422
0.946395 0.94934 0.11339
0.946395 0.94934 0.114061
0.946395 0.94934 0.114733
0.14078 0.947967 0.120409
0.261921 0.948104 0.114733
0.418296 0.948302 0.11104
0.564858 0.948486 0.108614
0.70399 0.948669 0.107195
0.838178 0.948898 0.109041
0.946395 0.94934 0.112642
0.946395 0.94934 0.112642
0.946395 0.94934 0.112978
0.142199 0.947967 0.121202
0.265812 0.948119 0.115434
0.420905 0.948302 0.111803
0.5664 0.948486 0.109117
0.704509 0.948669 0.107454
0.837674 0.948898 0.108782
0.946395 0.94934 0.111803
0.946395 0.94934 0.111635
0.946395 0.94934 0.111711
0.0372473 0.0375982 0.17705
0.231128 0.0440223 0.178164
0.355444 0.0635843 0.157702
0.405615 0.0959029 0.157458
0.465843 0.130449 0.175723
0.601816 0.154147 0.204257
0.928008 0.141115 0.233478
0.941833 0.121019 0.231113
0.942092 0.126436 0.237308
0.0769818 0.195087 0.150652
0.21825 0.214542 0.167926
0.354772 0.232914 0.18468
0.545464 0.239948 0.193683
0.745556 0.254795 0.209232
0.90042 0.270817 0.225605
0.947173 0.277897 0.232639
0.947402 0.282887 0.236866
0.947646 0.288548 0.241474
0.0605783 0.383963 0.159594
0.214542 0.381872 0.166766
0.388266 0.377249 0.164416
0.552972 0.380896 0.181109
0.733516 0.404303 0.20148
0.891997 0.422843 0.222278
0.947662 0.417868 0.229816
0.947875 0.421195 0.233326
0.948104 0.425025 0.237064
0.0749218 0.538659 0.164523
0.22652 0.529915 0.179141
0.382361 0.5243 0.173632
0.542306 0.523384 0.177813
0.725948 0.5523 0.20087
0.886534 0.569223 0.213291
0.948318 0.551873 0.219608
0.948501 0.553735 0.222797
0.948684 0.556069 0.226154
0.0944839 0.716915 0.188235
0.247089 0.704128 0.199695
0.407935 0.698161 0.196292
0.56672 0.694743 0.193698
0.722118 0.696925 0.195071
0.881285 0.711345 0.20531
0.94844 0.68304 0.211658
0.948577 0.683543 0.21442
0.948745 0.684611 0.217609
0.126238 0.884184 0.21001
0.279576 0.875059 0.216876
0.435035 0.868803 0.207538
0.587884 0.864332 0.201953
0.736263 0.861234 0.199634
0.87686 0.856886 0.201205
0.948577 0.817685 0.206134
0.948684 0.817044 0.20824
0.948821 0.817243 0.211017
0.139315 0.947997 0.20621
0.290089 0.952041 0.221866
0.428656 0.951736 0.212924
0.568429 0.951598 0.206958
0.705165 0.951614 0.204013
0.83827 0.951766 0.205432
0.949218 0.952209 0.209461
0.949279 0.95201 0.210742
0.949371 0.951568 0.212848
0.141238 0.947997 0.208621
0.293782 0.952117 0.223362
0.430991 0.951797 0.213993
0.568765 0.951644 0.207599
0.704143 0.951583 0.203555
0.835966 0.951705 0.204074
0.949096 0.952102 0.207095
0.949111 0.952102 0.207309
0.949172 0.952163 0.208606
0.142809 0.948013 0.210513
0.297642 0.952193 0.225071
0.433875 0.951873 0.215473
0.570321 0.951675 0.208453
0.704173 0.951614 0.203983
0.834958 0.951675 0.203616
0.949035 0.952041 0.205814
0.94902 0.95201 0.205386
0.94905 0.952041 0.206027
0.048127 0.048127 0.323842
0.21091 0.0520638 0.321035
0.333715 0.0671244 0.262226
0.395224 0.105852 0.23714
0.471672 0.137835 0.247761
0.668696 0.149401 0.302251
0.942184 0.128008 0.359564
0.941833 0.120516 0.373892
0.942123 0.126375 0.379889
0.0929427 0.194797 0.229618
0.227329 0.223407 0.254383
0.375219 0.237018 0.29987
0.564935 0.242145 0.33048
0.751629 0.257984 0.355047
0.90518 0.275044 0.369131
0.950545 0.283803 0.365087
0.950866 0.289052 0.369131
0.951202 0.294621 0.373465
0.0609445 0.384405 0.31548
0.216938 0.383001 0.315679
0.39585 0.38529 0.319463
0.567391 0.392737 0.32781
0.745953 0.410254 0.345769
0.901732 0.427832 0.361517
0.95523 0.433188 0.36585
0.955398 0.436179 0.368383
0.955612 0.439429 0.371374
0.0751965 0.537163 0.310307
0.226947 0.531991 0.31339
0.389715 0.532662 0.314717
0.549767 0.531197 0.315709
0.736934 0.558968 0.335317
0.895552 0.572763 0.347112
0.955367 0.561852 0.353414
0.955505 0.563394 0.355932
0.955673 0.565438 0.358923
0.0953536 0.715145 0.334539
0.24892 0.706416 0.336339
0.413504 0.705669 0.333181
0.571176 0.701289 0.325048
0.726497 0.70106 0.325154
0.888167 0.715602 0.336522
0.955215 0.690471 0.343297
0.955367 0.690623 0.346059
0.955535 0.691768 0.349035
0.127703 0.88278 0.351263
0.280644 0.876829 0.351492
0.435599 0.874632 0.341512
0.588891 0.870008 0.33315
0.739147 0.8663 0.329091
0.881758 0.861845 0.331136
0.955169 0.82327 0.336706
0.955306 0.82237 0.339223
0.955444 0.822507 0.341772
0.139315 0.948074 0.336706
0.291997 0.955139 0.344106
0.441428 0.958587 0.345342
0.576364 0.958358 0.338003
0.710964 0.958267 0.334615
0.842878 0.958373 0.335836
0.955642 0.957443 0.339391
0.955688 0.955627 0.340352
0.955779 0.95494 0.342367
0.141054 0.948074 0.338003
0.295659 0.955322 0.344808
0.443473 0.958618 0.345571
0.577066 0.958358 0.338003
0.709484 0.958251 0.334127
0.839872 0.958267 0.334005
0.955505 0.958618 0.336431
0.955505 0.958618 0.336431
0.95555 0.958679 0.337514
0.142702 0.948074 0.339513
0.300114 0.955535 0.346517
0.445991 0.958648 0.346258
0.578286 0.958373 0.33846
0.709239 0.958236 0.333883
0.838132 0.958221 0.333089
0.955413 0.958526 0.334691
0.955383 0.958495 0.334035
0.955398 0.958526 0.334478
0.0603494 0.0601511 0.488167
0.201236 0.0639048 0.432776
0.308095 0.0798505 0.338628
0.390249 0.116182 0.313252
0.486656 0.144579 0.329412
0.758877 0.141955 0.4533
0.941848 0.120333 0.520058
0.941924 0.121767 0.531426
0.942199 0.127398 0.536751
0.108248 0.20058 0.300938
0.237522 0.233677 0.343465
0.385367 0.240497 0.443702
0.568215 0.242374 0.490867
0.752041 0.258946 0.519524
0.906401 0.276463 0.530602
0.950759 0.285374 0.513954
0.951064 0.290654 0.516991
0.95137 0.295933 0.520577
0.0683909 0.375662 0.472786
0.229603 0.382559 0.474098
0.403601 0.393011 0.488106
0.570794 0.396475 0.492653
0.753475 0.41387 0.514687
0.908141 0.431113 0.523247
0.959686 0.438025 0.511391
0.959854 0.440726 0.51281
0.960052 0.443931 0.515038
0.076997 0.536202 0.474495
0.229419 0.530495 0.469017
0.394354 0.536599 0.476143
0.559564 0.540902 0.480201
0.75314 0.55462 0.487419
0.906477 0.565393 0.495781
0.963378 0.567437 0.499092
0.963485 0.569207 0.500786
0.963638 0.571267 0.503304
0.0979171 0.71429 0.498939
0.250904 0.705577 0.493385
0.415793 0.710674 0.491234
0.563424 0.710628 0.470054
0.733516 0.70663 0.464271
0.897765 0.714672 0.47805
0.962966 0.695644 0.485069
0.963119 0.696056 0.487846
0.963272 0.697215 0.490623
0.130343 0.88191 0.511452
0.279561 0.8757 0.506432
0.434623 0.878843 0.499641
0.577005 0.877684 0.47602
0.736614 0.873762 0.467155
0.888548 0.867765 0.468589
0.962615 0.828824 0.475441
0.962768 0.82771 0.478477
0.962936 0.827619 0.481544
0.140078 0.948135 0.4851
0.290242 0.955139 0.484016
0.443656 0.96347 0.486519
0.57879 0.966049 0.478737
0.713359 0.965774 0.472755
0.846815 0.965713 0.471595
0.962783 0.96289 0.474296
0.962875 0.960861 0.476112
0.963027 0.959945 0.478813
0.141634 0.948135 0.485313
0.29366 0.955337 0.483604
0.445777 0.963561 0.485588
0.57969 0.966003 0.477913
0.712352 0.965728 0.471901
0.843061 0.965606 0.469551
0.962585 0.96585 0.470314
0.962585 0.96585 0.470314
0.962661 0.965927 0.471702
0.143282 0.94815 0.486076
0.297597 0.95555 0.484047
0.448142 0.963668 0.485176
0.581079 0.965972 0.477378
0.712077 0.965698 0.471336
0.841062 0.965545 0.468391
0.962463 0.965728 0.468101
0.962386 0.965652 0.466712
0.962402 0.965667 0.467002
0.0755322 0.0751507 0.678859
0.200626 0.0748302 0.522026
0.297826 0.0967269 0.406958
0.38381 0.12546 0.382055
0.51426 0.146319 0.435523
0.840513 0.132372 0.642969
0.941863 0.119448 0.680598
0.942046 0.123705 0.68545
0.942321 0.129107 0.68986
0.121889 0.210086 0.375677
0.249912 0.245869 0.469886
0.411872 0.251865 0.63714
0.585321 0.251987 0.670619
0.7514 0.261814 0.682017
0.906355 0.279652 0.690608
0.951034 0.288502 0.665003
0.951308 0.293156 0.666835
0.951614 0.29839 0.669276
0.0830243 0.394995 0.658747
0.246906 0.402701 0.65951
0.417594 0.406363 0.67042
0.583703 0.406455 0.672724
0.75198 0.416464 0.680156
0.908385 0.43238 0.685771
0.959854 0.438483 0.659968
0.960006 0.441108 0.66009
0.960189 0.444221 0.661036
0.0871748 0.552239 0.656016
0.243091 0.549661 0.651225
0.412009 0.556725 0.662409
0.572869 0.5523 0.675227
0.756466 0.555459 0.675883
0.911742 0.565728 0.672572
0.967163 0.570489 0.653178
0.967254 0.572229 0.652735
0.967361 0.574212 0.653391
0.102144 0.714641 0.66244
0.256519 0.705043 0.652796
0.419883 0.709178 0.654017
0.564736 0.714015 0.655879
0.742107 0.713924 0.653346
0.91223 0.717006 0.656092
0.972457 0.716472 0.658549
0.972503 0.717174 0.659312
0.972625 0.718654 0.661189
0.133379 0.880995 0.671992
0.280751 0.874632 0.665934
0.434623 0.877852 0.663859
0.574655 0.882506 0.653559
0.731426 0.884184 0.638041
0.897139 0.876478 0.633173
0.971786 0.841215 0.642832
0.972 0.840482 0.646586
0.972168 0.840909 0.649668
0.141512 0.948211 0.637903
0.290272 0.955139 0.632609
0.442649 0.963607 0.633677
0.581247 0.971222 0.632227
0.727214 0.975067 0.640345
0.855497 0.974746 0.633631
0.971572 0.970855 0.634348
0.97171 0.968185 0.637263
0.971893 0.967102 0.640604
0.142809 0.948211 0.636912
0.293141 0.955306 0.630396
0.444297 0.963699 0.630518
0.582483 0.971283 0.629328
0.726101 0.974899 0.637278
0.851179 0.974594 0.630838
0.971252 0.974655 0.628428
0.971237 0.97464 0.628092
0.971359 0.974746 0.630121
0.144213 0.948211 0.636744
0.296544 0.955489 0.629877
0.446433 0.963821 0.629023
0.583993 0.971359 0.627527
0.726207 0.974792 0.635309
0.849592 0.974502 0.62945
0.971115 0.974502 0.625727
0.970962 0.97435 0.623026
0.970977 0.97438 0.623362
0.0883803 0.0877546 0.813962
0.2056 0.0880751 0.59234
0.298192 0.113252 0.472541
0.390356 0.138628 0.461479
0.569528 0.1449 0.592386
0.884886 0.124651 0.811383
0.941939 0.120897 0.817411
0.942184 0.125978 0.820737
0.942443 0.131197 0.824079
0.133013 0.222965 0.469657
0.265843 0.261128 0.668605
0.434607 0.263554 0.819028
0.60029 0.26511 0.828656
0.757992 0.270115 0.830259
0.904997 0.283848 0.829511
0.951324 0.29189 0.801022
0.951598 0.296483 0.80206
0.951888 0.301366 0.803357
0.0952316 0.410163 0.818235
0.26128 0.418631 0.821378
0.429648 0.418296 0.830274
0.598688 0.420615 0.833036
0.759991 0.425437 0.832792
0.906233 0.434104 0.828214
0.959991 0.439536 0.796643
0.960113 0.441886 0.795819
0.960281 0.444724 0.796201
0.0999619 0.568902 0.817411
0.260868 0.570993 0.818479
0.430167 0.57554 0.827939
0.586496 0.564126 0.836011
0.75671 0.562692 0.835401
0.909438 0.566033 0.82797
0.967208 0.570184 0.793927
0.9673 0.571908 0.791501
0.967407 0.573892 0.79086
0.115206 0.727321 0.817411
0.272969 0.724773 0.814633
0.433036 0.726299 0.81912
0.578424 0.723033 0.826917
0.748959 0.720729 0.838376
0.914107 0.719463 0.830488
0.975525 0.722667 0.800961
0.97557 0.723598 0.798306
0.975662 0.725475 0.797665
0.135393 0.879637 0.812787
0.283879 0.873915 0.808911
0.437217 0.876646 0.811597
0.576593 0.880796 0.815091
0.734493 0.887419 0.82153
0.905821 0.887694 0.824292
0.981399 0.877409 0.821866
0.981369 0.876799 0.821485
0.981399 0.87715 0.82182
0.143175 0.948272 0.777173
0.291997 0.955245 0.770947
0.44332 0.963653 0.772717
0.581079 0.971344 0.774563
0.73611 0.979965 0.787655
0.882277 0.984436 0.809644
0.98088 0.980362 0.804562
0.981094 0.977493 0.808789
0.981231 0.976455 0.811612
0.144228 0.948272 0.775723
0.293812 0.955337 0.768261
0.444251 0.963714 0.76849
0.581308 0.971359 0.769284
0.735485 0.979919 0.782238
0.879179 0.984192 0.805173
0.980621 0.9841 0.799222
0.980545 0.984024 0.797787
0.980682 0.984161 0.800366
0.145357 0.948272 0.775021
0.296407 0.955489 0.766659
0.445899 0.963806 0.766064
0.582315 0.97142 0.766064
0.7364 0.979965 0.779156
0.877653 0.984039 0.802289
0.979294 0.983963 0.796628
0.980285 0.983764 0.792935
0.98027 0.983749 0.792645
0.0959945 0.0952468 0.855558
0.213855 0.10518 0.647791
0.306004 0.128939 0.542489
0.413779 0.152758 0.56878
0.654444 0.145418 0.802426
0.873808 0.118502 0.890501
0.942092 0.12343 0.893553
0.942336 0.128206 0.893812
0.94258 0.133211 0.894072
0.141558 0.241321 0.609766
0.277302 0.272663 0.858106
0.426001 0.269535 0.898024
0.578149 0.271672 0.898482
0.725978 0.27657 0.899229
0.868452 0.285008 0.900267
0.951629 0.295384 0.903563
0.951858 0.299367 0.903777
0.952132 0.303914 0.904021
0.10042 0.393591 0.889586
0.268803 0.41033 0.898222
0.434638 0.424018 0.906828
0.584298 0.427466 0.90811
0.729931 0.431617 0.9084
0.86891 0.43537 0.9084
0.960128 0.441016 0.911192
0.960235 0.442893 0.911299
0.960372 0.445472 0.911437
0.104784 0.542885 0.890623
0.269093 0.550378 0.899123
0.438041 0.563622 0.908904
0.591012 0.569894 0.915724
0.732525 0.568383 0.915618
0.870008 0.567758 0.915419
0.967285 0.571267 0.915267
0.967346 0.572244 0.913008
0.967437 0.573983 0.911498
0.117983 0.690959 0.892424
0.279835 0.693141 0.898634
0.441077 0.700557 0.905852
0.586618 0.703929 0.913939
0.750607 0.725383 0.921996
0.879911 0.722042 0.921859
0.97557 0.723003 0.918654
0.975586 0.723308 0.914549
0.975647 0.724544 0.912261
0.135531 0.837339 0.892668
0.287434 0.835401 0.896315
0.441337 0.840482 0.902647
0.581949 0.84419 0.909606
0.743114 0.856779 0.91928
0.906249 0.891142 0.929824
0.984543 0.887617 0.92726
0.984482 0.886961 0.922087
0.984497 0.887556 0.919905
0.144915 0.948333 0.895613
0.294591 0.955398 0.891981
0.445808 0.963821 0.894499
0.5832 0.971496 0.898817
0.737804 0.980117 0.906935
0.897642 0.988174 0.920867
0.98732 0.987411 0.925994
0.987167 0.984726 0.923781
0.987152 0.984436 0.92343
0.145724 0.948333 0.895613
0.295613 0.955459 0.889265
0.445319 0.96379 0.890333
0.581933 0.97142 0.89279
0.734462 0.979934 0.898939
0.893294 0.988556 0.912245
0.984833 0.990463 0.918181
0.986831 0.990341 0.915709
0.986923 0.990433 0.917418
0.146471 0.948333 0.895369
0.297688 0.955566 0.887297
0.44625 0.963836 0.887175
0.581918 0.97142 0.888655
0.734447 0.979934 0.894209
0.892393 0.988495 0.908156
0.983795 0.990356 0.91635
0.986725 0.990234 0.913542
0.986694 0.990219 0.913085
0.10338 0.10248 0.867582
0.223728 0.121294 0.694926
0.320211 0.144106 0.621897
0.455741 0.163149 0.718227
0.675792 0.135744 0.890837
0.884703 0.118105 0.890929
0.942214 0.125704 0.893675
0.942412 0.130022 0.893904
0.942657 0.134798 0.894163
0.145632 0.261494 0.794598
0.277363 0.272877 0.897017
0.427878 0.272038 0.898177
0.578714 0.274449 0.89865
0.725719 0.279118 0.899382
0.867872 0.287282 0.900389
0.951766 0.297658 0.903685
0.95198 0.30135 0.903883
0.952239 0.305623 0.904112
0.101778 0.394903 0.889601
0.272145 0.412009 0.898436
0.436225 0.42533 0.90695
0.58471 0.428992 0.908202
0.729076 0.433326 0.908492
0.867292 0.437018 0.908492
0.960189 0.442191 0.911254
0.960281 0.443839 0.911345
0.960418 0.446174 0.911467
0.106126 0.543297 0.890623
0.272831 0.5514 0.899367
0.440375 0.564309 0.909026
0.592081 0.570687 0.91577
0.731624 0.569619 0.915694
0.867521 0.569238 0.915602
0.967346 0.572259 0.918303
0.967391 0.573007 0.918349
0.967468 0.574502 0.918425
0.119234 0.691035 0.892424
0.283452 0.692424 0.900099
0.444312 0.698619 0.908705
0.589303 0.702831 0.916762
0.751171 0.726131 0.924132
0.875776 0.723323 0.924178
0.975647 0.72459 0.92697
0.975616 0.723964 0.92694
0.975647 0.72459 0.92697
0.136645 0.83682 0.892668
0.290578 0.831281 0.899916
0.444282 0.834012 0.908461
0.585443 0.837263 0.916396
0.747448 0.852262 0.925872
0.905928 0.891325 0.934569
0.98471 0.88957 0.937285
0.984573 0.887068 0.937133
0.984558 0.886763 0.937102
0.145892 0.948333 0.895613
0.297261 0.95555 0.902785
0.448264 0.963958 0.911406
0.586282 0.971679 0.919631
0.742061 0.980102 0.929076
0.903655 0.986465 0.938521
0.988098 0.987427 0.941222
0.988052 0.984833 0.941176
0.988037 0.984451 0.941161
0.146304 0.948333 0.895613
0.29778 0.955581 0.902815
0.447074 0.963897 0.91133
0.58352 0.971527 0.919463
0.736614 0.980056 0.928756
0.894911 0.988815 0.93817
0.985321 0.991653 0.941283
0.988159 0.991684 0.941314
0.988159 0.991684 0.941314
0.146883 0.948333 0.895613
0.299092 0.955642 0.902892
0.447318 0.963912 0.911345
0.582757 0.971481 0.919417
0.734798 0.97995 0.928649
0.891737 0.988632 0.937987
0.983536 0.991623 0.941253
0.988159 0.991684 0.941314
0.988159 0.991684 0.941314
0.113207 0.112291 0.873655
0.235111 0.136233 0.740887
0.338598 0.160449 0.711009
0.490242 0.163958 0.866529
0.712123 0.125078 0.890379
0.886198 0.120439 0.891112
0.942321 0.127977 0.893797
0.942519 0.132067 0.894011
0.942733 0.136614 0.894255
0.134997 0.254582 0.89012
0.277913 0.273198 0.897047
0.43006 0.27483 0.898344
0.579797 0.277211 0.898817
0.72575 0.281956 0.899565
0.867323 0.290135 0.900572
0.951904 0.299931 0.903807
0.952102 0.303349 0.90399
0.952346 0.307332 0.904204
0.103075 0.396704 0.889601
0.275212 0.413901 0.898619
0.438102 0.427161 0.907118
0.585672 0.430808 0.908309
0.728985 0.43505 0.908583
0.866438 0.438926 0.908598
0.960281 0.443839 0.911345
0.960357 0.445243 0.911421
0.960479 0.447349 0.911528
0.107393 0.544228 0.890639
0.276326 0.552651 0.89958
0.442756 0.565484 0.909148
0.593423 0.571725 0.915831
0.731716 0.570871 0.915755
0.866392 0.570718 0.915694
0.967422 0.573754 0.918395
0.967453 0.574258 0.91841
0.967529 0.575494 0.918486
0.1205 0.691386 0.892424
0.287098 0.692775 0.900298
0.446738 0.699016 0.908843
0.591363 0.703212 0.916884
0.75198 0.726757 0.924163
0.87483 0.72488 0.924269
0.975738 0.726162 0.927062
0.975692 0.725216 0.927016
0.975708 0.725536 0.927031
0.137804 0.836851 0.892668
0.293996 0.83125 0.900099
0.44715 0.833906 0.908614
0.588479 0.836912 0.916579
0.750591 0.852735 0.92607
0.906355 0.891646 0.9346
0.984787 0.890822 0.937362
0.984649 0.888319 0.937209
0.984588 0.887388 0.937148
0.146715 0.948333 0.895613
0.300389 0.955718 0.902953
0.450889 0.964111 0.911559
0.589303 0.971847 0.919814
0.746242 0.979294 0.929274
0.906203 0.98587 0.938598
0.988098 0.987427 0.941222
0.988052 0.985489 0.941192
0.988037 0.984451 0.941161
0.14696 0.948333 0.895613
0.300389 0.955718 0.902953
0.449454 0.964019 0.911482
0.586038 0.971664 0.919615
0.740246 0.980255 0.928985
0.898955 0.989029 0.938399
0.987808 0.991669 0.941314
0.988159 0.991684 0.941314
0.988159 0.991684 0.941314
0.147372 0.948333 0.895613
0.300923 0.955749 0.902983
0.448737 0.963989 0.911437
0.584268 0.971572 0.919509
0.736614 0.980056 0.928756
0.893462 0.988724 0.938079
0.984131 0.991638 0.941268
0.988159 0.991684 0.941314
0.988159 0.991684 0.941314
