public/sampleLut/27.cube
TITLE "Generated by Resolve"
LUT_3D_SIZE 5
0.0278477 0 0
0.324514 0 0
0.640208 0 0
0.962646 0 0
1 0 0
0.0628214 0.231449 0.00544747
0.250614 0.254444 0
0.567208 0.242832 0
0.910887 0.218341 0
1 0.198108 0
0.0976577 0.469581 0.0377356
0.279438 0.492515 0.0169833
0.484779 0.513222 0
0.764858 0.515221 0
1 0.480217 0
0.132494 0.707729 0.0700389
0.315206 0.730007 0.0529488
0.504997 0.752987 0.00881972
0.72311 0.77116 0
0.990662 0.77792 0
0.16733 0.945876 0.102327
0.349859 0.968078 0.0865644
0.539803 0.989807 0.0541238
0.738933 1 0
0.964233 1 0
0.0532387 0 0.204776
0.319341 0 0.260502
0.634897 0 0.244678
0.957717 0 0.226459
1 0 0.206912
0.0805066 0.230152 0.194751
0.269459 0.247257 0.210056
0.582177 0.231632 0.187411
0.904997 0.212604 0.169009
1 0.19237 0.149401
0.125277 0.464027 0.239948
0.30425 0.485405 0.242451
0.502815 0.506157 0.194705
0.829557 0.491859 0.118914
1 0.465721 0.0916762
0.162554 0.700771 0.278965
0.339086 0.723552 0.274754
0.529839 0.744533 0.247227
0.741146 0.764111 0.174365
1 0.763302 0.0728923
0.196674 0.938872 0.313726
0.373922 0.9617 0.307042
0.565942 0.981826 0.284215
0.759899 1 0.234714
0.9823 1 0.151324
0.0778515 0 0.440986
0.319127 0 0.55848
0.629725 0 0.543389
0.951797 0 0.526055
1 0 0.506889
0.207599 0.171283 0.448157
0.282689 0.227756 0.415625
0.576455 0.225956 0.487037
0.89897 0.206943 0.469276
1 0.186694 0.449805
0.133181 0.466911 0.41677
0.323125 0.483543 0.433845
0.520836 0.499107 0.43917
0.84625 0.480217 0.411917
1 0.459983 0.392325
0.178912 0.700404 0.462959
0.367376 0.717617 0.47863
0.554955 0.737133 0.474647
0.759213 0.757046 0.418769
1 0.739406 0.342428
0.222675 0.934691 0.507118
0.403754 0.954711 0.516793
0.589715 0.975296 0.507042
0.783764 0.995819 0.474571
1 1 0.395621
0.102831 0 0.677531
0.323262 0 0.857679
0.627543 0 0.841108
0.946853 0 0.824506
1 0 0.806119
0.191333 0.175906 0.588281
0.300923 0.211032 0.645487
0.575448 0.219043 0.784924
0.893584 0.201236 0.76817
1 0.181079 0.749523
0.320684 0.385046 0.765743
0.435019 0.411505 0.677638
0.526345 0.470939 0.653452
0.840375 0.47454 0.711788
1 0.454307 0.692668
0.18584 0.703685 0.638773
0.375799 0.720302 0.655879
0.575463 0.73434 0.67039
0.7785 0.749676 0.662745
1 0.727596 0.635233
0.231952 0.937026 0.685328
0.421332 0.953872 0.701915
0.618585 0.968856 0.714244
0.809384 0.988006 0.704616
1 1 0.639704
0.127825 0 0.914122
0.332265 0 1
0.62855 0 1
0.943893 0 1
1 0 1
0.177005 0.184817 0.741863
0.326162 0.201389 0.882399
0.579141 0.210636 1
0.890883 0.194842 1
1 0.175311 1
0.385977 0.349523 0.922057
0.422599 0.404776 0.813687
0.535058 0.44445 0.873564
0.838392 0.467933 1
1 0.448631 0.991775
0.397299 0.613825 1
0.556207 0.636133 1
0.667231 0.652277 0.898482
0.78088 0.719036 0.905211
1 0.72192 0.935317
0.238499 0.940459 0.860807
0.428458 0.957076 0.877897
0.628183 0.971099 0.892424
0.83151 0.984176 0.905882
1 0.998413 0.884031
