public/sampleLut/27.cube
TITLE "Generated by Resolve"
LUT_3D_SIZE 9
0.0278477 0 0
0.171054 0 0
0.324514 0 0
0.48127 0 0
0.640208 0 0
0.800763 0 0
0.962646 0 0
1 0 0
1 0 0
0.0454108 0.112367 0
0.136248 0.124498 0
0.285389 0.121324 0
0.45536 0.109606 0
0.614511 0.100694 0
0.775265 0.0913558 0
0.937346 0.0816663 0
1 0.0716716 0
1 0.0614328 0
0.0628214 0.231449 0.00544747
0.151507 0.243381 0
0.250614 0.254444 0
0.381491 0.258 0
0.567208 0.242832 0
0.746181 0.228702 0
0.910887 0.218341 0
1 0.208347 0
1 0.198108 0
0.0802319 0.350515 0.0215915
0.169268 0.362188 0.0144656
0.261677 0.374136 0
0.367025 0.383963 0
0.492195 0.389548 0
0.661158 0.380529 0
0.856992 0.362219 0
1 0.346975 0
1 0.334936 0
0.0976577 0.469581 0.0377356
0.186572 0.481239 0.0311894
0.279438 0.492515 0.0169833
0.375586 0.504219 0
0.484779 0.513222 0
0.607904 0.519509 0
0.764858 0.515221 0
0.953918 0.499184 0
1 0.480217 0
0.115068 0.588663 0.0538796
0.203861 0.60032 0.0476844
0.297597 0.611124 0.0355077
0.390997 0.622934 0.0145724
0.492042 0.633768 0
0.60354 0.642267 0
0.725872 0.648875 0
0.875715 0.647288 0
1 0.635309 0
0.132494 0.707729 0.0700389
0.221164 0.719402 0.0640421
0.315206 0.730007 0.0529488
0.409064 0.741283 0.0359503
0.504997 0.752987 0.00881972
0.610178 0.762921 0
0.72311 0.77116 0
0.845151 0.77792 0
0.990662 0.77792 0
0.14992 0.82681 0.0861677
0.238499 0.838483 0.080354
0.332616 0.848997 0.0699321
0.427359 0.8598 0.0550393
0.52163 0.871489 0.0328832
0.621134 0.882612 0.00108339
0.72961 0.891783 0
0.843381 0.899931 0
0.965408 0.906737 0
0.16733 0.945876 0.102327
0.255848 0.957565 0.0966049
0.349859 0.968078 0.0865644
0.445289 0.978531 0.0729839
0.539803 0.989807 0.0541238
0.636042 1 0.0270848
0.738933 1 0
0.85005 1 0
0.964233 1 0
0.0408179 0 0.0865339
0.168505 0 0.117922
0.321843 0 0.111192
0.478798 0 0.103273
0.637919 0 0.0946975
0.798672 0 0.0856947
0.960754 0 0.0763104
1 0 0.0666667
1 0 0.0567483
0.0541848 0.111757 0.0837415
0.146471 0.120821 0.0927138
0.295491 0.115053 0.0825818
0.45243 0.106737 0.0745556
0.611551 0.0978256 0.0659495
0.772305 0.0884871 0.0569162
0.934386 0.0787976 0.0475471
1 0.0688029 0.0378729
1 0.0585641 0.0279545
0.076585 0.228702 0.106355
0.163851 0.239887 0.108949
0.259571 0.250935 0.0888075
0.410925 0.247333 0.0509346
0.585046 0.234531 0.0371405
0.745876 0.225162 0.0280613
0.907958 0.215473 0.018677
1 0.205478 0.00901808
1 0.195239 0
0.0953078 0.347036 0.125933
0.181262 0.358968 0.125093
0.274464 0.369879 0.113542
0.376043 0.380438 0.081239
0.509667 0.383322 0.0314031
0.697581 0.367559 0.00660716
0.878508 0.352911 0
1 0.342168 0
1 0.331914 0
0.112367 0.466072 0.143343
0.198672 0.478035 0.141253
0.292332 0.488624 0.131487
0.386557 0.500252 0.110124
0.493797 0.509682 0.0724651
0.621561 0.514641 0.0192874
0.793042 0.50486 0
0.990311 0.486168 0
1 0.470603 0
0.129488 0.585168 0.160174
0.216098 0.597116 0.157397
0.309667 0.60766 0.148318
0.404105 0.618631 0.13257
0.501976 0.630014 0.102968
0.612558 0.638743 0.0626841
0.738079 0.644465 0.00851453
0.897444 0.639414 0
1 0.622782 0
0.14667 0.704265 0.176715
0.233509 0.716182 0.173541
0.32694 0.726741 0.164843
0.422309 0.737209 0.151354
0.516915 0.748837 0.128832
0.619623 0.759304 0.0942092
0.732128 0.767636 0.0521248
0.856748 0.773693 0
1 0.771405 0
0.163928 0.823362 0.193149
0.250935 0.835264 0.1897
0.344244 0.845823 0.181231
0.440009 0.856046 0.168933
0.534829 0.86717 0.150683
0.632059 0.878645 0.122087
0.73875 0.888243 0.0844892
0.852399 0.896391 0.0409247
0.976654 0.902602 0
0.181231 0.942443 0.209522
0.268345 0.95433 0.205844
0.361563 0.964904 0.197559
0.457435 0.975021 0.185992
0.553155 0.985641 0.170047
0.648371 0.997192 0.146563
0.749172 1 0.113558
0.859022 1 0.0740673
0.973266 1 0.0291447
0.0532387 0 0.204776
0.168643 0 0.266957
0.319341 0 0.260502
0.475837 0 0.25304
0.634897 0 0.244678
0.795651 0 0.235752
0.957717 0 0.226459
1 0 0.2168
1 0 0.206912
0.121233 0.0850843 0.214084
0.15697 0.116014 0.190677
0.292683 0.1122 0.232334
0.449424 0.103899 0.224674
0.608545 0.0949874 0.216159
0.769299 0.0856489 0.207156
0.93138 0.0759594 0.197787
1 0.0659648 0.188113
1 0.0557259 0.17821
0.0805066 0.230152 0.194751
0.173037 0.239109 0.203922
0.269459 0.247257 0.210056
0.423056 0.240543 0.196017
0.582177 0.231632 0.187411
0.742931 0.222293 0.178378
0.904997 0.212604 0.169009
1 0.202609 0.159335
1 0.19237 0.149401
0.10338 0.346899 0.217853
0.19527 0.356115 0.226398
0.286839 0.366323 0.226307
0.385031 0.376928 0.203449
0.539193 0.372625 0.164324
0.71632 0.359014 0.149645
0.878569 0.349279 0.140124
1 0.339284 0.130465
1 0.329046 0.120562
0.125277 0.464027 0.239948
0.213718 0.474556 0.245747
0.30425 0.485405 0.242451
0.399115 0.49601 0.229099
0.502815 0.506157 0.194705
0.639567 0.508217 0.143893
0.829557 0.491859 0.118914
1 0.476814 0.102892
1 0.465721 0.0916762
0.144915 0.58201 0.26038
0.230777 0.593606 0.263081
0.321675 0.604471 0.258595
0.417136 0.614679 0.247471
0.512688 0.626108 0.22414
0.621576 0.635218 0.184939
0.752224 0.639429 0.130648
0.926314 0.628824 0.095552
1 0.609796 0.0720531
0.162554 0.700771 0.278965
0.247913 0.712703 0.279881
0.339086 0.723552 0.274754
0.434516 0.733669 0.264439
0.529839 0.744533 0.247227
0.629404 0.755596 0.215961
0.741146 0.764111 0.174365
0.869291 0.769177 0.119036
1 0.763302 0.0728923
0.179629 0.819791 0.296574
0.265095 0.8318 0.296422
0.356512 0.842618 0.290898
0.451804 0.852735 0.281041
0.548135 0.863035 0.266453
0.643748 0.874525 0.242374
0.748089 0.884642 0.206455
0.861418 0.892866 0.163119
0.988495 0.898314 0.107301
0.196674 0.938872 0.313726
0.282368 0.950896 0.31284
0.373922 0.9617 0.307042
0.469093 0.971817 0.29749
0.565942 0.981826 0.284215
0.661418 0.992889 0.264744
0.759899 1 0.234714
0.868086 1 0.196124
0.9823 1 0.151324
0.0653849 0 0.322728
0.170855 0 0.416602
0.318441 0 0.409354
0.473457 0 0.402213
0.632059 0 0.394247
0.792676 0 0.385565
0.954711 0 0.376379
1 0 0.366842
1 0 0.35697
0.111833 0.0851148 0.282353
0.16527 0.106966 0.304341
0.292576 0.108629 0.381323
0.446815 0.10103 0.37406
0.60557 0.0921798 0.365972
0.766278 0.0828412 0.357153
0.928344 0.0731365 0.34786
1 0.0631418 0.338247
1 0.0528878 0.328374
0.175128 0.189471 0.370306
0.236637 0.208545 0.334188
0.278325 0.240772 0.306111
0.420172 0.237705 0.345876
0.579156 0.228809 0.337575
0.739925 0.219455 0.328588
0.901991 0.209751 0.319249
1 0.199771 0.309575
1 0.189517 0.299672
0.106844 0.348531 0.30576
0.199374 0.357488 0.314931
0.296773 0.365164 0.322835
0.394217 0.373358 0.32546
0.552789 0.365438 0.308873
0.713558 0.3561 0.29984
0.875624 0.34641 0.290471
1 0.336416 0.280797
1 0.326177 0.270863
0.1299 0.465202 0.32903
0.222171 0.474266 0.337972
0.318624 0.482307 0.344991
0.411627 0.492332 0.342672
0.511833 0.502617 0.31696
0.669535 0.497353 0.277104
0.84889 0.483146 0.261799
1 0.473091 0.251911
1 0.462852 0.242008
0.1523 0.582147 0.351629
0.243961 0.59144 0.359991
0.336507 0.600977 0.363745
0.429007 0.611414 0.358877
0.52488 0.621897 0.343725
0.630594 0.631678 0.307179
0.770916 0.632746 0.255802
0.962921 0.615778 0.230838
1 0.600443 0.214496
0.173983 0.699367 0.373541
0.263401 0.709499 0.38027
0.353552 0.720058 0.38088
0.446418 0.73048 0.375051
0.543038 0.740459 0.362707
0.639811 0.751736 0.337346
0.750164 0.760586 0.296574
0.88397 0.763958 0.241428
1 0.752468 0.20705
0.194018 0.817182 0.394278
0.28098 0.82829 0.398764
0.370703 0.839155 0.397559
0.463828 0.849561 0.391211
0.56054 0.859403 0.379919
0.656443 0.870253 0.361227
0.757671 0.880995 0.328298
0.870466 0.889342 0.285313
1 0.893675 0.229023
0.212375 0.935653 0.413657
0.298039 0.947311 0.416342
0.38793 0.958251 0.414038
0.481239 0.968627 0.407355
0.577813 0.978469 0.396582
0.674769 0.988693 0.380941
0.771344 1 0.355261
0.877272 1 0.318135
0.991363 1 0.273487
0.0778515 0 0.440986
0.176028 0 0.563195
0.319127 0 0.55848
0.472129 0 0.55108
0.629725 0 0.543389
0.789929 0 0.535012
0.951797 0 0.526055
1 0 0.51664
1 0 0.506889
0.103197 0.0888685 0.357778
0.174578 0.0988174 0.419471
0.294697 0.104326 0.530953
0.445701 0.0977646 0.522911
0.603082 0.0892805 0.515221
0.763409 0.0800183 0.506767
0.925353 0.0703288 0.497704
1 0.0603189 0.488197
1 0.0500649 0.478401
0.207599 0.171283 0.448157
0.229694 0.200183 0.399359
0.282689 0.227756 0.415625
0.419684 0.234241 0.494835
0.576455 0.225956 0.487037
0.736934 0.216648 0.478462
0.89897 0.206943 0.469276
1 0.196948 0.459678
1 0.186694 0.449805
0.212497 0.303639 0.51545
0.291783 0.315511 0.492241
0.354925 0.332937 0.450538
0.402258 0.365576 0.425879
0.549859 0.3626 0.458839
0.710536 0.353262 0.450019
0.872618 0.343557 0.440696
1 0.333577 0.431022
1 0.323323 0.421118
0.133181 0.466911 0.41677
0.225711 0.475883 0.42594
0.323125 0.483543 0.433845
0.422309 0.490745 0.441245
0.520836 0.499107 0.43917
0.684169 0.489906 0.421286
0.84625 0.480217 0.411917
1 0.470222 0.402243
1 0.459983 0.392325
0.156359 0.583535 0.440131
0.248707 0.592569 0.44918
0.345815 0.600351 0.456794
0.443534 0.608118 0.462898
0.537621 0.618051 0.45832
0.639612 0.628153 0.429404
0.801556 0.621637 0.38941
0.982559 0.607004 0.373648
1 0.596658 0.363439
0.178912 0.700404 0.462959
0.271061 0.709529 0.471733
0.367376 0.717617 0.47863
0.460899 0.727016 0.480964
0.554955 0.737133 0.474647
0.65156 0.747616 0.457527
0.759213 0.757046 0.418769
0.903487 0.756939 0.367285
1 0.739406 0.342428
0.201129 0.817426 0.485328
0.292668 0.82678 0.493584
0.386374 0.835843 0.498543
0.477989 0.846098 0.497871
0.57232 0.856214 0.490852
0.669749 0.866087 0.477348
0.767788 0.877195 0.449866
0.879515 0.885801 0.407477
1 0.888228 0.35169
0.222675 0.934691 0.507118
0.312566 0.944656 0.514229
0.403754 0.954711 0.516793
0.495186 0.965209 0.514427
0.589715 0.975296 0.507042
0.687388 0.984955 0.494804
0.783764 0.995819 0.474571
0.886717 1 0.440055
1 1 0.395621
0.0903334 0 0.559258
0.184619 0 0.696315
0.320882 0 0.707958
0.471977 0 0.699992
0.628199 0 0.692256
0.78764 0 0.684108
0.949126 0 0.67541
1 0 0.666209
1 0 0.656626
0.107744 0.0892805 0.444846
0.186938 0.0937667 0.537682
0.298497 0.097673 0.677317
0.446235 0.0939956 0.671992
0.601617 0.0861219 0.664088
0.760998 0.0771038 0.655955
0.922576 0.0674907 0.647196
1 0.0575113 0.637919
1 0.0472572 0.628244
0.211276 0.168841 0.521996
0.215198 0.203525 0.469612
0.288838 0.216388 0.527565
0.421607 0.229999 0.644388
0.575128 0.222751 0.63592
0.734356 0.213764 0.627771
0.896071 0.20412 0.618936
1 0.194141 0.609552
1 0.183886 0.599802
0.26424 0.276661 0.606378
0.320287 0.291325 0.565164
0.346487 0.317113 0.511116
0.403128 0.348867 0.532372
0.548928 0.359274 0.607797
0.707744 0.350423 0.599588
0.869612 0.340749 0.590616
1 0.330755 0.581094
1 0.3205 0.571252
0.204654 0.435386 0.609934
0.316838 0.435828 0.626795
0.410941 0.4421 0.609812
0.475181 0.458183 0.566186
0.528359 0.490684 0.549813
0.681193 0.487068 0.571359
0.843244 0.477363 0.562127
1 0.467384 0.552483
1 0.45713 0.542565
0.159503 0.585306 0.527779
0.252049 0.594263 0.53695
0.349462 0.601923 0.544869
0.448692 0.60911 0.552285
0.549035 0.616007 0.559304
0.648737 0.624598 0.551553
0.816861 0.614023 0.533364
0.980041 0.604028 0.523705
1 0.59379 0.513771
0.182773 0.7019 0.551171
0.275166 0.710918 0.560281
0.372366 0.718654 0.568032
0.471275 0.725963 0.575097
0.569284 0.733745 0.580148
0.664515 0.743587 0.573343
0.768338 0.753506 0.540887
0.934966 0.745556 0.50132
1 0.730587 0.485237
0.205447 0.818708 0.574182
0.297688 0.827787 0.583078
0.394675 0.83563 0.590524
0.49247 0.843366 0.596674
0.586389 0.852781 0.597589
0.681804 0.862654 0.589868
0.779034 0.873167 0.570565
0.88867 0.882246 0.529564
1 0.880873 0.478401
0.227848 0.935653 0.59678
0.31989 0.944808 0.605417
0.416083 0.952956 0.612222
0.510948 0.961776 0.616144
0.60354 0.971878 0.614267
0.699138 0.981735 0.606149
0.79707 0.991577 0.591409
0.896544 1 0.561791
1 1 0.517708
0.102831 0 0.677531
0.196048 0 0.82324
0.323262 0 0.857679
0.472801 0 0.849134
0.627543 0 0.841108
0.785962 0 0.833021
0.946853 0 0.824506
1 0 0.815534
1 0 0.806119
0.116213 0.088014 0.53782
0.199512 0.0888838 0.656077
0.304921 0.0897536 0.809354
0.447868 0.0898604 0.821424
0.601312 0.0826123 0.81297
0.759335 0.073991 0.804852
0.920211 0.0645609 0.796338
1 0.0546731 0.78732
1 0.0444495 0.777844
0.191333 0.175906 0.588281
0.217639 0.20473 0.554513
0.300923 0.211032 0.645487
0.424353 0.223148 0.791836
0.575448 0.219043 0.784924
0.732738 0.210651 0.776684
0.893584 0.201236 0.76817
1 0.191302 0.759075
1 0.181079 0.749523
0.296788 0.26041 0.685115
0.327932 0.284611 0.638224
0.328237 0.318288 0.577844
0.405737 0.333867 0.640711
0.550576 0.355138 0.757244
0.706188 0.347295 0.748501
0.866957 0.337896 0.739986
1 0.327947 0.7308
1 0.317693 0.721141
0.320684 0.385046 0.765743
0.378607 0.400351 0.726009
0.435019 0.411505 0.677638
0.463218 0.435248 0.621302
0.526345 0.470939 0.653452
0.67982 0.483879 0.720348
0.840375 0.47454 0.711788
1 0.464561 0.702449
1 0.454307 0.692668
0.198566 0.568032 0.683803
0.305562 0.570138 0.709651
0.424613 0.567834 0.732631
0.530022 0.569726 0.725109
0.59704 0.584268 0.68162
0.656413 0.616144 0.676356
0.81387 0.611185 0.683513
0.977035 0.60119 0.67393
1 0.590936 0.664042
0.18584 0.703685 0.638773
0.278386 0.712642 0.647974
0.375799 0.720302 0.655879
0.475044 0.727489 0.663294
0.575463 0.73434 0.67039
0.676631 0.741039 0.677073
0.7785 0.749676 0.662745
0.950652 0.737835 0.645151
1 0.727596 0.635233
0.209171 0.820264 0.662211
0.301595 0.829267 0.671351
0.398856 0.836988 0.679164
0.497856 0.844251 0.686397
0.59791 0.851255 0.693065
0.695644 0.859266 0.696773
0.79202 0.868986 0.687739
0.898207 0.878584 0.651545
1 0.869169 0.612863
0.231952 0.937026 0.685328
0.324239 0.94609 0.694316
0.421332 0.953872 0.701915
0.520088 0.961257 0.708797
0.618585 0.968856 0.714244
0.712734 0.978363 0.713726
0.809384 0.988006 0.704616
0.907286 0.998566 0.682918
1 1 0.639704
0.115328 0 0.795834
0.208576 0 0.947326
0.326558 0 1
0.474296 0 0.99852
0.62771 0 0.990066
0.784985 0 0.981857
0.945083 0 0.973419
1 0 0.964614
1 0 0.955383
0.125994 0.0859693 0.635386
0.212039 0.0839704 0.774441
0.314702 0.0819409 0.935119
0.450172 0.0854963 0.971115
0.601999 0.0787976 0.962081
0.758556 0.070634 0.953689
0.918441 0.0614939 0.945266
1 0.0517433 0.936461
1 0.0415808 0.927184
0.179263 0.181903 0.661173
0.225345 0.203937 0.645808
0.313573 0.206241 0.763989
0.428351 0.213596 0.924437
0.576928 0.214954 0.93431
0.73225 0.207202 0.925536
0.891814 0.198154 0.917082
1 0.188403 0.908278
1 0.178225 0.89897
0.30695 0.255573 0.760266
0.30782 0.289799 0.703929
0.330053 0.319692 0.66215
0.417075 0.327749 0.75787
0.552712 0.348943 0.90547
0.706264 0.343664 0.897459
0.865171 0.334813 0.88893
1 0.325063 0.880095
1 0.31487 0.870726
0.354177 0.364721 0.843214
0.409506 0.380209 0.801999
0.443229 0.401312 0.748913
0.441444 0.433127 0.684535
0.525124 0.452018 0.75787
0.681102 0.47985 0.869673
0.838575 0.471473 0.860746
1 0.461723 0.851896
1 0.451499 0.84242
0.372808 0.49482 0.922194
0.436988 0.510704 0.887312
0.495979 0.523888 0.841459
0.550759 0.531838 0.788556
0.580301 0.554513 0.730861
0.652308 0.594263 0.778088
0.81207 0.608103 0.832578
0.974121 0.598367 0.823682
1 0.588113 0.814038
0.207767 0.694789 0.767651
0.306432 0.700511 0.786633
0.415045 0.702464 0.809613
0.533761 0.700038 0.835111
0.648493 0.698329 0.838361
0.720256 0.711131 0.797086
0.786603 0.743099 0.801862
0.947662 0.734997 0.795361
1 0.724743 0.785489
0.212177 0.822065 0.749798
0.304707 0.831037 0.758968
0.402136 0.838697 0.766888
0.501381 0.845869 0.774304
0.601831 0.85272 0.781415
0.70312 0.859358 0.788235
0.804852 0.865919 0.794553
0.909987 0.874281 0.773404
1 0.861402 0.75668
0.235554 0.938628 0.773266
0.327993 0.947616 0.782391
0.425284 0.955322 0.790234
0.524361 0.96257 0.797543
0.624552 0.969512 0.804425
0.725414 0.976333 0.810742
0.822599 0.98468 0.812802
0.919936 0.994339 0.80148
1 1 0.761532
0.127825 0 0.914122
0.221256 0 1
0.332265 0 1
0.476356 0 1
0.62855 0 1
0.78471 0 1
0.943893 0 1
1 0 1
1 0 1
0.136782 0.0831159 0.738613
0.224567 0.0790417 0.89279
0.326192 0.074815 1
0.453056 0.0805982 1
0.603403 0.0747387 1
0.758602 0.0670176 1
0.917357 0.0582284 1
1 0.0486915 1
1 0.0386511 1
0.177005 0.184817 0.741863
0.234775 0.202289 0.741756
0.326162 0.201389 0.882399
0.436011 0.204135 1
0.579141 0.210636 1
0.732784 0.203433 1
0.890883 0.194842 1
1 0.185351 1
1 0.175311 1
0.292195 0.259907 0.829404
0.292927 0.296086 0.774319
0.337636 0.319036 0.753185
0.429755 0.322972 0.876356
0.554772 0.338216 1
0.707546 0.339651 1
0.864515 0.331426 1
1 0.322026 1
1 0.311986 1
0.385977 0.349523 0.922057
0.421973 0.372457 0.876356
0.422599 0.404776 0.813687
0.44332 0.434501 0.768902
0.535058 0.44445 0.873564
0.683238 0.474708 1
0.838392 0.467933 1
0.998734 0.458686 1
1 0.448631 0.991775
0.410025 0.472465 1
0.467414 0.487266 0.96173
0.524086 0.499977 0.914183
0.55819 0.518303 0.857572
0.554742 0.548012 0.790188
0.647135 0.571298 0.878538
0.812955 0.604212 0.981765
0.972091 0.595346 0.972717
1 0.58529 0.963561
0.397299 0.613825 1
0.485405 0.623056 1
0.556207 0.636133 1
0.61474 0.647608 0.955566
0.667231 0.652277 0.898482
0.697963 0.674983 0.840269
0.78088 0.719036 0.905211
0.945495 0.732006 0.944533
1 0.72192 0.935317
0.22536 0.817807 0.862013
0.320439 0.825299 0.876036
0.422141 0.830503 0.891524
0.529198 0.833371 0.910903
0.645045 0.832044 0.935699
0.765896 0.828016 0.949218
0.844617 0.838697 0.912627
0.919402 0.868498 0.916472
1 0.858549 0.90692
0.238499 0.940459 0.860807
0.331044 0.949416 0.869993
0.428458 0.957076 0.877897
0.527718 0.964248 0.885328
0.628183 0.971099 0.892424
0.729519 0.977722 0.899275
0.83151 0.984176 0.905882
0.933028 0.990875 0.911345
1 0.998413 0.884031
