public/sampleLut/27.cube
TITLE "Generated by Resolve"
LUT_3D_SIZE 33
0.0278477 0 0
0.0602579 0 0
0.0964675 0 0
0.133501 0 0
0.171054 0 0
0.209003 0 0
0.247257 0 0
0.285771 0 0
0.324514 0 0
0.363455 0 0
0.402579 0 0
0.441855 0 0
0.48127 0 0
0.520836 0 0
0.56051 0 0
0.600305 0 0
0.640208 0 0
0.680201 0 0
0.720302 0 0
0.760494 0 0
0.800763 0 0
0.841123 0 0
0.881559 0 0
0.922057 0 0
0.962646 0 0
1 0 0
1 0 0
1 0 0
1 0 0
1 0 0
1 0 0
1 0 0
1 0 0
0.0323644 0.0230564 0
0.0534066 0.0264134 0
0.0849012 0.0272984 0
0.126864 0.0245365 0
0.164614 0.022858 0
0.202609 0.0211032 0
0.240909 0.0192721 0
0.279469 0.01738 0
0.318273 0.0154116 0
0.357259 0.0133974 0
0.396414 0.0113375 0
0.435752 0.00923171 0
0.475212 0.00709545 0
0.514809 0.00491341 0
0.554543 0.00270085 0
0.594385 0.000457771 0
0.634333 0 0
0.674388 0 0
0.714534 0 0
0.754772 0 0
0.795087 0 0
0.835492 0 0
0.875975 0 0
0.916533 0 0
0.957168 0 0
0.997848 0 0
1 0 0
1 0 0
1 0 0
1 0 0
1 0 0
1 0 0
1 0 0
0.0366979 0.0528267 0
0.0577249 0.0560464 0
0.0804913 0.0592203 0
0.108858 0.0612345 0
0.149859 0.059144 0
0.194202 0.0557565 0
0.234226 0.0534676 0
0.272862 0.051545 0
0.31165 0.0495918 0
0.350652 0.0475776 0
0.389807 0.0455177 0
0.429129 0.0434119 0
0.468605 0.0412604 0
0.508202 0.0390936 0
0.547936 0.0368658 0
0.587777 0.034638 0
0.627726 0.0323644 0
0.667781 0.0300603 0
0.707927 0.0277409 0
0.748165 0.025391 0
0.788479 0.0230259 0
0.828885 0.0206302 0
0.869368 0.0182193 0
0.909926 0.0157778 0
0.950561 0.0133211 0
0.991257 0.0108492 0
1 0.00836194 0
1 0.00585946 0
1 0.00334173 0
1 0.000793469 0
1 0 0
1 0 0
1 0 0
0.0410468 0.0825971 0
0.0620737 0.0858015 0
0.0840467 0.0889601 0
0.108186 0.0918898 0
0.13579 0.0941482 0
0.171984 0.0938582 0
0.216953 0.0904097 0
0.262318 0.0867475 0
0.304173 0.0839704 0
0.343999 0.0817578 0
0.3832 0.0796826 0
0.422522 0.0775769 0
0.461997 0.0754406 0
0.501595 0.0732586 0
0.541329 0.071046 0
0.58117 0.0688029 0
0.621118 0.0665293 0
0.661173 0.0642252 0
0.70132 0.0619059 0
0.741558 0.059556 0
0.781872 0.0571908 0
0.822278 0.0547951 0
0.86276 0.0523842 0
0.903334 0.0499428 0
0.943954 0.0475013 0
0.984649 0.0450294 0
1 0.0425269 0
1 0.0400244 0
1 0.0375067 0
1 0.0349737 0
1 0.0324102 0
1 0.0298466 0
1 0.0272679 0
0.0454108 0.112367 0
0.066392 0.115572 0
0.0886244 0.118578 0
0.111055 0.121798 0
0.136248 0.124498 0
0.163531 0.126848 0
0.19733 0.127428 0
0.23859 0.125322 0
0.285389 0.121324 0
0.33135 0.11751 0
0.37438 0.114427 0
0.415457 0.111864 0
0.45536 0.109606 0
0.494987 0.107424 0
0.534722 0.105211 0
0.574563 0.102968 0
0.614511 0.100694 0
0.654551 0.0984054 0
0.694713 0.0960708 0
0.734951 0.0937209 0
0.775265 0.0913558 0
0.815671 0.0889601 0
0.856153 0.0865492 0
0.896712 0.084123 0
0.937346 0.0816663 0
0.978042 0.0791943 0
1 0.0767071 0
1 0.0741894 0
1 0.0716716 0
1 0.0691386 0
1 0.0665751 0
1 0.0640116 0
1 0.0614328 0
0.0497597 0.142138 0
0.0707256 0.145342 0
0.0930648 0.148272 0
0.115343 0.1514 0
0.138643 0.154498 0
0.164569 0.157031 0
0.19173 0.159442 0
0.224155 0.160479 0
0.262715 0.159442 0
0.307134 0.156222 0
0.354803 0.15198 0
0.401144 0.148058 0
0.444999 0.144762 0
0.487037 0.141939 0
0.52784 0.139437 0
0.567941 0.137148 0
0.607889 0.134874 0
0.647944 0.13257 0
0.68809 0.130251 0
0.728328 0.127901 0
0.768658 0.125521 0
0.809064 0.123125 0
0.849546 0.120714 0
0.890105 0.118288 0
0.930739 0.115831 0
0.971435 0.113359 0
1 0.110872 0
1 0.10837 0
1 0.105837 0
1 0.103304 0
1 0.100755 0
1 0.0981765 0
1 0.0955978 0
0.0541085 0.171908 0
0.0750591 0.175113 0
0.0974289 0.178012 0
0.119936 0.181003 0
0.142458 0.184192 0
0.166644 0.187121 0
0.193103 0.189532 0
0.220218 0.191959 0
0.251835 0.193256 0
0.288502 0.19295 0
0.330419 0.190661 0
0.376898 0.186786 0
0.424979 0.182422 0
0.471611 0.178439 0
0.51606 0.174975 0
0.558862 0.171954 0
0.600458 0.169238 0
0.641184 0.166781 0
0.681483 0.164416 0
0.721721 0.162066 0
0.762051 0.159701 0
0.802457 0.157305 0
0.842924 0.154894 0
0.883497 0.152453 0
0.924132 0.149996 0
0.964828 0.147524 0
1 0.145037 0
1 0.142535 0
1 0.140017 0
1 0.137469 0
1 0.13492 0
1 0.132342 0
1 0.129763 0
0.0584726 0.201678 0.00140383
0.0793927 0.204883 0.000610361
0.101747 0.207782 0
0.124437 0.210681 0
0.146914 0.213779 0
0.170016 0.216907 0
0.194934 0.219684 0
0.22179 0.222004 0
0.248936 0.22443 0
0.279988 0.225895 0
0.315358 0.226062 0
0.355367 0.224552 0
0.399741 0.221363 0
0.447501 0.217121 0
0.495827 0.212696 0
0.542641 0.208667 0
0.587564 0.205081 0
0.630976 0.201892 0
0.673213 0.199008 0
0.714595 0.196353 0
0.755352 0.193881 0
0.795834 0.19147 0
0.836316 0.189059 0
0.876875 0.186633 0
0.91751 0.184176 0
0.958206 0.181704 0
0.998978 0.179217 0
1 0.176699 0
1 0.174182 0
1 0.171633 0
1 0.169085 0
1 0.166522 0
1 0.163943 0
0.0628214 0.231449 0.00544747
0.0837415 0.234653 0.00466926
0.106065 0.237552 0.0028687
0.128847 0.240391 0.000320439
0.151507 0.243381 0
0.174166 0.246525 0
0.19794 0.249546 0
0.223453 0.252186 0
0.250614 0.254444 0
0.277806 0.256855 0
0.308446 0.258457 0
0.342901 0.25893 0
0.381491 0.258 0
0.424018 0.255528 0
0.470268 0.251728 0
0.518746 0.247288 0
0.567208 0.242832 0
0.614176 0.238743 0
0.65948 0.235065 0
0.70338 0.231739 0
0.746181 0.228702 0
0.788113 0.22591 0
0.829374 0.223301 0
0.870222 0.220813 0
0.910887 0.218341 0
0.951583 0.215869 0
0.99237 0.213382 0
1 0.21088 0
1 0.208347 0
1 0.205814 0
1 0.20325 0
1 0.200687 0
1 0.198108 0
0.0671702 0.261204 0.00947585
0.0880903 0.264424 0.0087129
0.110399 0.267323 0.00698863
0.133211 0.27013 0.00459297
0.156039 0.27303 0.00138857
0.178683 0.276112 0
0.20177 0.279225 0
0.226169 0.282124 0
0.252171 0.284657 0
0.279561 0.286854 0
0.306813 0.289265 0
0.337133 0.290959 0
0.370977 0.291646 0
0.408377 0.291142 0
0.449454 0.289281 0
0.494026 0.286061 0
0.541634 0.28188 0
0.590539 0.277317 0
0.639078 0.272831 0
0.686168 0.268711 0
0.731762 0.264958 0
0.776074 0.261524 0
0.819333 0.258366 0
0.861769 0.255436 0
0.903532 0.252689 0
0.944778 0.25008 0
0.985733 0.247562 0
1 0.245045 0
1 0.242527 0
1 0.239994 0
1 0.23743 0
1 0.234852 0
1 0.232288 0
0.0715343 0.290974 0.0135195
0.0924239 0.294179 0.0127718
0.114717 0.297093 0.0110781
0.137545 0.299886 0.00880446
0.16051 0.302724 0.00582895
0.183276 0.305715 0.00196841
0.206058 0.308827 0
0.229679 0.311864 0
0.254627 0.314641 0
0.281071 0.317082 0
0.308629 0.319249 0
0.335943 0.321645 0
0.366003 0.323415 0
0.39939 0.324254 0
0.435904 0.324086 0
0.475837 0.322683 0
0.518929 0.320043 0
0.565148 0.316289 0
0.613626 0.311849 0
0.662776 0.30721 0
0.711376 0.302708 0
0.758572 0.298573 0
0.80441 0.294743 0
0.849073 0.291218 0
0.892729 0.287968 0
0.935592 0.284916 0
0.977798 0.282048 0
1 0.279332 0
1 0.276722 0
1 0.274159 0
1 0.271595 0
1 0.269032 0
1 0.266453 0
0.0758831 0.320745 0.0175479
0.0967727 0.323949 0.0168154
0.119051 0.326863 0.0151675
0.141863 0.329656 0.0129549
0.164904 0.332448 0.010193
0.187839 0.335348 0.00666819
0.210605 0.338399 0.00207523
0.233738 0.341497 0
0.257862 0.344457 0
0.283299 0.347127 0
0.310109 0.349462 0
0.337789 0.351614 0
0.365164 0.354009 0
0.395026 0.35584 0
0.428077 0.356771 0
0.46389 0.356878 0
0.5028 0.355871 0
0.544717 0.353719 0
0.589548 0.350423 0
0.637049 0.346288 0
0.686107 0.341695 0
0.735439 0.337011 0
0.784024 0.332509 0
0.831342 0.328328 0
0.877379 0.324453 0
0.922362 0.320851 0
0.966369 0.317494 0
1 0.314336 0
1 0.31136 0
1 0.308553 0
1 0.305837 0
1 0.303227 0
1 0.300618 0
0.0802319 0.350515 0.0215915
0.101137 0.353719 0.0208591
0.123369 0.356634 0.0192569
0.146181 0.359426 0.0171054
0.169268 0.362188 0.0144656
0.192325 0.365026 0.0111849
0.215198 0.368002 0.00706493
0.238117 0.371099 0.00177005
0.261677 0.374136 0
0.28629 0.376989 0
0.312154 0.379568 0
0.339269 0.381826 0
0.367025 0.383963 0
0.394476 0.386358 0
0.424201 0.38822 0
0.456977 0.389258 0
0.492195 0.389548 0
0.530297 0.388861 0
0.571298 0.387091 0
0.614878 0.384298 0
0.661158 0.380529 0
0.70959 0.37612 0
0.759045 0.371405 0
0.808454 0.366705 0
0.856992 0.362219 0
0.904463 0.358007 0
0.950668 0.35407 0
0.995895 0.350408 0
1 0.346975 0
1 0.343725 0
1 0.340658 0
1 0.337743 0
1 0.334936 0
0.084596 0.380285 0.0256352
0.105486 0.38349 0.0249027
0.127718 0.386404 0.023331
0.1505 0.389197 0.0212406
0.173617 0.391943 0.0187076
0.19678 0.394736 0.0155947
0.219776 0.397635 0.0118105
0.242664 0.400671 0.00706493
0.265873 0.403754 0.00109865
0.289845 0.406714 0
0.3149 0.409476 0
0.341146 0.411963 0
0.368551 0.41416 0
0.396368 0.416297 0
0.423865 0.418677 0
0.453483 0.420584 0
0.48603 0.421683 0
0.520821 0.422126 0
0.558267 0.421698 0
0.598337 0.420294 0
0.640955 0.417899 0
0.686061 0.414542 0
0.733562 0.410407 0
0.78262 0.405814 0
0.832334 0.401038 0
0.881788 0.396307 0
0.930297 0.391836 0
0.977859 0.387594 0
1 0.383612 0
1 0.379889 0
1 0.376379 0
1 0.373068 0
1 0.369894 0
0.0889448 0.410056 0.0296635
0.109834 0.41326 0.0289464
0.132052 0.416175 0.0273899
0.154818 0.418967 0.0253605
0.17792 0.421714 0.0228733
0.20116 0.42446 0.0199283
0.224308 0.427298 0.0163882
0.247272 0.430274 0.0120699
0.270283 0.433341 0.00669871
0.293828 0.436377 0.000137331
0.318242 0.439261 0
0.343709 0.441932 0
0.37026 0.444343 0
0.397925 0.446479 0
0.425772 0.448615 0
0.45333 0.450996 0
0.482856 0.452934 0
0.515221 0.454078 0
0.549676 0.454643 0
0.586511 0.454429 0
0.625849 0.453315 0
0.667689 0.451255 0
0.711742 0.44831 0
0.758129 0.444526 0
0.806546 0.440131 0
0.856092 0.435401 0
0.905959 0.430579 0
0.955444 0.425834 0
1 0.421378 0
1 0.41709 0
1 0.413092 0
1 0.409308 0
1 0.405737 0
0.0933089 0.439826 0.0336919
0.114183 0.44303 0.03299
0.136385 0.445945 0.0314488
0.159152 0.448737 0.0294652
0.182239 0.451469 0.0270542
0.205524 0.4542 0.0242313
0.228779 0.456992 0.0208438
0.25185 0.459892 0.016846
0.274846 0.462913 0.0119631
0.2981 0.46598 0.0059968
0.322011 0.468956 0
0.346822 0.471763 0
0.372656 0.474342 0
0.399512 0.476692 0
0.427359 0.478782 0
0.455238 0.480919 0
0.482872 0.483299 0
0.512337 0.485237 0
0.544518 0.486458 0
0.578714 0.487098 0
0.615045 0.487068 0
0.653742 0.486198 0
0.69482 0.484459 0
0.738033 0.481865 0
0.783413 0.478416 0
0.830945 0.474296 0
0.880018 0.469703 0
0.929915 0.464881 0
0.979873 0.460029 0
1 0.455299 0
1 0.450813 0
1 0.446525 0
1 0.442496 0
0.0976577 0.469581 0.0377356
0.118532 0.472801 0.0370336
0.140734 0.475715 0.0355077
0.16347 0.478508 0.0335546
0.186572 0.481239 0.0311894
0.209888 0.48394 0.0284733
0.233204 0.486702 0.0252384
0.256397 0.489555 0.0214694
0.279438 0.492515 0.0169833
0.302556 0.495567 0.0115358
0.326116 0.498573 0.00503548
0.350408 0.501488 0
0.375586 0.504219 0
0.401755 0.506737 0
0.428885 0.50901 0
0.456886 0.51107 0
0.484779 0.513222 0
0.512474 0.515572 0
0.541909 0.51754 0
0.573938 0.518791 0
0.607904 0.519509 0
0.643824 0.519631 0
0.682017 0.518975 0
0.722347 0.51751 0
0.764858 0.515221 0
0.809354 0.512123 0
0.855909 0.508293 0
0.904311 0.503914 0
0.953918 0.499184 0
1 0.494285 0
1 0.489418 0
1 0.484688 0
1 0.480217 0
0.102022 0.499352 0.0417639
0.122881 0.502571 0.0410773
0.145068 0.505486 0.0395666
0.167803 0.508278 0.037644
0.19089 0.511009 0.0353399
0.214221 0.513695 0.0327001
0.237583 0.516426 0.0295872
0.260884 0.519219 0.0260014
0.284031 0.522133 0.0217899
0.307134 0.525139 0.0167849
0.330434 0.528176 0.0108186
0.35433 0.531151 0.00384527
0.378973 0.533989 0
0.404501 0.53666 0
0.430976 0.539086 0
0.458335 0.541314 0
0.486473 0.543343 0
0.514382 0.545495 0
0.542138 0.547845 0
0.571557 0.549828 0
0.603449 0.551125 0
0.637247 0.551888 0
0.672816 0.552132 0
0.71046 0.551659 0
0.75024 0.550439 0
0.792096 0.548409 0
0.835813 0.545663 0
0.881514 0.542123 0
0.929091 0.537972 0
0.978195 0.533394 0
1 0.528542 0
1 0.523629 0
1 0.518746 0
0.106371 0.529122 0.0458076
0.127245 0.532341 0.0451057
0.149416 0.535256 0.0436255
0.172137 0.538048 0.0417182
0.195209 0.54078 0.0394598
0.218524 0.543465 0.0368353
0.241962 0.546166 0.033875
0.265354 0.548928 0.0304265
0.288594 0.551781 0.0264744
0.311727 0.554742 0.0218204
0.33492 0.557763 0.0163119
0.358511 0.560769 0.00984207
0.382727 0.563699 0.0024567
0.407706 0.566461 0
0.43357 0.569055 0
0.460288 0.571435 0
0.487892 0.573587 0
0.516121 0.575601 0
0.544045 0.577768 0
0.571862 0.580102 0
0.601267 0.582086 0
0.633036 0.583429 0
0.666712 0.584237 0
0.701961 0.584588 0
0.739208 0.584268 0
0.778408 0.583246 0
0.819654 0.581491 0
0.862684 0.579019 0
0.907652 0.575769 0
0.954391 0.571893 0
1 0.567498 0
1 0.562768 0
1 0.557839 0
0.110719 0.558892 0.0498512
0.131594 0.562112 0.0491493
0.153765 0.565026 0.0476692
0.176455 0.567819 0.0458076
0.199527 0.57055 0.0435798
0.222843 0.573236 0.041001
0.246311 0.575906 0.0381323
0.269764 0.578637 0.0348211
0.293111 0.581445 0.0310369
0.31632 0.584344 0.0266575
0.339498 0.587335 0.0215457
0.362875 0.590372 0.0155642
0.386755 0.593332 0.00865187
0.411292 0.596201 0.000915541
0.436606 0.598901 0
0.462745 0.601419 0
0.489708 0.603738 0
0.51754 0.605844 0
0.54583 0.607843 0
0.573754 0.610025 0
0.601648 0.61236 0
0.631037 0.614343 0
0.662715 0.615717 0
0.696239 0.616571 0
0.731258 0.616983 0
0.768109 0.616815 0
0.806912 0.615976 0
0.847562 0.614435 0
0.890105 0.612177 0
0.934279 0.609262 0
0.98024 0.605646 0
1 0.60148 0
1 0.596887 0
0.115068 0.588663 0.0538796
0.135943 0.591882 0.0531777
0.158099 0.594797 0.0517281
0.180789 0.597589 0.0498817
0.203861 0.60032 0.0476844
0.227161 0.603006 0.0451667
0.25066 0.605661 0.0423743
0.274144 0.608362 0.0391546
0.297597 0.611124 0.0355077
0.320882 0.613993 0.0313726
0.344091 0.616938 0.026566
0.367376 0.619944 0.0210117
0.390997 0.622934 0.0145724
0.415167 0.625864 0.00727855
0.440009 0.628672 0
0.465629 0.631312 0
0.492042 0.633768 0
0.519249 0.636027 0
0.54725 0.638086 0
0.57557 0.640085 0
0.60354 0.642267 0
0.631464 0.644602 0
0.660868 0.646586 0
0.69247 0.647974 0
0.725872 0.648875 0
0.760708 0.649363 0
0.797192 0.649317 0
0.835554 0.64863 0
0.875715 0.647288 0
0.917708 0.645258 0
0.961257 0.642603 0
1 0.639231 0
1 0.635309 0
0.119432 0.618433 0.0579232
0.140291 0.621637 0.0572366
0.162448 0.624567 0.055787
0.185138 0.627359 0.0539406
0.208179 0.630091 0.0517891
0.231479 0.632761 0.0493019
0.254978 0.635416 0.0465705
0.278523 0.638102 0.0434424
0.302037 0.640833 0.0399329
0.325414 0.643641 0.0359808
0.348699 0.64654 0.0314641
0.371954 0.649531 0.0262455
0.395377 0.652537 0.0202335
0.419272 0.655497 0.0133822
0.443732 0.658366 0.00575265
0.468879 0.661112 0
0.494774 0.663691 0
0.521447 0.666087 0
0.548852 0.668299 0
0.577035 0.670314 0
0.605386 0.672312 0
0.633356 0.67451 0
0.661357 0.676829 0
0.690761 0.678813 0
0.722286 0.680232 0
0.755596 0.681163 0
0.790265 0.681697 0
0.826474 0.681758 0
0.864454 0.681208 0
0.904128 0.680049 0
0.945586 0.678248 0
0.988724 0.675776 0
1 0.672709 0
0.123781 0.648203 0.0619669
0.14464 0.651408 0.061265
0.166796 0.654322 0.0598306
0.189471 0.65713 0.0579995
0.212512 0.659861 0.0558785
0.235798 0.662531 0.0534371
0.259281 0.665202 0.050721
0.282887 0.667842 0.047715
0.306432 0.670542 0.0443122
0.329915 0.67332 0.0405127
0.353262 0.676173 0.0362097
0.376516 0.679133 0.0312505
0.399893 0.682109 0.0256657
0.423575 0.6851 0.0192264
0.4477 0.688029 0.0120089
0.47245 0.690837 0.00407416
0.497887 0.693523 0
0.524041 0.69604 0
0.550942 0.698375 0
0.578546 0.700542 0
0.606867 0.702541 0
0.635248 0.70454 0
0.663233 0.706737 0
0.691295 0.709041 0
0.720714 0.711025 0
0.752178 0.712474 0
0.785382 0.71342 0
0.819913 0.714015 0
0.855863 0.714153 0
0.893507 0.713741 0
0.932815 0.712734 0
0.97377 0.711116 0
1 0.708858 0
0.128145 0.677974 0.0659953
0.149004 0.681178 0.0653086
0.171145 0.684092 0.0638743
0.193805 0.6869 0.0620737
0.216831 0.689632 0.0599527
0.240131 0.692302 0.057557
0.263615 0.694957 0.0548867
0.287236 0.697597 0.051957
0.310826 0.700282 0.0486458
0.334386 0.703014 0.0449683
0.357809 0.705821 0.0408637
0.38114 0.708721 0.0362097
0.404471 0.711696 0.0308995
0.42797 0.714687 0.0248569
0.451881 0.717647 0.0180362
0.47628 0.720516 0.0104829
0.501305 0.723278 0.00228885
0.527016 0.725902 0
0.553414 0.728374 0
0.580514 0.730663 0
0.608331 0.732784 0
0.636744 0.734737 0
0.665141 0.736751 0
0.693141 0.738964 0
0.721263 0.741253 0
0.750713 0.743236 0
0.782116 0.744701 0
0.815229 0.745678 0
0.849638 0.746303 0
0.88539 0.746517 0
0.922698 0.746227 0
0.9617 0.745357 0
1 0.743908 0
0.132494 0.707729 0.0700389
0.153353 0.710948 0.0693523
0.175494 0.713863 0.0679332
0.198138 0.71667 0.0661326
0.221164 0.719402 0.0640421
0.24445 0.722072 0.061677
0.267933 0.724727 0.0590372
0.291569 0.727352 0.0561837
0.315206 0.730007 0.0529488
0.338827 0.732708 0.0493782
0.362325 0.7355 0.0454261
0.385718 0.738354 0.0409857
0.409064 0.741283 0.0359503
0.432486 0.744259 0.0302586
0.456199 0.747234 0.0238346
0.480323 0.750164 0.0166629
0.504997 0.752987 0.00881972
0.530297 0.755703 0.000381476
0.556252 0.758267 0
0.582895 0.760678 0
0.610178 0.762921 0
0.638178 0.764996 0
0.666682 0.766934 0
0.695079 0.768963 0
0.72311 0.77116 0
0.751278 0.773449 0
0.780758 0.775433 0
0.812131 0.776898 0
0.845151 0.77792 0
0.879469 0.778576 0
0.915007 0.778851 0
0.952041 0.778668 0
0.990662 0.77792 0
0.136858 0.737499 0.0740673
0.157702 0.740719 0.0733806
0.179843 0.743633 0.0719615
0.202487 0.746441 0.0701915
0.225498 0.749172 0.0681315
0.248768 0.751842 0.0657816
0.272251 0.754498 0.0631876
0.295872 0.757122 0.0603342
0.31957 0.759747 0.0572213
0.343221 0.762432 0.0537423
0.366812 0.765179 0.0499123
0.39028 0.767987 0.045655
0.413672 0.770886 0.0408789
0.437064 0.773846 0.0354925
0.460624 0.776822 0.0294194
0.48455 0.779767 0.0226291
0.508919 0.78265 0.0151522
0.533852 0.785428 0.00703441
0.559396 0.788083 0
0.585595 0.7906 0
0.612451 0.792966 0
0.639933 0.795163 0
0.668086 0.797192 0
0.696666 0.79913 0
0.725063 0.80116 0
0.753109 0.803372 0
0.781338 0.805646 0
0.810834 0.80763 0
0.842176 0.80911 0
0.87512 0.810147 0
0.909361 0.810819 0
0.944747 0.81117 0
0.981537 0.811063 0
0.141207 0.767269 0.0780957
0.162066 0.770489 0.0774243
0.184192 0.773404 0.0760052
0.206836 0.776211 0.0742504
0.229831 0.778943 0.0722057
0.253101 0.781613 0.0698863
0.27657 0.784253 0.0673228
0.300191 0.786877 0.0644999
0.323919 0.789502 0.0614786
0.347616 0.792157 0.0580911
0.371283 0.794873 0.0543526
0.394812 0.79765 0.0502632
0.41825 0.800519 0.0457008
0.441688 0.803418 0.0406195
0.465156 0.806409 0.0348211
0.488869 0.809369 0.0283818
0.513024 0.812284 0.0212558
0.537652 0.815122 0.013489
0.562844 0.817853 0.00514229
0.588632 0.820462 0
0.615045 0.822919 0
0.6421 0.825223 0
0.669764 0.82739 0
0.698054 0.829389 0
0.72668 0.831312 0
0.755093 0.833341 0
0.783154 0.835569 0
0.81146 0.837827 0
0.840986 0.839796 0
0.872267 0.841291 0
0.90518 0.842344 0
0.939315 0.843061 0
0.974563 0.843442 0
0.145556 0.79704 0.0821393
0.166415 0.800259 0.0814679
0.18854 0.803174 0.0800488
0.21117 0.805982 0.0783093
0.234165 0.808713 0.0762646
0.25742 0.811383 0.0739757
0.280888 0.814023 0.071458
0.304509 0.816648 0.0686809
0.328267 0.819257 0.0657054
