public/sampleLut/28.cube
TITLE "Generated by Resolve"
LUT_3D_SIZE 5
0.071046 0.112947 0.114229
0.312596 0.117891 0.109743
0.591836 0.122713 0.0951858
0.817609 0.130388 0.102739
0.831144 0.131029 0.103304
0.0664988 0.252201 0.116869
0.178973 0.247242 0.113664
0.493965 0.199725 0.136202
0.813962 0.129793 0.102251
0.829496 0.13138 0.103639
0.0666972 0.463859 0.11989
0.0538643 0.466209 0.12166
0.475959 0.47303 0.0934462
0.776181 0.41416 0.0991989
0.83534 0.356237 0.0995956
0.0800793 0.653635 0.120394
0.0706035 0.655406 0.118135
0.0548409 0.651896 0.116304
0.702022 0.675395 0.0881819
0.852186 0.616907 0.102266
0.0609598 0.769024 0.129885
0.0815747 0.766155 0.121813
0.0781262 0.766629 0.123201
0.489097 0.816159 0.101915
0.834134 0.833906 0.10277
0.0694743 0.11783 0.272709
0.313436 0.124437 0.260182
0.606256 0.12694 0.245121
0.829084 0.129351 0.223423
0.836896 0.12781 0.174273
0.0681621 0.262623 0.284337
0.164279 0.248615 0.27895
0.583185 0.167926 0.236362
0.822187 0.128267 0.203357
0.833829 0.127504 0.151827
0.0759136 0.462043 0.18613
0.072694 0.459358 0.191806
0.495796 0.464454 0.130297
0.755291 0.421851 0.163287
0.844709 0.374395 0.227558
0.0783398 0.65391 0.121004
0.0761425 0.652079 0.125811
0.0615091 0.647669 0.127703
0.699626 0.675502 0.0932784
0.843503 0.619806 0.101579
0.0660868 0.767803 0.131518
0.0781872 0.766613 0.123095
0.0779278 0.766323 0.124895
0.480415 0.814755 0.107607
0.842283 0.8309 0.110246
0.0718242 0.135332 0.497185
0.214511 0.129427 0.494759
0.617517 0.136538 0.473304
0.836683 0.143084 0.473014
0.853208 0.143191 0.463111
0.0719768 0.26836 0.515007
0.132677 0.257252 0.514046
0.601129 0.164401 0.473701
0.832853 0.142657 0.469535
0.853758 0.142885 0.460258
0.0735485 0.498833 0.536767
0.0714275 0.495521 0.535058
0.365362 0.48452 0.527901
0.780163 0.443854 0.511894
0.842832 0.315755 0.474281
0.0681773 0.714015 0.517784
0.0608835 0.713588 0.511849
0.0608835 0.70457 0.507073
0.653315 0.710079 0.389197
0.853376 0.670069 0.514336
0.067277 0.795041 0.383383
0.0628977 0.793988 0.377737
0.0596323 0.792432 0.367163
0.398337 0.816846 0.302693
0.863767 0.836576 0.237095
0.0724193 0.151522 0.710063
0.121202 0.150988 0.710292
0.58117 0.151019 0.688624
0.836347 0.156985 0.688991
0.858595 0.157717 0.685985
0.0714885 0.26305 0.720714
0.0714427 0.247166 0.716762
0.56492 0.150698 0.687282
0.833295 0.156313 0.686412
0.859113 0.15761 0.684001
0.0738689 0.497765 0.748852
0.0722057 0.493706 0.748516
0.290288 0.482048 0.761563
0.765225 0.443976 0.736751
0.84329 0.314031 0.70547
0.0676127 0.708232 0.752163
0.0615549 0.707332 0.747906
0.0639963 0.697063 0.747341
0.618402 0.702052 0.758953
0.850172 0.668818 0.746502
0.0674907 0.827802 0.730129
0.0635691 0.828061 0.726757
0.059678 0.828428 0.721614
0.237888 0.849699 0.730037
0.858824 0.864256 0.698695
0.0724193 0.156924 0.81207
0.0738842 0.156756 0.812009
0.536324 0.155062 0.791959
0.824125 0.159594 0.786465
0.857725 0.160693 0.787762
0.0726787 0.230732 0.818952
0.0710918 0.212924 0.817258
0.512093 0.155215 0.793774
0.820249 0.159045 0.78587
0.858381 0.160754 0.787717
0.0733349 0.493095 0.859892
0.0726024 0.489204 0.859709
0.253132 0.480232 0.878096
0.739925 0.434485 0.859388
0.843137 0.293217 0.824323
0.0658122 0.706783 0.881956
0.0621958 0.705547 0.880568
0.0654307 0.694774 0.881727
0.527108 0.696956 0.906752
0.838911 0.662593 0.895582
0.0581979 0.826429 0.884382
0.061326 0.8262 0.885908
0.0608682 0.826215 0.885695
0.196078 0.840314 0.898802
0.816892 0.872694 0.908217
