public/sampleLut/28.cube
TITLE "Generated by Resolve"
LUT_3D_SIZE 17
0.071046 0.112947 0.114229
0.0827192 0.112383 0.113863
0.139635 0.112993 0.113329
0.225666 0.11574 0.11284
0.312596 0.117891 0.109743
0.391165 0.119615 0.106981
0.463371 0.120821 0.102388
0.530083 0.121447 0.0960708
0.591836 0.122713 0.0951858
0.647761 0.125078 0.0979477
0.704097 0.127001 0.100084
0.761471 0.12871 0.101503
0.817609 0.130388 0.102739
0.831052 0.13106 0.103319
0.83064 0.131136 0.10341
0.830671 0.131136 0.10341
0.831144 0.131029 0.103304
0.0641337 0.120592 0.11574
0.06981 0.11957 0.115358
0.125826 0.116289 0.115389
0.219135 0.115679 0.113161
0.309117 0.117952 0.109987
0.389441 0.119615 0.107134
0.462638 0.120851 0.10248
0.529625 0.121492 0.0961013
0.591516 0.122713 0.0951858
0.647517 0.125063 0.0979171
0.703883 0.12697 0.100069
0.761608 0.128664 0.101457
0.818311 0.130236 0.102632
0.831937 0.130877 0.103151
0.831586 0.130953 0.103212
0.831235 0.131014 0.103273
0.830854 0.13109 0.103365
0.0614023 0.147585 0.117983
0.0614939 0.146944 0.117876
0.0846265 0.143877 0.117006
0.178241 0.14107 0.127398
0.26949 0.136019 0.121141
0.370153 0.119387 0.108186
0.453696 0.120928 0.103304
0.526085 0.121462 0.0965591
0.589609 0.122667 0.0951247
0.646082 0.125002 0.0978714
0.702541 0.12697 0.100069
0.760342 0.128664 0.101472
0.817288 0.130251 0.102632
0.831968 0.130877 0.103136
0.831769 0.130892 0.103182
0.830472 0.131182 0.103441
0.828199 0.13167 0.103883
0.0562295 0.196567 0.119631
0.0543374 0.196841 0.120394
0.0545968 0.194308 0.120424
0.114534 0.188495 0.116655
0.252995 0.181353 0.123293
0.312047 0.180102 0.143069
0.389639 0.165194 0.129854
0.486931 0.126146 0.102235
0.574228 0.122316 0.0946517
0.641566 0.124697 0.0975052
0.700572 0.126741 0.099855
0.758862 0.128496 0.101289
0.816022 0.130129 0.102525
0.83241 0.13077 0.103059
0.832197 0.130816 0.10309
0.831022 0.13106 0.103319
0.82884 0.131548 0.103761
0.0664988 0.252201 0.116869
0.0641489 0.252811 0.117418
0.0628977 0.251698 0.117662
0.079057 0.248783 0.116548
0.178973 0.247242 0.113664
0.342733 0.234455 0.110292
0.395544 0.229694 0.12842
0.43772 0.222095 0.149813
0.493965 0.199725 0.136202
0.57847 0.152163 0.0964523
0.671534 0.125689 0.0986496
0.749981 0.128054 0.100938
0.813962 0.129793 0.102251
0.833494 0.130526 0.102846
0.83331 0.130571 0.102892
0.831937 0.130877 0.103151
0.829496 0.13138 0.103639
0.0658579 0.307988 0.117433
0.0635843 0.308766 0.117906
0.0626383 0.30811 0.118196
0.0625467 0.305867 0.118303
0.122286 0.30312 0.112413
0.301167 0.302708 0.105638
0.403189 0.289738 0.100999
0.487434 0.276478 0.0937057
0.52668 0.270054 0.108354
0.560327 0.261646 0.137804
0.59736 0.236378 0.132418
0.651652 0.188083 0.0970169
0.754009 0.128099 0.100954
0.833494 0.130526 0.102876
0.833494 0.130526 0.102876
0.832593 0.130709 0.103029
0.830884 0.131075 0.103365
0.0676738 0.360571 0.117433
0.0646677 0.361593 0.117845
0.0634623 0.361303 0.118334
0.0628061 0.359808 0.118654
0.0612802 0.357504 0.119158
0.221637 0.359335 0.109224
0.361578 0.358694 0.0961776
0.459998 0.345205 0.0939345
0.548608 0.330709 0.0943465
0.608637 0.319188 0.0950637
0.635645 0.311238 0.095552
0.658228 0.301976 0.123278
0.683574 0.279164 0.123751
0.721859 0.228077 0.0987564
0.817395 0.12987 0.102327
0.832685 0.130709 0.103014
0.831174 0.131014 0.103304
0.0675212 0.412772 0.118639
0.0644846 0.413962 0.119097
0.0628061 0.414099 0.119402
0.0613107 0.413382 0.1196
0.0586099 0.412268 0.119936
0.0756695 0.410376 0.116503
0.304814 0.417456 0.0973678
0.421195 0.415839 0.0935073
0.514336 0.40116 0.0934615
0.595972 0.386999 0.0943313
0.665751 0.37406 0.0967575
0.712093 0.362951 0.0981613
0.734813 0.353475 0.0985733
0.752056 0.340749 0.101579
0.774823 0.317586 0.108248
0.799512 0.269581 0.0995041
0.833646 0.169558 0.102586
0.0666972 0.463859 0.11989
0.063447 0.465217 0.120439
0.0607309 0.46598 0.120897
0.0583963 0.465995 0.121172
0.0538643 0.466209 0.12166
0.0493324 0.4654 0.121782
0.147723 0.465629 0.106355
0.368338 0.475212 0.0938888
0.475959 0.47303 0.0934462
0.566201 0.456764 0.0936141
0.643336 0.443336 0.0950027
0.714473 0.428183 0.0975052
0.776181 0.41416 0.0991989
0.815503 0.402975 0.0999619
0.833997 0.393011 0.100099
0.840223 0.379568 0.0999008
0.83534 0.356237 0.0995956
0.0660716 0.513298 0.120531
0.0621805 0.514885 0.121096
0.059205 0.515831 0.121538
0.0571908 0.515831 0.121904
0.0540627 0.515679 0.122332
0.0505531 0.514916 0.122805
0.0466316 0.513558 0.123049
0.265446 0.521157 0.100328
0.430915 0.531548 0.094377
0.5308 0.529885 0.0944228
0.617365 0.511513 0.09514
0.693858 0.496483 0.0969558
0.767559 0.480293 0.0990463
0.831296 0.465507 0.100465
0.843931 0.451026 0.100999
0.841947 0.438468 0.100649
0.838514 0.426871 0.100252
0.0683452 0.561105 0.119051
0.0649119 0.562478 0.118715
0.0616922 0.563531 0.118456
0.0587015 0.563958 0.118379
0.054078 0.564599 0.118257
0.0506752 0.56408 0.118395
0.0463111 0.563348 0.118914
0.0420233 0.561822 0.119997
0.340475 0.581201 0.0909438
0.473426 0.590723 0.0901198
0.572183 0.58883 0.0909895
0.664012 0.566018 0.094255
0.749126 0.546044 0.0983444
0.82063 0.529961 0.10071
0.846632 0.515007 0.101427
0.845731 0.500359 0.101259
0.844999 0.485252 0.101137
0.0784009 0.60592 0.120241
0.0784009 0.605875 0.120241
0.0764324 0.606394 0.119799
0.0724041 0.60737 0.119081
0.0665141 0.608576 0.117617
0.0629129 0.608301 0.116793
0.0561532 0.608682 0.115724
0.0438697 0.610544 0.113756
0.150546 0.620737 0.0805829
0.386511 0.643427 0.07187
0.513466 0.64892 0.0726482
0.622232 0.641733 0.079942
0.707515 0.618677 0.0875563
0.813748 0.589502 0.102068
0.850507 0.5785 0.102129
0.849561 0.566232 0.101808
0.848539 0.551949 0.101518
0.0800793 0.653635 0.120394
0.0800793 0.653605 0.120378
0.0786145 0.653941 0.120043
0.0753948 0.654612 0.11931
0.0706035 0.655406 0.118135
0.067689 0.655055 0.117266
0.0663005 0.65359 0.117479
0.0638743 0.651759 0.117845
0.0548409 0.651896 0.116304
0.330953 0.670695 0.0841688
0.507073 0.688365 0.0784619
0.61677 0.688914 0.0812085
0.702022 0.675395 0.0881819
0.778851 0.656565 0.0946059
0.844373 0.642283 0.0988479
0.849729 0.62977 0.101274
0.852186 0.616907 0.102266
0.082414 0.699992 0.12256
0.0826123 0.699886 0.122591
0.0811933 0.700267 0.122347
0.0780346 0.700999 0.12195
0.0732891 0.701869 0.12105
0.0701915 0.701732 0.120394
0.0684062 0.700603 0.120272
0.0678721 0.698405 0.120638
0.0655833 0.696071 0.12105
0.0622721 0.693782 0.1205
0.452461 0.724102 0.0933242
0.5897 0.732021 0.0906844
0.677668 0.734142 0.090013
0.7505 0.72221 0.0910811
0.819074 0.706127 0.0935836
0.843595 0.693049 0.0974746
0.851072 0.679835 0.100984
0.0816663 0.746731 0.122484
0.0829023 0.746258 0.122484
0.0818647 0.746471 0.122744
0.0794232 0.746975 0.123156
0.0756085 0.747677 0.123629
0.0729381 0.74757 0.123857
0.0712596 0.74667 0.123888
0.0704204 0.744991 0.123766
0.0690776 0.742947 0.123537
0.0666056 0.740887 0.123354
0.236637 0.749798 0.0991989
0.523003 0.778332 0.0940414
0.62948 0.784207 0.0903944
0.702403 0.788357 0.0872358
0.771252 0.780194 0.0856489
0.816007 0.76466 0.0869612
0.829358 0.749294 0.0919509
0.072221 0.767391 0.125429
0.0787366 0.766537 0.122881
0.0809491 0.766247 0.122087
0.0798047 0.76643 0.122683
0.07776 0.766705 0.123568
0.0764782 0.766903 0.124147
0.0750591 0.767086 0.124727
0.0735943 0.767269 0.125261
0.071397 0.767544 0.126101
0.069749 0.767758 0.126711
0.0676585 0.768048 0.127565
0.392309 0.802197 0.102693
0.58436 0.826505 0.100908
0.676005 0.83212 0.100023
0.753628 0.833173 0.0988174
0.823484 0.821454 0.0979934
0.829282 0.810407 0.0978103
0.0609598 0.769024 0.129885
0.0679179 0.767956 0.127062
0.0749981 0.767025 0.124315
0.0795758 0.766415 0.12256
0.0815747 0.766155 0.121813
0.0816815 0.766155 0.121828
0.0810864 0.766232 0.122057
0.0798962 0.7664 0.122499
0.0781262 0.766629 0.123201
0.0770428 0.766781 0.123629
0.0748913 0.767071 0.124529
0.0695811 0.767758 0.12668
0.489097 0.816159 0.101915
0.628672 0.831647 0.100771
0.719295 0.838926 0.101488
0.799847 0.838514 0.101991
0.834134 0.833906 0.10277
0.071107 0.112535 0.123476
0.0803998 0.112474 0.122698
0.133577 0.113787 0.121355
0.221927 0.116396 0.118746
0.311116 0.118273 0.112688
0.391684 0.119478 0.106813
0.465126 0.120424 0.101762
0.532296 0.120882 0.0951705
0.593774 0.122225 0.094728
0.648554 0.124834 0.0977493
0.704265 0.126955 0.100038
0.760647 0.128832 0.101625
0.815091 0.130739 0.103105
0.827985 0.131731 0.103929
0.826459 0.132052 0.104204
0.825986 0.132113 0.104463
0.826246 0.132021 0.104585
0.070985 0.118318 0.122988
0.075349 0.1178 0.12253
0.127123 0.115267 0.121355
0.215244 0.116701 0.119295
0.304189 0.119036 0.113588
0.38555 0.12047 0.108537
0.460716 0.121309 0.103197
0.530053 0.121386 0.0959335
0.592996 0.122316 0.0948196
0.64831 0.124834 0.0977188
0.704036 0.126925 0.100038
0.760845 0.128801 0.101564
0.815961 0.130602 0.102953
0.82916 0.131456 0.103716
0.827863 0.131746 0.103944
0.827085 0.13193 0.104082
0.826566 0.132036 0.104158
0.0589914 0.148516 0.121355
0.0590219 0.14789 0.121096
0.0815442 0.144854 0.11957
0.170047 0.142138 0.1337
0.268498 0.135302 0.124926
0.367071 0.12079 0.110292
0.449516 0.122301 0.105394
0.522667 0.122438 0.0981003
0.588281 0.123064 0.0954452
0.646235 0.124971 0.0978256
0.702785 0.126894 0.100023
0.759945 0.128725 0.101503
0.815473 0.130541 0.102892
0.829618 0.131365 0.103624
0.828489 0.131609 0.103838
0.826963 0.131945 0.104097
0.82533 0.132311 0.104387
0.05449 0.197223 0.120287
0.0529488 0.197375 0.120882
0.0529641 0.194949 0.12108
0.111177 0.189242 0.117433
0.241672 0.183352 0.133928
0.303273 0.181521 0.149371
0.385946 0.165499 0.134005
0.485924 0.124926 0.103807
0.572259 0.12343 0.0957809
0.641108 0.125048 0.0978103
0.700526 0.126802 0.0998703
0.758267 0.128542 0.101366
0.814221 0.130358 0.102754
0.830167 0.131243 0.103502
0.82919 0.131441 0.1037
0.827848 0.131746 0.103944
0.826139 0.132143 0.10425
0.0644846 0.252979 0.117327
0.0626078 0.253391 0.117723
0.0614328 0.252277 0.117906
0.0776226 0.249332 0.116716
0.171023 0.248035 0.114
0.335988 0.235828 0.111208
0.385992 0.232303 0.138888
0.429984 0.224002 0.156649
0.489952 0.200748 0.141039
0.578424 0.151278 0.0976883
0.673854 0.125963 0.0989395
0.750729 0.128145 0.10103
0.813001 0.129992 0.102373
0.832227 0.130816 0.10309
0.831617 0.130938 0.103197
0.830213 0.131243 0.103487
0.828061 0.131701 0.103883
0.0646372 0.308461 0.117693
0.0629129 0.308995 0.118013
0.0618143 0.308339 0.119188
0.060914 0.306218 0.121508
0.116442 0.303731 0.117845
0.292149 0.304067 0.112169
0.395773 0.291371 0.106508
0.479713 0.278111 0.095552
0.519234 0.272755 0.118868
0.553735 0.26392 0.145937
0.592523 0.237949 0.138781
0.652262 0.187549 0.0979019
0.757794 0.128252 0.101061
0.833494 0.130526 0.102846
0.833494 0.130526 0.102846
0.832944 0.130648 0.102953
0.831815 0.130892 0.103166
0.070573 0.359228 0.117693
0.0687877 0.359869 0.117983
0.067155 0.359655 0.119188
0.0648661 0.358633 0.121523
0.0611734 0.357 0.124102
0.213931 0.359136 0.115343
0.359686 0.358724 0.0999619
0.459876 0.344961 0.0956588
0.545068 0.331548 0.0950637
0.614008 0.317891 0.0959029
0.635325 0.311574 0.100359
0.65655 0.302968 0.129076
0.68304 0.27982 0.128893
0.72311 0.227649 0.0989242
0.821042 0.129946 0.102388
0.833005 0.130632 0.102953
0.832029 0.130846 0.103136
0.0712596 0.411048 0.118624
0.0695354 0.411673 0.118929
0.0686961 0.411337 0.120165
0.0678264 0.410132 0.122454
0.0657511 0.408484 0.124895
0.0831006 0.406363 0.121324
0.321279 0.413703 0.10016
0.438453 0.409537 0.0955367
0.531334 0.395438 0.0947738
0.60827 0.38323 0.0958724
0.672404 0.37232 0.0975967
0.713832 0.362432 0.098436
0.733944 0.353658 0.0986954
0.751842 0.341131 0.107561
0.774975 0.317891 0.112703
0.800839 0.269368 0.0996262
0.834424 0.16791 0.102495
0.0711986 0.46183 0.119814
0.0693523 0.462562 0.120089
0.0684215 0.462348 0.121416
0.0684215 0.461021 0.123674
0.0674144 0.459251 0.127138
0.0654612 0.457252 0.12842
0.18294 0.458579 0.114641
0.396414 0.468071 0.0985428
0.500923 0.462562 0.0961776
0.586664 0.449317 0.0956283
0.657832 0.438376 0.0970016
0.72343 0.425345 0.0986343
0.779675 0.41323 0.0996262
0.815351 0.40293 0.100114
0.832929 0.39324 0.100221
0.841443 0.379599 0.100145
0.838712 0.355734 0.0999313
0.071046 0.511086 0.120302
0.0689403 0.511925 0.120607
0.0675212 0.512139 0.120912
0.0668345 0.511559 0.121096
0.0657816 0.510506 0.121355
0.0637522 0.509194 0.121645
0.0607004 0.507546 0.121981
0.29604 0.516655 0.0987564
0.453498 0.526101 0.0957656
0.548989 0.521126 0.0958877
0.631205 0.50602 0.0965438
0.702342 0.493278 0.0980392
0.770367 0.479301 0.0994736
0.831357 0.465461 0.100557
0.843198 0.451301 0.100969
0.842771 0.438514 0.100786
0.84094 0.426612 0.100496
0.072694 0.559228 0.119509
0.0710155 0.559884 0.119387
0.0689555 0.560449 0.119265
0.0665446 0.560739 0.119203
0.0630655 0.560937 0.119112
0.0606851 0.560006 0.119112
0.0579232 0.558526 0.119783
0.0546883 0.55642 0.121035
0.369497 0.577249 0.0942702
0.495338 0.585077 0.0935073
0.587976 0.581949 0.0935378
0.67216 0.562371 0.0957046
0.749645 0.545769 0.0984665
0.817212 0.531243 0.100343
0.84271 0.516396 0.101061
0.843976 0.500999 0.101106
0.844495 0.485542 0.101106
0.0784009 0.60592 0.120272
0.0784009 0.605859 0.120241
0.0771038 0.606119 0.119936
0.074403 0.606622 0.119432
0.0704967 0.607065 0.118654
0.0680552 0.606378 0.118029
0.063508 0.605783 0.117525
0.0547189 0.606195 0.116503
0.185672 0.615579 0.0867475
0.419303 0.638025 0.080354
0.536583 0.642573 0.0801251
0.63682 0.634836 0.0850385
0.72224 0.611856 0.0924086
0.797513 0.596216 0.0975357
0.841489 0.582238 0.100008
0.8439 0.568505 0.10074
0.845716 0.553063 0.101106
0.078584 0.654215 0.12015
0.0798657 0.653651 0.120455
0.078584 0.653941 0.120058
0.0753948 0.654612 0.11931
0.0706035 0.655406 0.118135
0.067689 0.655055 0.117266
0.0663615 0.653559 0.117494
0.0636301 0.65185 0.117815
0.0534218 0.652399 0.116503
0.323507 0.671305 0.0838941
0.498863 0.690013 0.0784772
0.607935 0.690791 0.0803388
0.694438 0.679438 0.0858167
0.769635 0.660655 0.0909895
0.833677 0.646677 0.0945602
0.839063 0.634043 0.0971237
0.843381 0.620523 0.0990921
0.0763256 0.702342 0.121569
0.0796063 0.70106 0.122133
0.0801251 0.700648 0.12221
0.0778668 0.700999 0.121874
0.073228 0.701869 0.121035
0.0701915 0.701717 0.120394
0.0684062 0.700603 0.120272
0.0670787 0.69865 0.120485
0.0631571 0.696956 0.120516
0.0580606 0.695415 0.11957
0.441428 0.72549 0.0910353
0.580774 0.734417 0.088365
0.669627 0.736629 0.0869459
0.742107 0.726604 0.0873121
0.808652 0.710704 0.0886854
0.831647 0.698116 0.0919509
0.838209 0.685191 0.0950484
0.0732433 0.749828 0.123613
0.0760662 0.748806 0.123354
0.0776684 0.748012 0.123201
0.0775464 0.747662 0.123217
0.0750896 0.747814 0.123507
0.0729076 0.747539 0.123766
0.0715496 0.746441 0.124071
0.0703441 0.744732 0.124605
0.0679026 0.742855 0.125231
0.0640269 0.741131 0.125582
0.225452 0.750332 0.100008
0.515663 0.778988 0.0954299
0.627207 0.784634 0.0913405
0.704143 0.787717 0.0882124
0.772915 0.779355 0.0862898
0.815564 0.764904 0.0868086
0.824994 0.751232 0.0900893
0.0666514 0.768154 0.127657
0.0718242 0.767452 0.125658
0.0742962 0.767147 0.124773
0.075639 0.766979 0.124269
0.0758526 0.766949 0.124193
0.0758373 0.766964 0.124224
0.0751202 0.76701 0.124849
0.0738079 0.767086 0.125994
0.071519 0.767239 0.127901
0.0689708 0.767483 0.129564
0.065919 0.767956 0.130785
0.384085 0.801968 0.104616
0.579614 0.826886 0.102083
0.674983 0.832242 0.100343
0.75433 0.832929 0.0989242
0.824674 0.820813 0.0982681
0.829602 0.810254 0.0979324
0.0598306 0.769192 0.130266
0.064683 0.76846 0.128389
0.0699779 0.767681 0.126284
0.0746624 0.767071 0.124498
0.0783093 0.766583 0.123018
0.0802625 0.766308 0.122179
0.0810254 0.766186 0.121874
0.0804761 0.766247 0.122133
0.079469 0.766354 0.122606
0.078294 0.766506 0.123125
0.0757305 0.766857 0.124224
0.070161 0.767605 0.126436
0.488609 0.816052 0.102358
0.629374 0.83151 0.101106
0.720836 0.838697 0.10164
0.800488 0.838376 0.102892
0.832807 0.834501 0.104936
0.0687877 0.112596 0.160174
0.074876 0.112474 0.159243
0.124926 0.113878 0.15552
0.220142 0.117205 0.148913
0.310857 0.11873 0.141604
0.391531 0.119539 0.135729
0.464988 0.120394 0.127932
0.531685 0.120867 0.116045
0.592599 0.122011 0.107881
0.647944 0.124773 0.10193
0.704067 0.127001 0.100084
0.760891 0.128832 0.101579
0.81593 0.130617 0.102968
0.829007 0.131502 0.103746
0.827863 0.131746 0.103944
0.827329 0.131579 0.105241
0.827115 0.131044 0.107668
0.0695964 0.117861 0.159426
0.0721599 0.117128 0.159075
0.118425 0.114794 0.155718
0.214237 0.11754 0.14995
0.303914 0.119524 0.143267
0.388556 0.119997 0.135744
0.462226 0.120882 0.128008
0.530068 0.121202 0.115908
0.591974 0.122072 0.10721
0.647669 0.124834 0.101122
0.703838 0.12697 0.100069
0.761059 0.128756 0.101534
0.816709 0.13048 0.102846
0.830076 0.131258 0.103517
0.829114 0.131487 0.103716
0.828458 0.131334 0.105013
0.827909 0.130877 0.1075
0.0689403 0.144686 0.160204
0.0688029 0.144121 0.160082
0.0923781 0.140856 0.155383
0.19176 0.137545 0.149569
0.291905 0.127932 0.142229
0.377768 0.120821 0.135256
0.454109 0.121752 0.126665
0.524025 0.122011 0.114137
0.588006 0.122759 0.104021
0.64564 0.125093 0.0979629
0.702602 0.12697 0.100069
0.760067 0.12874 0.101488
0.816052 0.130434 0.1028
0.830381 0.131197 0.103471
0.829541 0.13138 0.103609
0.828779 0.131273 0.104952
0.828382 0.13077 0.107393
0.066743 0.194446 0.156756
0.0668345 0.193866 0.158724
0.0660105 0.191684 0.156619
0.111345 0.189227 0.14847
0.22945 0.185901 0.168368
0.309712 0.180667 0.164614
0.413474 0.156451 0.140642
0.505455 0.122759 0.114214
0.579324 0.123674 0.0964981
0.642115 0.125154 0.0979324
0.700481 0.126802 0.0999008
0.758404 0.128557 0.10135
0.814588 0.130312 0.102693
0.830686 0.131136 0.10338
0.829892 0.131304 0.103548
0.829053 0.131487 0.103716
0.828199 0.131685 0.103853
0.0677348 0.252003 0.128359
0.0664683 0.252186 0.128603
0.0651713 0.251102 0.128191
0.0762036 0.249332 0.126543
0.172473 0.247089 0.119844
0.335637 0.236088 0.12108
0.375967 0.236835 0.174075
0.429084 0.225849 0.177493
0.504036 0.197086 0.151797
0.600793 0.13994 0.0989242
0.686152 0.126284 0.0993362
0.754711 0.128191 0.101045
0.813275 0.129976 0.102358
0.83238 0.13077 0.103059
0.8318 0.130892 0.103166
0.830564 0.131167 0.10341
0.828656 0.131563 0.103777
0.0658122 0.307881 0.117571
0.064332 0.308263 0.117861
0.0634623 0.3075 0.11899
0.0628367 0.305257 0.121248
0.118318 0.302556 0.117647
0.295827 0.302815 0.112169
0.398932 0.290288 0.106035
0.476234 0.278462 0.0954299
0.512673 0.278553 0.158862
0.551858 0.267552 0.172625
0.596323 0.238392 0.157397
0.66923 0.180591 0.102815
0.775555 0.12874 0.101427
0.833494 0.130526 0.102846
0.833494 0.130526 0.102846
0.832944 0.130648 0.102953
0.831815 0.130892 0.103166
0.0705425 0.359167 0.117693
0.0687419 0.359777 0.117983
0.0674907 0.359442 0.119173
0.0658579 0.35816 0.121462
0.0630503 0.356146 0.123949
0.218967 0.358068 0.115282
0.363607 0.35729 0.100359
0.464042 0.343511 0.0958572
0.551339 0.329656 0.0952163
0.603235 0.320089 0.0957504
0.628504 0.316411 0.133318
0.653956 0.306676 0.156405
0.683238 0.282475 0.152605
0.731899 0.225513 0.110246
0.833021 0.130495 0.102846
0.833005 0.130632 0.102953
0.832029 0.130846 0.103136
0.0712596 0.410971 0.118624
0.0695506 0.411612 0.118929
0.0687266 0.411276 0.12015
0.0679484 0.410025 0.122454
0.0657664 0.408301 0.125994
0.0815595 0.40618 0.123964
0.316518 0.413596 0.104005
0.435584 0.409979 0.0977951
0.529549 0.395621 0.0959487
0.607721 0.383169 0.0960861
0.670375 0.372503 0.0977188
0.708309 0.363516 0.0984512
0.728222 0.355306 0.106111
0.749935 0.343603 0.131884
0.774884 0.320119 0.132296
0.803677 0.269215 0.104997
0.833844 0.159503 0.102678
0.0711986 0.461784 0.119814
0.0693523 0.462486 0.120089
0.0684215 0.462287 0.121416
0.0684367 0.460929 0.123674
0.0674296 0.459144 0.127108
0.0659495 0.456931 0.128618
0.182696 0.458045 0.115236
0.397757 0.467369 0.0993668
0.501808 0.461845 0.0967422
0.587106 0.448981 0.0959335
0.65774 0.43827 0.0970016
0.723095 0.425284 0.0986496
0.777356 0.413565 0.0996109
0.810193 0.403952 0.100053
0.826871 0.394736 0.100221
0.840925 0.381079 0.10013
0.838941 0.356802 0.101595
0.0710765 0.511025 0.120302
0.0690776 0.511803 0.120577
0.06804 0.511711 0.121965
0.06804 0.510521 0.124269
0.0678416 0.50869 0.127764
0.0669413 0.506615 0.13019
0.0644388 0.50457 0.130434
0.297963 0.514397 0.106844
0.456886 0.524392 0.0992599
0.55317 0.518776 0.0970779
0.633356 0.505135 0.0965438
0.703029 0.492943 0.0981003
0.770245 0.47921 0.0994583
0.830671 0.465492 0.100557
0.843229 0.45182 0.100984
0.842771 0.439796 0.100786
0.840925 0.428412 0.100481
0.072694 0.559182 0.119509
0.0710307 0.559838 0.119387
0.06981 0.559884 0.120546
0.0690929 0.559136 0.122881
0.0680858 0.557855 0.126558
0.0672313 0.556023 0.129
0.0644541 0.554559 0.129549
0.0591135 0.553491 0.128191
0.369207 0.575952 0.0988174
0.494743 0.584573 0.0960098
0.587396 0.58172 0.0951095
0.672328 0.56199 0.0967727
0.749767 0.545525 0.0989548
0.817258 0.531075 0.100343
0.84268 0.516304 0.101061
0.843976 0.501137 0.101106
0.844511 0.486122 0.101106
0.0784009 0.605905 0.120272
0.0784009 0.605814 0.120241
0.0782483 0.6056 0.120439
0.0779431 0.605035 0.120867
0.0775158 0.604044 0.121492
0.0772869 0.602502 0.121859
0.0730755 0.601923 0.121569
0.0624857 0.60296 0.119692
0.193057 0.613626 0.090135
0.420478 0.637308 0.0826429
0.534798 0.642649 0.0819562
0.634318 0.635676 0.0867323
0.720378 0.612116 0.0954604
0.796277 0.595911 0.10161
0.841031 0.581643 0.103899
0.843442 0.568154 0.103044
0.845518 0.552911 0.101869
0.0785534 0.654215 0.120119
0.0798657 0.65362 0.120409
0.078584 0.65391 0.120058
0.0753948 0.654566 0.11931
0.0706035 0.65536 0.118135
0.067689 0.655024 0.117266
0.0663615 0.653498 0.11751
0.063798 0.651774 0.117845
0.0536965 0.652232 0.116564
0.323049 0.671107 0.0839857
0.498253 0.689982 0.0783703
0.606378 0.690867 0.0809491
0.69218 0.680354 0.0879835
0.767514 0.661082 0.0945907
0.83241 0.646632 0.0979477
0.838148 0.634058 0.0991379
0.842191 0.620844 0.0994125
0.0737316 0.703243 0.121218
0.0822766 0.699962 0.122515
0.0808576 0.700328 0.122286
0.0778515 0.700984 0.121889
0.0732128 0.701869 0.121035
0.070161 0.701717 0.120394
0.0684062 0.700572 0.120272
0.0671092 0.698619 0.120516
0.0632486 0.69688 0.120531
0.057908 0.695399 0.119829
0.439597 0.725338 0.0914473
0.577859 0.734813 0.0896315
0.665644 0.737255 0.0890059
0.737743 0.728176 0.0898451
0.805707 0.711574 0.0907149
0.829725 0.698695 0.093019
0.837324 0.68542 0.0953536
0.0730907 0.749889 0.123659
0.076173 0.74876 0.123384
0.077821 0.747982 0.123232
0.0776684 0.7476 0.123262
0.0751354 0.747799 0.123537
0.0729381 0.747509 0.123766
0.0715496 0.746426 0.124071
0.0703441 0.744686 0.124605
0.0679332 0.742809 0.125231
0.0641031 0.741085 0.125551
0.225101 0.749889 0.100481
0.51754 0.777996 0.0974594
0.631174 0.782712 0.0961166
0.710765 0.784756 0.095201
0.782727 0.773739 0.093843
0.82565 0.759213 0.09337
0.833204 0.747189 0.0948959
0.0691386 0.767712 0.127443
0.0728161 0.76733 0.125353
0.0743877 0.767132 0.124773
0.0756085 0.766979 0.124285
0.0758526 0.766949 0.124178
0.0758221 0.766949 0.124239
0.0751049 0.76701 0.124865
0.0737926 0.767086 0.126009
0.0715343 0.767239 0.127886
0.0690623 0.767468 0.129534
0.0664683 0.767819 0.130938
0.386481 0.801648 0.105531
0.585779 0.825956 0.103853
0.684916 0.829587 0.102312
0.765484 0.828702 0.100984
0.832624 0.81651 0.0999008
0.833722 0.808057 0.0989395
0.0608225 0.769055 0.130007
0.0652171 0.768383 0.128237
0.0704509 0.767636 0.126192
0.0749218 0.767056 0.124468
0.0783703 0.766583 0.123003
0.0802625 0.766308 0.122179
0.080766 0.766186 0.12224
0.0796826 0.766232 0.123232
0.0779431 0.766323 0.12491
0.0762798 0.766461 0.126253
0.0734112 0.766812 0.127825
0.0681926 0.767575 0.129732
0.48365 0.815778 0.104204
0.628122 0.831601 0.102159
0.721462 0.838575 0.102068
0.802045 0.837919 0.103105
0.834882 0.83386 0.105211
0.0690471 0.114382 0.212009
0.0716411 0.114199 0.210773
0.107256 0.114611 0.207584
0.21944 0.118837 0.200885
0.31249 0.121202 0.194934
0.396231 0.122103 0.189227
0.471046 0.122179 0.1832
0.537972 0.122271 0.176303
0.598306 0.122835 0.17145
0.652918 0.124392 0.167239
0.70811 0.125322 0.160082
