public/sampleLut/28.cube
TITLE "Generated by Resolve"
LUT_3D_SIZE 9
0.071046 0.112947 0.114229
0.139635 0.112993 0.113329
0.312596 0.117891 0.109743
0.463371 0.120821 0.102388
0.591836 0.122713 0.0951858
0.704097 0.127001 0.100084
0.817609 0.130388 0.102739
0.83064 0.131136 0.10341
0.831144 0.131029 0.103304
0.0614023 0.147585 0.117983
0.0846265 0.143877 0.117006
0.26949 0.136019 0.121141
0.453696 0.120928 0.103304
0.589609 0.122667 0.0951247
0.702541 0.12697 0.100069
0.817288 0.130251 0.102632
0.831769 0.130892 0.103182
0.828199 0.13167 0.103883
0.0664988 0.252201 0.116869
0.0628977 0.251698 0.117662
0.178973 0.247242 0.113664
0.395544 0.229694 0.12842
0.493965 0.199725 0.136202
0.671534 0.125689 0.0986496
0.813962 0.129793 0.102251
0.83331 0.130571 0.102892
0.829496 0.13138 0.103639
0.0676738 0.360571 0.117433
0.0634623 0.361303 0.118334
0.0612802 0.357504 0.119158
0.361578 0.358694 0.0961776
0.548608 0.330709 0.0943465
0.635645 0.311238 0.095552
0.683574 0.279164 0.123751
0.817395 0.12987 0.102327
0.831174 0.131014 0.103304
0.0666972 0.463859 0.11989
0.0607309 0.46598 0.120897
0.0538643 0.466209 0.12166
0.147723 0.465629 0.106355
0.475959 0.47303 0.0934462
0.643336 0.443336 0.0950027
0.776181 0.41416 0.0991989
0.833997 0.393011 0.100099
0.83534 0.356237 0.0995956
0.0683452 0.561105 0.119051
0.0616922 0.563531 0.118456
0.054078 0.564599 0.118257
0.0463111 0.563348 0.118914
0.340475 0.581201 0.0909438
0.572183 0.58883 0.0909895
0.749126 0.546044 0.0983444
0.846632 0.515007 0.101427
0.844999 0.485252 0.101137
0.0800793 0.653635 0.120394
0.0786145 0.653941 0.120043
0.0706035 0.655406 0.118135
0.0663005 0.65359 0.117479
0.0548409 0.651896 0.116304
0.507073 0.688365 0.0784619
0.702022 0.675395 0.0881819
0.844373 0.642283 0.0988479
0.852186 0.616907 0.102266
0.0816663 0.746731 0.122484
0.0818647 0.746471 0.122744
0.0756085 0.747677 0.123629
0.0712596 0.74667 0.123888
0.0690776 0.742947 0.123537
0.236637 0.749798 0.0991989
0.62948 0.784207 0.0903944
0.771252 0.780194 0.0856489
0.829358 0.749294 0.0919509
0.0609598 0.769024 0.129885
0.0749981 0.767025 0.124315
0.0815747 0.766155 0.121813
0.0810864 0.766232 0.122057
0.0781262 0.766629 0.123201
0.0748913 0.767071 0.124529
0.489097 0.816159 0.101915
0.719295 0.838926 0.101488
0.834134 0.833906 0.10277
0.0687877 0.112596 0.160174
0.124926 0.113878 0.15552
0.310857 0.11873 0.141604
0.464988 0.120394 0.127932
0.592599 0.122011 0.107881
0.704067 0.127001 0.100084
0.81593 0.130617 0.102968
0.827863 0.131746 0.103944
0.827115 0.131044 0.107668
0.0689403 0.144686 0.160204
0.0923781 0.140856 0.155383
0.291905 0.127932 0.142229
0.454109 0.121752 0.126665
0.588006 0.122759 0.104021
0.702602 0.12697 0.100069
0.816052 0.130434 0.1028
0.829541 0.13138 0.103609
0.828382 0.13077 0.107393
0.0677348 0.252003 0.128359
0.0651713 0.251102 0.128191
0.172473 0.247089 0.119844
0.375967 0.236835 0.174075
0.504036 0.197086 0.151797
0.686152 0.126284 0.0993362
0.813275 0.129976 0.102358
0.8318 0.130892 0.103166
0.828656 0.131563 0.103777
0.0705425 0.359167 0.117693
0.0674907 0.359442 0.119173
0.0630503 0.356146 0.123949
0.363607 0.35729 0.100359
0.551339 0.329656 0.0952163
0.628504 0.316411 0.133318
0.683238 0.282475 0.152605
0.833021 0.130495 0.102846
0.832029 0.130846 0.103136
0.0711986 0.461784 0.119814
0.0684215 0.462287 0.121416
0.0674296 0.459144 0.127108
0.182696 0.458045 0.115236
0.501808 0.461845 0.0967422
0.65774 0.43827 0.0970016
0.777356 0.413565 0.0996109
0.826871 0.394736 0.100221
0.838941 0.356802 0.101595
0.072694 0.559182 0.119509
0.06981 0.559884 0.120546
0.0680858 0.557855 0.126558
0.0644541 0.554559 0.129549
0.369207 0.575952 0.0988174
0.587396 0.58172 0.0951095
0.749767 0.545525 0.0989548
0.84268 0.516304 0.101061
0.844511 0.486122 0.101106
0.0785534 0.654215 0.120119
0.078584 0.65391 0.120058
0.0706035 0.65536 0.118135
0.0663615 0.653498 0.11751
0.0536965 0.652232 0.116564
0.498253 0.689982 0.0783703
0.69218 0.680354 0.0879835
0.83241 0.646632 0.0979477
0.842191 0.620844 0.0994125
0.0730907 0.749889 0.123659
0.077821 0.747982 0.123232
0.0751354 0.747799 0.123537
0.0715496 0.746426 0.124071
0.0679332 0.742809 0.125231
0.225101 0.749889 0.100481
0.631174 0.782712 0.0961166
0.782727 0.773739 0.093843
0.833204 0.747189 0.0948959
0.0608225 0.769055 0.130007
0.0704509 0.767636 0.126192
0.0783703 0.766583 0.123003
0.080766 0.766186 0.12224
0.0779431 0.766323 0.12491
0.0734112 0.766812 0.127825
0.48365 0.815778 0.104204
0.721462 0.838575 0.102068
0.834882 0.83386 0.105211
0.0694743 0.11783 0.272709
0.0975662 0.117678 0.270542
0.313436 0.124437 0.260182
0.476432 0.126375 0.251926
0.606256 0.12694 0.245121
0.716075 0.129152 0.237446
0.829084 0.129351 0.223423
0.840879 0.128832 0.202106
0.836896 0.12781 0.174273
0.0692149 0.146624 0.273487
0.0822614 0.143297 0.272984
0.293751 0.130205 0.262943
0.465476 0.127489 0.252689
0.60264 0.127184 0.243442
0.714443 0.128985 0.235172
0.826581 0.12932 0.2215
0.838865 0.129 0.200397
0.834577 0.128115 0.171847
0.0681621 0.262623 0.284337
0.0670481 0.260563 0.285878
0.164279 0.248615 0.27895
0.42237 0.227802 0.259983
0.583185 0.167926 0.236362
0.709026 0.127535 0.219287
0.822187 0.128267 0.203357
0.83917 0.128313 0.180301
0.833829 0.127504 0.151827
0.0735637 0.375738 0.266941
0.0716411 0.376196 0.272862
0.0650492 0.375082 0.274968
0.340581 0.364248 0.236378
0.523323 0.350347 0.262287
0.608103 0.340154 0.287785
0.729213 0.272862 0.234104
0.83653 0.127504 0.14081
0.832959 0.129809 0.106386
0.0759136 0.462043 0.18613
0.0751812 0.46157 0.189334
0.072694 0.459358 0.191806
0.145006 0.458473 0.168673
0.495796 0.464454 0.130297
0.654124 0.437858 0.113466
0.755291 0.421851 0.163287
0.804044 0.416571 0.235309
0.844709 0.374395 0.227558
0.0726482 0.558953 0.119387
0.0697032 0.55967 0.120531
0.0680247 0.557626 0.126619
0.0656901 0.553582 0.130861
0.371908 0.572381 0.107622
0.593912 0.576074 0.10515
0.753414 0.542718 0.103075
0.845121 0.515389 0.101671
0.845304 0.491569 0.101198
0.0783398 0.65391 0.121004
0.0793927 0.653208 0.121263
0.0761425 0.652079 0.125811
0.0741588 0.648981 0.129305
0.0615091 0.647669 0.127703
0.494911 0.688975 0.0841993
0.699626 0.675502 0.0932784
0.842481 0.642054 0.103868
0.843503 0.619806 0.101579
0.0738994 0.749294 0.124514
0.0781415 0.747494 0.123888
0.0771496 0.745663 0.126635
0.0742962 0.743542 0.128725
0.0695964 0.740307 0.130068
0.211078 0.748043 0.103578
0.62884 0.782696 0.0967575
0.780682 0.774227 0.0938125
0.830823 0.74786 0.0952163
0.0660868 0.767803 0.131518
0.0727855 0.767269 0.125826
0.0781872 0.766613 0.123095
0.080766 0.766186 0.122225
0.0779278 0.766323 0.124895
0.0734569 0.766812 0.127794
0.480415 0.814755 0.107607
0.72665 0.837247 0.10988
0.842283 0.8309 0.110246
0.0716106 0.126452 0.385397
0.0818799 0.126558 0.38584
0.279103 0.128176 0.38175
0.484321 0.130999 0.368963
0.6121 0.132464 0.365652
0.721706 0.136263 0.364691
0.834836 0.137972 0.360845
0.850416 0.137911 0.353948
0.848981 0.137514 0.344137
0.0715648 0.150027 0.387243
0.0710155 0.146502 0.38555
0.258686 0.127825 0.380911
0.478096 0.131395 0.368322
0.610636 0.132265 0.364523
0.72163 0.135882 0.363348
0.834836 0.137819 0.359762
0.850721 0.137804 0.352956
0.849348 0.137362 0.343114
0.070573 0.265202 0.402182
0.0687724 0.263798 0.400732
0.151995 0.252384 0.397971
0.423041 0.229465 0.380728
0.589334 0.169451 0.36434
0.715114 0.135378 0.358038
0.829969 0.137423 0.354437
0.850874 0.137514 0.347494
0.849485 0.137041 0.337407
0.07393 0.38645 0.414862
0.0718547 0.385824 0.414359
0.0672923 0.381979 0.411292
0.241428 0.369436 0.405615
0.539132 0.351324 0.390631
0.68191 0.31426 0.378622
0.805829 0.24062 0.358877
0.851392 0.136934 0.334554
0.85034 0.136355 0.323598
0.0745708 0.50309 0.414893
0.0730449 0.502678 0.414878
0.0725567 0.499107 0.413993
0.134203 0.495033 0.411429
0.480293 0.478737 0.364187
0.631266 0.472724 0.40766
0.707637 0.469642 0.437934
0.815213 0.435019 0.414221
0.841978 0.328618 0.343679
0.0755932 0.592447 0.374517
0.0743572 0.592309 0.375601
0.073228 0.590356 0.375143
0.0706645 0.586252 0.371771
0.236683 0.577325 0.320363
0.582834 0.589471 0.288197
0.746563 0.558679 0.290745
0.849393 0.552071 0.357458
0.855924 0.551797 0.418784
0.0546731 0.674983 0.289372
0.0617685 0.671229 0.297032
0.0608682 0.669703 0.296437
0.061799 0.665324 0.292866
0.043595 0.665812 0.275395
0.408865 0.69546 0.188586
0.658671 0.699245 0.162142
0.84033 0.646662 0.156268
0.854017 0.616526 0.131777
0.0757916 0.747906 0.125338
0.0816205 0.74583 0.123476
0.0775464 0.745174 0.126757
0.0741741 0.743175 0.128801
0.0701305 0.739483 0.130816
0.194888 0.743313 0.108415
0.634882 0.778424 0.105241
0.793362 0.766247 0.101656
0.844144 0.74165 0.101671
0.0679942 0.767437 0.131914
0.0722972 0.767285 0.127459
0.0731518 0.766674 0.130358
0.0742046 0.76614 0.132494
0.0725414 0.76611 0.134997
0.0702831 0.76611 0.137804
0.471046 0.812558 0.114199
0.724865 0.837064 0.112444
0.827176 0.836805 0.110445
0.0718242 0.135332 0.497185
0.072755 0.135088 0.497505
0.214511 0.129427 0.494759
0.460472 0.137179 0.482963
0.617517 0.136538 0.473304
0.724361 0.14136 0.47451
0.836683 0.143084 0.473014
0.854124 0.143191 0.469154
0.853208 0.143191 0.463111
0.0716716 0.150835 0.498939
0.0715038 0.146883 0.498375
0.189502 0.129793 0.494606
0.453864 0.137469 0.48307
0.617761 0.136004 0.472389
0.726375 0.140566 0.473381
0.837354 0.142901 0.472557
0.85449 0.143191 0.468742
0.853849 0.142992 0.463401
0.0719768 0.26836 0.515007
0.0715801 0.266316 0.514595
0.132677 0.257252 0.514046
0.386664 0.226215 0.497383
0.601129 0.164401 0.473701
0.72076 0.139956 0.470054
0.832853 0.142657 0.469535
0.854917 0.143099 0.465904
0.853758 0.142885 0.460258
0.0731975 0.387213 0.529641
0.0719158 0.38645 0.529046
0.0699321 0.381949 0.525872
0.225772 0.370153 0.522698
0.523308 0.353521 0.504372
0.678248 0.317296 0.495918
0.806012 0.240696 0.479774
0.855283 0.14284 0.459236
0.854688 0.142626 0.45362
0.0735485 0.498833 0.536767
0.0728771 0.498207 0.536706
0.0714275 0.495521 0.535058
0.106813 0.493431 0.533059
0.365362 0.48452 0.527901
0.643824 0.470878 0.518914
0.780163 0.443854 0.511894
0.841703 0.39678 0.497719
0.842832 0.315755 0.474281
0.0741741 0.609033 0.53579
0.0733806 0.608469 0.535592
0.0728771 0.606302 0.534646
0.0726177 0.601373 0.532616
0.227344 0.6094 0.538247
0.572168 0.596658 0.491264
0.724407 0.591699 0.538796
0.808209 0.58764 0.567666
0.851545 0.562036 0.553552
0.0681773 0.714015 0.517784
0.0616617 0.714885 0.512825
0.0608835 0.713588 0.511849
0.0614633 0.709819 0.510567
0.0608835 0.70457 0.507073
0.305821 0.695659 0.424933
0.653315 0.710079 0.389197
0.833646 0.676432 0.426047
0.853376 0.670069 0.514336
0.0666361 0.794446 0.467247
0.0599985 0.79556 0.46128
0.0549477 0.795499 0.45597
0.0518959 0.793347 0.450568
0.0497444 0.788647 0.443992
0.0951095 0.778759 0.424857
0.576242 0.796017 0.37348
0.809522 0.782818 0.345373
0.862287 0.758175 0.341924
0.067277 0.795041 0.383383
0.0638743 0.795117 0.381903
0.0628977 0.793988 0.377737
0.0608835 0.793271 0.373144
0.0596323 0.792432 0.367163
0.0592813 0.791257 0.359045
0.398337 0.816846 0.302693
0.732525 0.841672 0.252796
0.863767 0.836576 0.237095
0.0722362 0.14374 0.605676
0.0726024 0.143633 0.605524
0.16585 0.137087 0.601724
0.428779 0.142763 0.59205
0.602625 0.143618 0.581918
0.72401 0.145541 0.576135
0.838651 0.149233 0.579187
0.857755 0.149447 0.576761
0.856977 0.149187 0.572656
0.071931 0.145281 0.605447
0.0718242 0.143709 0.605035
0.155367 0.139361 0.602838
0.422171 0.142763 0.592264
0.602869 0.143099 0.58114
0.726268 0.144793 0.575189
0.839246 0.149035 0.578759
0.858366 0.149462 0.576562
0.857298 0.149126 0.572656
0.0715953 0.267918 0.620172
0.0712139 0.265675 0.619669
0.097612 0.254307 0.618143
0.342061 0.217151 0.610117
0.586221 0.159228 0.582101
0.721019 0.14406 0.572641
0.835492 0.148592 0.57641
0.858976 0.14934 0.574639
0.85742 0.148974 0.570443
0.0731518 0.388998 0.636637
0.0719921 0.3879 0.636591
0.0717021 0.382879 0.635554
0.212131 0.37554 0.639796
0.498695 0.34902 0.622034
0.676493 0.314748 0.604929
0.806638 0.236332 0.588129
0.859052 0.148959 0.569741
0.85864 0.148684 0.565988
0.0737469 0.497902 0.645899
0.0729381 0.497139 0.645869
0.072282 0.49398 0.64506
0.0716716 0.487037 0.642191
0.322591 0.479896 0.648356
0.631296 0.46952 0.634195
0.775784 0.44538 0.627832
0.840238 0.399268 0.616037
0.842756 0.315953 0.592508
0.0730449 0.605234 0.649973
0.0719005 0.604639 0.649668
0.0713512 0.602579 0.649134
0.0711681 0.597894 0.647578
0.214054 0.603769 0.661097
0.503563 0.594858 0.652934
0.74519 0.585458 0.642206
0.847715 0.562478 0.63566
0.844511 0.526452 0.62623
0.0678416 0.710597 0.64181
0.0621042 0.711589 0.637781
0.0610971 0.710124 0.636606
0.0617685 0.706188 0.63592
0.0635386 0.69929 0.635187
0.290929 0.717342 0.648264
0.655924 0.707561 0.601083
0.815335 0.699779 0.652644
0.854749 0.692973 0.68336
0.0659037 0.809567 0.630259
0.0599222 0.811185 0.625238
0.0548867 0.81181 0.620661
0.0517739 0.810178 0.616678
0.0497902 0.806546 0.612634
0.0691386 0.800839 0.6094
0.488029 0.797421 0.576852
0.799588 0.796231 0.568521
0.855573 0.778195 0.571038
0.0682078 0.831022 0.604898
0.0666514 0.831128 0.603464
0.0635233 0.831403 0.600595
0.0608835 0.831632 0.59736
0.0597238 0.831785 0.594324
0.0582437 0.831937 0.590051
0.254063 0.835477 0.570169
0.711818 0.854246 0.540017
0.86598 0.854826 0.516823
0.0724193 0.151522 0.710063
0.0725872 0.151492 0.709972
0.121202 0.150988 0.710292
0.39057 0.145861 0.700145
0.58117 0.151019 0.688624
0.713497 0.153979 0.685359
0.836347 0.156985 0.688991
0.859281 0.157885 0.688655
0.858595 0.157717 0.685985
0.071931 0.151522 0.709743
0.0714733 0.151659 0.709758
0.107149 0.151965 0.710567
0.382254 0.145708 0.700984
0.583032 0.150118 0.687419
0.715953 0.15314 0.684138
0.837034 0.156847 0.688609
0.859968 0.157885 0.688411
0.858625 0.157702 0.685664
0.0714885 0.26305 0.720714
0.0710307 0.26067 0.720333
0.0714427 0.247166 0.716762
0.275532 0.205982 0.713115
0.56492 0.150698 0.687282
0.710506 0.152453 0.681941
0.833295 0.156313 0.686412
0.860609 0.157839 0.686809
0.859113 0.15761 0.684001
0.073518 0.389258 0.738979
0.0721599 0.388052 0.739101
0.0714885 0.382895 0.738064
0.193912 0.377035 0.746853
0.438529 0.34493 0.734752
0.653605 0.313726 0.714916
0.803876 0.228504 0.695277
0.8607 0.157641 0.683055
0.860502 0.157473 0.680461
0.0738689 0.497765 0.748852
0.0730144 0.496956 0.748959
0.0722057 0.493706 0.748516
0.0719768 0.486534 0.746578
0.290288 0.482048 0.761563
0.595041 0.465736 0.748943
0.765225 0.443976 0.736751
0.838666 0.39823 0.726329
0.84329 0.314031 0.70547
0.0731365 0.605295 0.758083
0.0719768 0.6047 0.757992
0.0711986 0.602426 0.757519
0.0710002 0.597436 0.755993
0.194461 0.598596 0.764996
0.432151 0.592371 0.767147
0.726513 0.582559 0.754482
0.843107 0.561822 0.747127
0.84036 0.525216 0.738979
0.0676127 0.708232 0.752163
0.0625467 0.708827 0.748882
0.0615549 0.707332 0.747906
0.0621653 0.703563 0.747585
0.0639963 0.697063 0.747341
0.284459 0.707347 0.766201
0.618402 0.702052 0.758953
0.842664 0.690227 0.751156
0.850172 0.668818 0.746502
0.0650492 0.80557 0.744411
0.0596933 0.806958 0.740398
0.0545052 0.807401 0.736065
0.0514687 0.805783 0.732815
0.049424 0.802106 0.729198
0.0476539 0.796109 0.724636
0.356542 0.817182 0.73994
0.771511 0.804379 0.722133
0.845853 0.796704 0.757565
0.0674907 0.827802 0.730129
0.0666209 0.827817 0.72932
0.0635691 0.828061 0.726757
0.0608682 0.828275 0.72398
0.059678 0.828428 0.721614
0.0581979 0.828595 0.718364
0.237888 0.849699 0.730037
0.633829 0.860517 0.708232
0.858824 0.864256 0.698695
0.0727092 0.156344 0.794812
0.0729992 0.156329 0.794781
0.0743725 0.156115 0.794507
0.332357 0.145892 0.788144
0.559976 0.154788 0.772168
0.702419 0.157961 0.767422
0.830503 0.159625 0.767132
0.858381 0.160403 0.766995
0.857588 0.160296 0.765805
0.0723888 0.156344 0.794659
0.0718395 0.15642 0.794629
0.0726482 0.156268 0.794369
0.316014 0.145617 0.788571
0.561028 0.154101 0.771344
0.705028 0.157183 0.766491
0.831357 0.159442 0.766796
0.859113 0.160464 0.766812
0.857664 0.160327 0.765652
0.0716716 0.25182 0.804273
0.0703746 0.249042 0.803784
0.0710918 0.234302 0.801083
0.227634 0.193469 0.799725
0.539376 0.154788 0.772595
0.699428 0.156558 0.765301
0.827573 0.159075 0.765576
0.859785 0.16051 0.765972
0.858259 0.160357 0.764813
0.0737316 0.386572 0.825925
0.0722972 0.385336 0.826017
0.0714885 0.380163 0.825299
0.161364 0.372457 0.83238
0.378592 0.338994 0.827604
0.632898 0.307408 0.807599
0.798169 0.213779 0.779232
0.859663 0.160494 0.764141
0.859556 0.160479 0.762951
0.0741283 0.497307 0.83798
0.0732738 0.496498 0.83801
0.0723278 0.493217 0.837583
0.0721447 0.486076 0.836179
0.271138 0.484016 0.85655
0.548363 0.461845 0.850034
0.746303 0.441123 0.835935
0.83389 0.39443 0.823224
0.841459 0.30724 0.800153
0.0733501 0.603891 0.848783
0.0722362 0.603296 0.848722
0.0711681 0.600946 0.848188
0.0707713 0.596048 0.847181
0.162982 0.59472 0.856321
0.380743 0.591546 0.869352
0.691249 0.578042 0.86183
0.833677 0.557885 0.851621
0.831647 0.52166 0.844541
0.0674601 0.708309 0.850935
0.063035 0.708858 0.849088
0.0620279 0.707622 0.84831
0.0628214 0.703807 0.84828
0.0646067 0.697078 0.848203
0.27216 0.701808 0.867399
0.555856 0.699855 0.870253
0.825711 0.687175 0.859617
0.84036 0.665583 0.854948
0.0645914 0.803449 0.847059
0.0595254 0.804685 0.844221
0.0543679 0.805035 0.841047
0.0510872 0.803464 0.838514
0.0492866 0.799756 0.835981
0.0474556 0.793866 0.832059
0.342123 0.811643 0.850797
0.71574 0.80618 0.845243
0.834043 0.790402 0.845518
0.0655222 0.825971 0.839704
0.0654002 0.825925 0.839475
0.0631113 0.826017 0.837629
0.0607156 0.826154 0.835355
0.0595865 0.82623 0.833371
0.0580911 0.826307 0.830549
0.219165 0.844526 0.840986
0.509392 0.870497 0.849332
0.836988 0.870069 0.83743
0.0724193 0.156924 0.81207
0.0728008 0.156893 0.812055
0.0738842 0.156756 0.812009
0.250935 0.144091 0.806699
0.536324 0.155062 0.791959
0.693904 0.157656 0.785946
0.824125 0.159594 0.786465
0.85861 0.160754 0.787701
0.857725 0.160693 0.787762
0.0731518 0.156863 0.812039
0.0721294 0.156939 0.81207
0.0724041 0.156893 0.812055
0.233478 0.14464 0.807324
0.535164 0.154696 0.791714
0.694911 0.157153 0.785458
0.824506 0.159426 0.786282
0.859174 0.160815 0.787671
0.857923 0.160723 0.787762
0.0726787 0.230732 0.818952
0.0709697 0.227817 0.818692
0.0710918 0.212924 0.817258
0.190982 0.171527 0.814939
0.512093 0.155215 0.793774
0.688029 0.156695 0.78526
0.820249 0.159045 0.78587
0.859648 0.160845 0.78764
0.858381 0.160754 0.787717
0.073167 0.379431 0.844739
0.071809 0.378286 0.844984
0.0717937 0.372839 0.84416
0.0959945 0.361181 0.844541
0.348074 0.328283 0.846815
0.630762 0.292622 0.824018
0.797818 0.18822 0.794339
0.859388 0.160845 0.787671
0.858976 0.160784 0.787686
0.0733349 0.493095 0.859892
0.0724346 0.492226 0.860029
0.0726024 0.489204 0.859709
0.0727092 0.482094 0.85864
0.253132 0.480232 0.878096
0.534264 0.454932 0.872435
0.739925 0.434485 0.859388
0.835279 0.386511 0.84773
0.843137 0.293217 0.824323
0.0727092 0.60119 0.874662
0.0712596 0.600519 0.874693
0.0713512 0.598306 0.874403
0.0715343 0.59353 0.873777
0.10367 0.586938 0.876432
0.356909 0.587381 0.89688
0.676493 0.57406 0.891264
0.834089 0.554101 0.88159
0.831815 0.517037 0.876005
0.0658122 0.706783 0.881956
0.0612039 0.707393 0.880217
0.0621958 0.705547 0.880568
0.0636912 0.701625 0.881163
0.0654307 0.694774 0.881727
0.256291 0.697673 0.900099
0.527108 0.696956 0.906752
0.816068 0.684337 0.898405
0.838911 0.662593 0.895582
0.0589456 0.8038 0.882582
0.0522927 0.805524 0.87895
0.0533455 0.804028 0.879408
0.052491 0.801892 0.878737
0.0504768 0.798047 0.877211
0.049485 0.791836 0.876173
0.332372 0.807553 0.9028
0.694118 0.802915 0.902205
0.828046 0.788403 0.901274
0.0581979 0.826429 0.884382
0.058854 0.826368 0.884703
0.061326 0.8262 0.885908
0.0619364 0.826154 0.886213
0.0608682 0.826215 0.885695
0.0594034 0.826307 0.884962
0.196078 0.840314 0.898802
0.485573 0.868208 0.915648
0.816892 0.872694 0.908217
