public/sampleLut/29.cube
TITLE "Generated by Resolve"
LUT_3D_SIZE 9
0 0 0.193866
0.0640116 0 0.188434
0.357031 0 0.183047
0.524895 0 0.177676
0.656855 0 0.17229
0.788373 0 0.166888
0.919676 0 0.161349
1 0 0.15581
1 0 0.150286
0 0.0673533 0.175677
0 0.0344854 0.170336
0.24744 0.000671397 0.164843
0.461036 0 0.159335
0.592203 0 0.153796
0.723537 0 0.148241
0.854871 0 0.142794
0.986877 0 0.137453
1 0 0.132296
0 0.221836 0.157275
0 0.18793 0.151736
0.0746471 0.153979 0.146227
0.362341 0.120653 0.140826
0.528313 0.0879377 0.135515
0.661234 0.0565042 0.130404
0.794842 0.0268864 0.125582
0.929732 0 0.12108
1 0 0.116899
0 0.371847 0.138857
0 0.340063 0.133623
0 0.311315 0.128603
0.263279 0.283665 0.123919
0.472633 0.257374 0.11957
0.609018 0.232395 0.11545
0.746502 0.209232 0.11165
0.884092 0.186938 0.108003
1 0.165225 0.104463
0 0.553979 0.122301
0 0.52166 0.118013
0 0.491844 0.114076
0.153948 0.465888 0.110307
0.414557 0.442481 0.106722
0.56614 0.420188 0.103182
0.704585 0.398672 0.0996872
0.841962 0.376226 0.0959793
0.9785 0.351965 0.0919661
0 0.782864 0.10901
0 0.7561 0.105455
0 0.729564 0.10193
0.0208133 0.702388 0.0983291
0.343633 0.673243 0.0944686
0.521462 0.642924 0.0904707
0.658045 0.612436 0.0864424
0.794278 0.581918 0.082414
0.930846 0.55172 0.0784314
0 1 0.0969863
0 0.991577 0.0930495
0 0.961044 0.0890211
0 0.930571 0.0849928
0.263264 0.899733 0.0809186
0.473854 0.869703 0.0769665
0.610712 0.839857 0.0730297
0.747295 0.809461 0.0690166
0.883833 0.779812 0.0651102
0 1 0.0834669
0 1 0.0794842
0 1 0.0755169
0 1 0.0715038
0.15523 1 0.0675822
0.413077 1 0.0636606
0.563699 1 0.0597238
0.700496 1 0.055787
0.836973 1 0.0518502
0 1 0.0700542
0 1 0.0661479
0 1 0.062211
0 1 0.0582589
0.00642405 1 0.0543374
0.335729 1 0.0504005
0.516823 1 0.046479
0.653422 1 0.0424659
0.789883 1 0.0385138
0 0 0.234226
0.0433661 0 0.230091
0.346441 0 0.224689
0.518349 0 0.219272
0.650446 0 0.213931
0.781765 0 0.208453
0.913085 0 0.203021
1 0 0.197482
1 0 0.191943
0 0.0561532 0.21735
0 0.0229343 0.211948
0.233707 0 0.206439
0.453681 0 0.200992
0.585611 0 0.195468
0.717037 0 0.189929
0.848478 0 0.184512
0.980621 0 0.179217
1 0 0.174105
0 0.210254 0.198947
0 0.176043 0.193378
0.0531472 0.142321 0.1879
0.351705 0.1093 0.182544
0.52224 0.0771496 0.177325
0.655314 0.0460212 0.172259
0.78938 0.0171969 0.167575
0.924743 0 0.163195
1 0 0.159075
0 0.360891 0.180606
0 0.329839 0.175433
0 0.301869 0.170535
0.252445 0.274403 0.165942
0.467521 0.248417 0.161654
0.604456 0.224353 0.157687
0.742092 0.20145 0.153933
0.879957 0.179644 0.150378
1 0.157977 0.146853
0 0.542855 0.164385
0 0.511223 0.160189
0 0.482475 0.156298
0.142016 0.457725 0.152636
0.407782 0.434714 0.149065
0.561975 0.412802 0.145556
0.70013 0.39089 0.141955
0.837263 0.368063 0.138186
0.973693 0.343511 0.134157
0 0.773678 0.151354
0 0.746792 0.147784
0 0.720546 0.144305
0.00689708 0.692958 0.140642
0.336004 0.66305 0.13669
0.516686 0.632547 0.132662
0.653269 0.60209 0.128634
0.789471 0.571496 0.124605
0.925994 0.541222 0.120607
0 1 0.139223
0 0.981247 0.135241
0 0.9505 0.131182
0 0.919768 0.127123
0.253635 0.889433 0.123125
0.469123 0.859464 0.119173
0.605814 0.829267 0.11519
0.742611 0.799329 0.111238
0.879042 0.769451 0.107301
0 1 0.125673
0 1 0.12166
0 1 0.117708
0 1 0.11371
0.141833 1 0.109789
0.405356 1 0.105852
0.558892 1 0.101915
0.695705 1 0.0979782
0.832258 0.998093 0.0940566
0 1 0.112276
0 1 0.108339
0 1 0.104433
0 1 0.100465
0 1 0.0965286
0.328237 1 0.0926223
0.511849 1 0.0886244
0.648692 1 0.0846876
0.785031 1 0.0806897
0 0 0.41326
0.0228122 0 0.393408
0.336019 0 0.370321
0.512032 0 0.341512
0.644007 0 0.309499
0.775189 0 0.280964
0.906493 0 0.256138
1 0 0.239231
1 0 0.232853
0 0.044892 0.329183
0 0.0113527 0.298894
0.21944 0 0.27129
0.444602 0 0.248844
0.578912 0 0.235859
0.710521 0 0.231449
0.842161 0 0.226184
0.974517 0 0.220951
1 0 0.215869
0 0.198596 0.242695
0 0.164446 0.233845
0.0324712 0.130861 0.229541
0.34136 0.0981155 0.224216
0.51606 0.0662089 0.219043
0.649638 0.035935 0.214115
0.784024 0.00769055 0.209506
0.919707 0 0.20531
1 0 0.201328
0 0.349844 0.222293
0 0.320104 0.217212
0 0.292393 0.212436
0.24184 0.265476 0.20795
0.46276 0.239979 0.20383
0.599954 0.216434 0.199954
0.737758 0.19382 0.196262
0.875639 0.171984 0.192691
1 0.150378 0.189181
0 0.531624 0.206378
0 0.501045 0.202426
0 0.473671 0.198581
0.129503 0.449821 0.194995
0.400885 0.427024 0.191409
0.557839 0.405478 0.18793
0.695796 0.383368 0.184283
0.832334 0.359487 0.180331
0.96878 0.335103 0.176303
0 0.764446 0.193683
0 0.73785 0.190158
0 0.711131 0.186618
0 0.682826 0.182864
0.32842 0.65275 0.178897
0.51191 0.622202 0.174868
0.648402 0.591531 0.170809
0.784619 0.560967 0.166781
0.921279 0.530983 0.162829
0 1 0.181415
0 0.970459 0.177386
0 0.939956 0.173358
0 0.909316 0.169314
0.243748 0.879057 0.165316
0.464302 0.849027 0.161364
0.601083 0.819028 0.157412
0.737819 0.788922 0.153445
0.874388 0.75935 0.149538
0 1 0.167834
0 1 0.163882
0 1 0.159899
0 1 0.155932
0.127443 1 0.15198
0.397726 1 0.148089
0.55407 1 0.144106
0.69099 1 0.1402
0.827497 0.987793 0.136278
0 1 0.154467
0 1 0.150576
0 1 0.146593
0 1 0.142672
0 1 0.138766
0.320821 1 0.134798
0.507149 1 0.130846
0.643824 1 0.126864
0.780179 1 0.122881
0 0 0.515175
0.00199893 0 0.503243
0.32546 0 0.491249
0.505684 0 0.47953
0.637507 0 0.467567
0.768933 0 0.455344
0.899901 0 0.442542
1 0 0.425238
1 0 0.406394
0 0.0335241 0.475196
0 0 0.46302
0.204303 0 0.450828
0.434897 0 0.436286
0.572366 0 0.418494
0.703975 0 0.398932
0.835798 0 0.377127
0.968414 0 0.35198
1 0 0.321279
0 0.186877 0.429877
0 0.152895 0.411536
0.0120394 0.119539 0.391241
0.331304 0.0870527 0.368353
0.510094 0.0556191 0.340597
0.644114 0.026154 0.311803
0.778897 0 0.288319
0.914839 0 0.267933
1 0 0.252033
0 0.339117 0.359182
0 0.310582 0.329244
0 0.282963 0.303029
0.231098 0.256611 0.280552
0.458457 0.23183 0.261707
0.595544 0.208652 0.247486
0.733577 0.186435 0.238178
0.871534 0.164691 0.23386
1 0.143038 0.231403
0 0.520897 0.273198
0 0.49102 0.256016
0 0.465324 0.243519
0.115877 0.441764 0.236118
0.394064 0.419577 0.232959
0.553613 0.398077 0.230213
0.691203 0.375387 0.226459
0.827604 0.351217 0.222477
0.964019 0.32723 0.218433
0 0.755138 0.234668
0 0.728878 0.232136
0 0.70161 0.22887
0 0.672343 0.224994
0.320851 0.641978 0.220966
0.506966 0.611475 0.216938
0.643458 0.580819 0.212894
0.779904 0.550744 0.208911
0.916457 0.520531 0.205005
0 0.990662 0.22356
0 0.960098 0.219516
0 0.929503 0.215473
0 0.898726 0.211414
0.233692 0.868711 0.207446
0.459968 0.838865 0.203586
0.596201 0.808469 0.199573
0.733135 0.77882 0.195666
0.869581 0.748974 0.19173
0 1 0.209964
0 1 0.205966
0 1 0.202075
0 1 0.198123
0.112657 1 0.194217
0.389807 1 0.19028
0.549401 1 0.186343
0.686244 1 0.182406
0.822705 0.977401 0.17847
0 1 0.196704
0 1 0.192767
0 1 0.188815
0 1 0.184894
0 1 0.180957
0.313893 1 0.17702
0.502312 1 0.173037
0.639063 1 0.16907
0.775021 1 0.164965
0 0 0.607355
0 0 0.595438
0.316152 0 0.58349
0.499275 0 0.57171
0.630854 0 0.559579
0.762325 0 0.547402
0.893324 0 0.535164
1 0 0.522896
1 0 0.510842
0 0.0218204 0.567254
0 0 0.555123
0.188495 0 0.542855
0.424811 0 0.530632
0.565774 0 0.518441
0.697643 0 0.506493
0.829511 0 0.494774
0.962264 0 0.483482
1 0 0.472862
0 0.175082 0.526101
0 0.141375 0.514015
0 0.108354 0.502174
0.321813 0.0761883 0.490623
0.504234 0.0452277 0.479515
0.638651 0.0164645 0.469184
0.773892 0 0.459556
0.910155 0 0.450477
1 0 0.441123
0 0.329046 0.486519
0 0.301152 0.4757
0 0.273732 0.465599
0.220157 0.247807 0.456138
0.452781 0.223804 0.447639
0.591104 0.200824 0.436988
0.729366 0.178988 0.425711
0.867277 0.157122 0.413825
1 0.135592 0.401221
0 0.510506 0.452934
0 0.481743 0.44419
0 0.457145 0.432975
0.102419 0.43418 0.421515
0.387213 0.412238 0.409445
0.549157 0.390265 0.396063
0.686351 0.366949 0.380255
0.822644 0.342519 0.361791
0.959075 0.319203 0.338735
0 0.746136 0.417197
0 0.719783 0.404898
0 0.691936 0.390738
0 0.66215 0.373938
0.313863 0.631601 0.354299
0.502205 0.601144 0.329549
0.638575 0.570245 0.306386
0.775067 0.540246 0.285786
0.911772 0.510384 0.26688
0 0.979995 0.367056
0 0.949432 0.345541
0 0.918654 0.320195
0 0.888472 0.298833
0.223301 0.858305 0.278538
0.454307 0.828077 0.260365
0.591485 0.79823 0.246082
0.728359 0.76846 0.236927
0.864805 0.738613 0.233066
0 1 0.291188
0 1 0.271656
0 1 0.254551
0 1 0.242023
0.0969406 1 0.23508
0.381781 1 0.23209
0.54461 1 0.228489
0.681437 0.996918 0.224537
0.818006 0.967239 0.22063
0 1 0.238727
0 1 0.233783
0 1 0.230945
0 1 0.227039
0 1 0.223117
0.306722 1 0.21912
0.49749 1 0.215152
0.634241 1 0.211185
0.770291 1 0.207019
0 0 0.699245
0 0 0.687388
0.306905 0 0.675517
0.49279 0 0.663615
0.624308 0 0.651484
0.755673 0 0.639414
0.886702 0 0.627207
1 0 0.615
1 0 0.603021
0 0.0100862 0.659098
0 0 0.646952
0.171939 0 0.634913
0.414298 0 0.622629
0.559243 0 0.610529
0.691249 0 0.598672
0.823407 0 0.587137
0.956405 0 0.575982
1 0 0.565621
0 0.163485 0.618189
0 0.129931 0.606165
0 0.0972152 0.59443
0.312901 0.0653544 0.582986
0.498573 0.0351873 0.572152
0.633326 0.00700389 0.562036
0.769085 0 0.552544
0.905592 0 0.543816
1 0 0.5355
0 0.319356 0.578973
0 0.291691 0.56846
0 0.264836 0.558602
0.209384 0.239399 0.549325
0.446372 0.21561 0.540703
0.586847 0.193301 0.532631
0.725109 0.17145 0.524758
0.863142 0.149813 0.516976
1 0.127703 0.509026
0 0.500221 0.546212
0 0.473091 0.537774
0 0.449165 0.529809
0.0881971 0.426398 0.521889
0.380301 0.404913 0.514199
0.544808 0.382727 0.506127
0.681636 0.358755 0.497383
0.817853 0.334371 0.488472
0.954299 0.311467 0.479576
0 0.737163 0.519142
0 0.710231 0.511254
0 0.681849 0.502968
0 0.651789 0.494179
0.306691 0.621012 0.485206
0.49723 0.590372 0.47628
0.63386 0.559991 0.467414
0.770626 0.529992 0.458656
0.90692 0.499733 0.449882
0 0.969497 0.490852
0 0.938918 0.481941
0 0.908339 0.473014
0 0.877958 0.464164
0.212757 0.848035 0.455436
0.4477 0.817624 0.44686
0.586725 0.78793 0.43534
0.723552 0.758083 0.422797
0.860029 0.728267 0.409384
0 1 0.46099
0 1 0.452125
0 1 0.442985
0 1 0.430777
0.0813916 1 0.418082
0.37377 1 0.404074
0.539818 1 0.388846
0.676753 0.986786 0.371969
0.813001 0.956405 0.352026
0 1 0.426169
0 1 0.412955
0 1 0.398642
0 1 0.38294
0 1 0.364935
0.299199 1 0.343252
0.492729 1 0.31873
0.629343 1 0.297414
0.765347 1 0.276265
0 0 0.791318
0 0 0.779339
0.29688 0 0.767636
0.486244 0 0.755627
0.617716 0 0.74345
0.749126 0 0.731228
0.880034 0 0.718944
1 0 0.706844
1 0 0.695003
0 0 0.751095
0 0 0.738918
0.154437 0 0.726711
0.403738 0 0.714458
0.552789 0 0.702434
0.684962 0 0.690684
0.817304 0 0.679271
0.950713 0 0.668406
1 0 0.658259
0 0.151934 0.710063
0 0.118624 0.698116
0 0.0860761 0.686458
0.304051 0.0547951 0.675242
0.49308 0.0254215 0.664698
0.628199 0 0.654826
0.764279 0 0.645548
0.901091 0 0.637186
1 0 0.629007
0 0.30985 0.671305
0 0.282261 0.661036
0 0.255833 0.651362
0.198657 0.231266 0.642634
0.440085 0.207874 0.63415
0.58265 0.185916 0.626215
0.720836 0.163882 0.61828
0.859007 0.142473 0.61059
0.996826 0.120058 0.602533
0 0.490166 0.63946
0 0.464744 0.631281
0 0.441215 0.623331
0.0744945 0.419013 0.615518
0.373007 0.397253 0.607675
0.540124 0.374594 0.599405
0.67689 0.350454 0.590616
0.813092 0.326513 0.581704
0.949432 0.30341 0.572747
0 0.728176 0.612772
0 0.700832 0.604761
0 0.671443 0.59617
0 0.641016 0.587289
0.299153 0.610513 0.578393
0.492378 0.579858 0.569451
0.629038 0.549554 0.560616
0.765805 0.519554 0.551873
0.90219 0.489677 0.543145
0 0.959014 0.584054
0 0.928206 0.575067
0 0.897749 0.566186
0 0.867735 0.557427
0.201648 0.837583 0.548638
0.441016 0.807462 0.539864
0.581933 0.777539 0.531167
0.718898 0.747951 0.52256
0.855177 0.717769 0.513741
0 1 0.554177
0 1 0.545373
0 1 0.53666
0 1 0.528038
0.0651865 1 0.519265
0.365835 1 0.510567
0.535134 1 0.50193
0.671901 0.976287 0.493202
0.808316 0.946242 0.484443
0 1 0.524788
0 1 0.51603
0 1 0.507424
0 1 0.498726
0 1 0.489891
0.291112 1 0.481209
0.487877 1 0.472404
0.624109 1 0.463325
0.760372 1 0.454261
0 0 0.883406
0 0 0.871504
0.285206 0 0.859724
0.479576 0 0.847532
0.611032 0 0.835355
0.742458 0 0.823148
0.873472 0 0.810925
1 0 0.79884
1 0 0.787182
0 0 0.843091
0 0 0.830884
0.135607 0 0.818662
0.393072 0 0.80647
0.54641 0 0.794522
0.678737 0 0.782879
0.811322 0 0.771618
0.945205 0 0.761044
1 0 0.751141
0 0.140429 0.80209
0 0.107439 0.790265
0 0.0752117 0.778714
0.29456 0.0444343 0.767681
0.487617 0.0157473 0.757382
0.623148 0 0.747753
0.75964 0 0.738735
0.896651 0 0.730327
1 0 0.722316
0 0.300435 0.763882
0 0.273075 0.753811
0 0.247196 0.744381
0.187427 0.223056 0.735622
0.433738 0.200305 0.727398
0.578347 0.178286 0.719448
0.716716 0.156573 0.71165
0.854765 0.134981 0.703899
0.992248 0.111971 0.695644
0 0.481132 0.732586
0 0.456397 0.724498
0 0.43331 0.716579
0.0608682 0.411673 0.708888
0.365728 0.389639 0.700923
0.535286 0.366201 0.692363
0.671916 0.341756 0.683497
0.808148 0.318486 0.674601
0.944503 0.294987 0.665675
0 0.718746 0.706004
0 0.690974 0.697887
0 0.66125 0.689219
0 0.630655 0.680293
0.290806 0.600015 0.671366
0.487495 0.569268 0.662409
0.624277 0.539254 0.653666
0.76112 0.509392 0.644968
0.897292 0.479835 0.636301
0 0.94847 0.676997
0 0.917693 0.66804
0 0.887495 0.659236
0 0.857206 0.650416
0.190021 0.827008 0.64181
0.433936 0.797055 0.633082
0.577264 0.767452 0.62446
0.714092 0.737606 0.615778
0.850523 0.707668 0.60705
0 1 0.647288
0 1 0.63859
0 1 0.629953
0 1 0.621256
0.0496071 1 0.612497
0.357992 1 0.603861
0.530327 0.995911 0.595163
0.667155 0.965972 0.58648
0.80351 0.93576 0.577676
0 1 0.61799
0 1 0.609339
0 1 0.600656
0 1 0.591959
0 1 0.583185
0.281758 1 0.574411
0.483146 1 0.565667
0.619165 1 0.556451
0.755398 1 0.547372
0 0 0.975494
0 0 0.963653
0.272099 0 0.951675
0.47306 0 0.939544
0.60441 0 0.927306
0.735836 0 0.915099
0.866896 0 0.902892
0.998627 0 0.890959
1 0 0.879286
0 0 0.935073
0 0 0.92285
0.114809 0 0.910567
0.382315 0 0.898512
0.540108 0 0.886671
0.672633 0 0.875166
0.805463 0 0.864042
0.939757 0 0.853727
1 0 0.844114
0 0.129 0.894148
0 0.0963149 0.882429
0 0.0645151 0.871031
0.284047 0.0344396 0.860243
0.482307 0.00631724 0.850156
0.618097 0 0.840696
0.755077 0 0.831983
0.892256 0 0.823682
1 0 0.815808
0 0.290974 0.85655
0 0.264134 0.846708
0 0.238819 0.837491
0.176059 0.21503 0.828885
0.427298 0.192798 0.820844
0.574182 0.170932 0.812955
0.712581 0.149248 0.805173
0.850309 0.127077 0.797208
0.987396 0.103365 0.788708
0 0.472511 0.825971
0 0.448432 0.817945
0 0.425864 0.810101
0.0472725 0.404242 0.802365
0.358343 0.381949 0.794263
0.530587 0.358038 0.78555
0.66714 0.333639 0.776638
0.803388 0.310735 0.767742
0.93962 0.286595 0.75874
0 0.709453 0.799451
0 0.680751 0.791058
0 0.650568 0.782254
0 0.619989 0.773342
0.281178 0.589212 0.76437
0.482765 0.558999 0.755581
0.619455 0.528801 0.746777
0.756161 0.498512 0.738003
0.892546 0.470512 0.72929
0 0.937758 0.770031
0 0.907179 0.761135
0 0.876982 0.752331
0 0.847059 0.743618
0.178103 0.816602 0.734752
0.426841 0.786923 0.726116
0.572457 0.757076 0.717433
0.709255 0.727123 0.708721
0.845731 0.697307 0.700053
0 1 0.740276
0 1 0.731624
0 1 0.722911
0 1 0.714229
0.0344854 1 0.705531
0.350042 1 0.696849
0.525658 0.985779 0.688228
0.662242 0.955398 0.679393
0.798657 0.925307 0.670634
0 1 0.710994
0 1 0.702327
0 1 0.693675
0 1 0.684901
0 1 0.676173
0.272358 1 0.66746
0.478218 1 0.658625
0.614221 1 0.649393
0.750088 1 0.640269
