public/sampleLut/29.cube
TITLE "Generated by Resolve"
LUT_3D_SIZE 33
0 0 0.193866
0 0 0.192447
0 0 0.191104
0 0 0.189792
0.0640116 0 0.188434
0.165988 0 0.187091
0.242573 0 0.185733
0.305501 0 0.18439
0.357031 0 0.183047
0.411734 0 0.18172
0.459358 0 0.180377
0.491936 0 0.179019
0.524895 0 0.177676
0.557641 0 0.176257
0.590753 0 0.174945
0.623896 0 0.173648
0.656855 0 0.17229
0.689784 0 0.170932
0.722698 0 0.169574
0.755703 0 0.168231
0.788373 0 0.166888
0.82118 0 0.165499
0.853971 0 0.164111
0.8869 0 0.162753
0.919676 0 0.161349
0.952483 0 0.15996
0.985306 0 0.158587
1 0 0.157198
1 0 0.15581
1 0 0.154406
1 0 0.153017
1 0 0.151659
1 0 0.150286
0 0 0.189273
0 0 0.187915
0 0 0.186603
0 0 0.18526
0.013138 0 0.183902
0.120409 0 0.182559
0.208026 0 0.181216
0.277531 0 0.179889
0.331319 0 0.178546
0.385428 0 0.177142
0.437888 0 0.175799
0.475959 0 0.174456
0.508934 0 0.173114
0.542153 0 0.171832
0.575082 0 0.170459
0.60798 0 0.1691
0.640848 0 0.167712
0.673793 0 0.166369
0.706676 0 0.164981
0.739605 0 0.163622
0.772427 0 0.162234
0.804974 0 0.160861
0.837781 0 0.159472
0.870527 0 0.158068
0.903319 0 0.156664
0.936248 0 0.155322
0.969055 0 0.153933
1 0 0.152529
1 0 0.151125
1 0 0.149737
1 0 0.148394
1 0 0.147021
1 0 0.145632
0 0 0.184771
0 0 0.183429
0 0 0.182071
0 0 0.180728
0 0 0.17937
0.0682078 0 0.178027
0.169085 0 0.176654
0.245289 0 0.175341
0.3075 0 0.173999
0.359213 0 0.172641
0.413596 0 0.171283
0.460517 0 0.169955
0.493248 0 0.168612
0.526116 0 0.167239
0.558953 0 0.16585
0.591775 0 0.164462
0.624735 0 0.163104
0.657557 0 0.161715
0.690455 0 0.160342
0.723247 0 0.158938
0.756161 0 0.15758
0.788632 0 0.156176
0.821393 0 0.154772
0.854276 0 0.153414
0.88716 0 0.152041
0.919921 0 0.150637
0.952697 0 0.149248
0.985565 0 0.147875
1 0 0.146517
1 0 0.145159
1 0 0.143771
1 0 0.142397
1 0 0.14107
0 0.0285191 0.18024
0 0.0202029 0.178897
0 0.0114443 0.177478
0 0.00320439 0.176135
0 0 0.174792
0.0175479 0 0.173526
0.124681 0 0.172168
0.211032 0 0.170809
0.279789 0 0.169436
0.333135 0 0.168093
0.387732 0 0.166751
0.439689 0 0.165362
0.477028 0 0.163973
0.50988 0 0.1626
0.542779 0 0.161227
0.57557 0 0.159823
0.608469 0 0.15845
0.64126 0 0.157046
0.674174 0 0.155688
0.706966 0 0.154284
0.739757 0 0.15288
0.772503 0 0.151476
0.80528 0 0.150149
0.838056 0 0.14876
0.870863 0 0.147372
0.903685 0 0.145983
0.936645 0 0.14464
0.969497 0 0.143267
1 0 0.141924
1 0 0.140581
1 0 0.139269
1 0 0.137926
1 0 0.136584
0 0.0673533 0.175677
0 0.0590829 0.174334
0 0.050782 0.172976
0 0.0425879 0.171649
0 0.0344854 0.170336
0 0.0260319 0.168963
0.0721599 0.0175479 0.16759
0.172122 0.00900282 0.166201
0.24744 0.000671397 0.164843
0.308934 0 0.163485
0.360616 0 0.162097
0.414725 0 0.160708
0.461036 0 0.159335
0.493584 0 0.157931
0.52636 0 0.156527
0.559274 0 0.155154
0.592203 0 0.153796
0.624994 0 0.152392
0.657786 0 0.150988
0.690593 0 0.149599
0.723537 0 0.148241
0.756512 0 0.146899
0.789059 0 0.14551
0.821881 0 0.144121
0.854871 0 0.142794
0.887755 0 0.141421
0.920806 0 0.140108
0.953765 0 0.138766
0.986877 0 0.137453
1 0 0.136126
1 0 0.134798
1 0 0.133501
1 0 0.132296
0 0.106508 0.17116
0 0.0982071 0.169802
0 0.0899825 0.168475
0 0.08159 0.167102
0 0.0730449 0.165728
0 0.0644694 0.164324
0.0201419 0.0561227 0.162982
0.126757 0.0475166 0.161578
0.212512 0.0391089 0.16022
0.280842 0.030457 0.158816
0.333883 0.0220035 0.157443
0.388159 0.0133974 0.156039
0.439979 0.00477607 0.154635
0.477272 0 0.153262
0.510231 0 0.151904
0.543023 0 0.150515
0.57583 0 0.149111
0.608667 0 0.147723
0.641657 0 0.14638
0.674617 0 0.145022
0.7075 0 0.143648
0.740398 0 0.142275
0.773159 0 0.140948
0.806104 0 0.139605
0.839063 0 0.138262
0.872175 0 0.136965
0.905318 0 0.135668
0.938384 0 0.134356
0.971527 0 0.133059
1 0 0.131777
1 0 0.130541
1 0 0.12932
1 0 0.128084
0 0.145449 0.166598
0 0.137072 0.16524
0 0.128496 0.163851
0 0.119905 0.162448
0 0.111528 0.161089
0 0.102892 0.159686
0 0.094316 0.158297
0.0735027 0.0858015 0.156924
0.173358 0.077409 0.15555
0.248081 0.0687724 0.154147
0.309209 0.0601358 0.152758
0.36083 0.0514992 0.151354
0.415137 0.043122 0.149996
0.461295 0.0347448 0.148638
0.493919 0.0261997 0.14725
0.526787 0.0176699 0.145861
0.559762 0.0093843 0.144518
0.592645 0.000915541 0.14313
0.62565 0 0.141787
0.658625 0 0.140444
0.691752 0 0.139147
0.724758 0 0.137804
0.757763 0 0.136461
0.790509 0 0.135134
0.82388 0 0.133913
0.857038 0 0.132616
0.890242 0 0.13135
0.923445 0 0.130068
0.956771 0 0.128832
0.990341 0 0.127657
1 0 0.126467
1 0 0.125292
1 0 0.124117
0 0.183932 0.161975
0 0.175326 0.160571
0 0.166796 0.159182
0 0.158251 0.157794
0 0.149599 0.15639
0 0.141009 0.155001
0 0.132677 0.153658
0.0209964 0.124147 0.15227
0.12752 0.115511 0.150866
0.212818 0.106889 0.149462
0.281468 0.098558 0.148119
0.334524 0.0902419 0.146761
0.388907 0.0817273 0.145388
0.440726 0.073228 0.143999
0.477836 0.0648356 0.142641
0.510842 0.0565805 0.141299
0.543877 0.0483558 0.139956
0.576928 0.0402075 0.138643
0.610025 0.032105 0.137316
0.643107 0.0239872 0.136004
0.676188 0.0158694 0.134691
0.709331 0.00787366 0.133379
0.742748 0.000320439 0.132158
0.775769 0 0.130907
0.808988 0 0.129641
0.842283 0 0.128389
0.875792 0 0.127199
0.909331 0 0.126024
0.943008 0 0.12488
0.976593 0 0.12372
1 0 0.122576
1 0 0.121492
1 0 0.120409
0 0.221836 0.157275
0 0.213489 0.155917
0 0.204898 0.154513
0 0.196307 0.153109
0 0.18793 0.151736
0 0.179553 0.150378
0 0.170947 0.148989
0 0.162387 0.147601
0.0746471 0.153979 0.146227
0.174304 0.145602 0.144869
0.24921 0.137301 0.143526
0.310155 0.128832 0.142153
0.362341 0.120653 0.140826
0.416709 0.112413 0.139483
0.462226 0.104143 0.13814
0.495186 0.0959793 0.136812
0.528313 0.0879377 0.135515
0.561563 0.0801251 0.134234
0.594736 0.0721752 0.132952
0.62797 0.0643015 0.13167
0.661234 0.0565042 0.130404
0.694697 0.0490883 0.129198
0.72813 0.0415961 0.127977
0.761608 0.034165 0.126772
0.794842 0.0268864 0.125582
0.82855 0.0199283 0.124453
0.862135 0.0127565 0.123293
0.895964 0.00602731 0.122194
0.929732 0 0.12108
0.963729 0 0.120043
0.997681 0 0.118975
1 0 0.117906
1 0 0.116899
0 0.2598 0.152621
0 0.25127 0.151217
0 0.242756 0.149813
0 0.234699 0.148501
0 0.22623 0.147112
0 0.217762 0.145739
0 0.209293 0.14435
0 0.201099 0.143008
0.0228885 0.192721 0.141649
0.130205 0.184619 0.140322
0.215259 0.176394 0.138994
0.283909 0.168322 0.137682
0.336583 0.160082 0.136339
0.391363 0.151919 0.135012
0.443519 0.144213 0.133761
0.480156 0.136477 0.132509
0.51339 0.128634 0.131228
0.546624 0.120806 0.129961
0.579934 0.113069 0.12871
0.613535 0.105867 0.127535
0.64715 0.0987106 0.126375
0.68072 0.0914626 0.125185
0.714305 0.0842451 0.12401
0.748058 0.0773022 0.122896
0.781552 0.0704509 0.121782
0.815442 0.0638437 0.120699
0.849424 0.0573739 0.119646
0.88333 0.050782 0.118578
0.917464 0.0445869 0.117556
0.951507 0.0382544 0.116533
0.985641 0.0320592 0.115526
1 0.026154 0.114565
1 0.0202182 0.113588
0 0.2972 0.147951
0 0.289311 0.146624
0 0.281025 0.145251
0 0.272694 0.143877
0 0.264363 0.142504
0 0.256336 0.141176
0 0.248112 0.139818
0 0.240177 0.138521
0 0.231983 0.137179
0.0798047 0.224094 0.135882
0.178607 0.216037 0.134569
0.253071 0.208103 0.133272
0.313375 0.200244 0.131991
0.366812 0.19295 0.1308
0.421317 0.185183 0.129534
0.4654 0.177523 0.128283
0.498848 0.170062 0.127077
0.532555 0.163027 0.125933
0.566155 0.155825 0.124758
0.599878 0.148852 0.123629
0.633555 0.141787 0.122484
0.667475 0.135134 0.121401
0.701396 0.128527 0.120317
0.735317 0.121904 0.119249
0.769345 0.11545 0.118196
0.803143 0.109194 0.117174
0.8374 0.103227 0.116197
0.871565 0.0970779 0.115206
0.90576 0.0909895 0.114214
0.939971 0.0849622 0.113222
0.974441 0.0793622 0.112306
1 0.0736553 0.111376
1 0.0681315 0.110491
0 0.333471 0.143389
0 0.325673 0.142031
0 0.318013 0.140673
0 0.310597 0.139361
0 0.302846 0.138018
0 0.294881 0.136675
0 0.287129 0.135393
0 0.27953 0.134127
0 0.271748 0.13283
0.0307164 0.264012 0.131563
0.138079 0.256291 0.130282
0.221988 0.24889 0.129061
0.290532 0.241642 0.127871
0.342947 0.234318 0.126665
0.398642 0.2271 0.12549
0.450217 0.220081 0.124346
0.485313 0.213092 0.123201
0.519188 0.206409 0.122103
0.553017 0.199664 0.121004
0.586923 0.193042 0.119921
0.621027 0.186755 0.118898
0.655009 0.18024 0.11783
0.689082 0.173892 0.116793
0.723384 0.167941 0.115831
0.757595 0.161822 0.114824
0.791699 0.156069 0.113893
0.825925 0.150057 0.112917
0.860243 0.144167 0.111955
0.894652 0.138476 0.111025
0.929183 0.132998 0.11014
0.963592 0.127306 0.109209
0.998215 0.121965 0.108339
1 0.116457 0.107439
0 0.371847 0.138857
0 0.363989 0.13756
0 0.355871 0.136217
0 0.347814 0.134905
0 0.340063 0.133623
0 0.33286 0.132403
0 0.325567 0.131121
0 0.318395 0.129854
0 0.311315 0.128603
0 0.30454 0.127428
0.093431 0.297719 0.126268
0.18999 0.290715 0.125093
0.263279 0.283665 0.123919
0.321355 0.276722 0.122759
0.376623 0.270222 0.121691
0.431281 0.2636 0.120592
0.472633 0.257374 0.11957
0.506569 0.250874 0.118486
0.540612 0.244526 0.117449
0.574838 0.238514 0.116457
0.609018 0.232395 0.11545
0.643229 0.226337 0.114458
0.677653 0.220645 0.113527
0.711955 0.214725 0.112551
0.746502 0.209232 0.11165
0.780621 0.203525 0.110719
0.815015 0.197818 0.109789
0.84947 0.192248 0.108873
0.884092 0.186938 0.108003
0.918593 0.18143 0.107103
0.953262 0.176196 0.106249
0.987793 0.170703 0.105348
1 0.165225 0.104463
0 0.411215 0.134447
0 0.403296 0.133165
0 0.395499 0.131884
0 0.388052 0.130648
0 0.380621 0.129427
0 0.373129 0.128191
0 0.365805 0.12697
0 0.358755 0.125811
0 0.351766 0.124651
0 0.344839 0.123522
0.0488746 0.338018 0.122393
0.155688 0.331548 0.121279
0.236789 0.325628 0.120241
0.30277 0.31957 0.119158
0.355688 0.313542 0.11809
0.412238 0.307881 0.117098
0.460731 0.301976 0.116075
0.494835 0.29633 0.115129
0.529061 0.29041 0.114137
0.563317 0.284535 0.113161
0.597818 0.279057 0.112245
0.632212 0.273396 0.111299
0.666712 0.267887 0.110384
0.701259 0.26247 0.109483
0.735729 0.256901 0.108568
0.770245 0.251408 0.107668
0.804639 0.246296 0.106813
0.839155 0.240833 0.105913
0.873671 0.23537 0.105028
0.908202 0.229953 0.104128
0.942916 0.224842 0.103288
0.977462 0.219409 0.102403
1 0.214252 0.101564
0 0.45301 0.130175
0 0.444846 0.128908
0 0.437537 0.127779
0 0.429938 0.126574
0 0.422538 0.125399
0 0.415259 0.124224
0 0.408392 0.12311
0 0.401617 0.121996
0 0.395071 0.120912
0 0.388525 0.119829
0.00846876 0.382132 0.118776
0.119371 0.375937 0.117754
0.209796 0.369696 0.116716
0.281422 0.363806 0.11574
0.336583 0.357885 0.114763
0.393347 0.351934 0.113771
0.446799 0.346273 0.11284
0.483513 0.340475 0.111894
0.517922 0.334936 0.110948
0.552499 0.329839 0.110063
0.586984 0.32462 0.109148
0.621469 0.319478 0.108232
0.656184 0.314687 0.107378
0.690715 0.30959 0.106477
0.725261 0.304417 0.105577
0.760006 0.299489 0.104738
0.794263 0.294179 0.103853
0.828794 0.288853 0.102953
0.86331 0.283497 0.102068
0.897826 0.278096 0.101167
0.932326 0.272679 0.100267
0.967102 0.26772 0.099443
1 0.262165 0.0985275
0 0.500587 0.126146
0 0.491997 0.125002
0 0.483726 0.123827
0 0.475761 0.122683
0 0.468467 0.121599
0 0.461173 0.120516
0 0.454185 0.119448
0 0.44741 0.11841
0 0.44065 0.117357
0 0.43444 0.116381
0 0.428122 0.115373
0.0807965 0.421927 0.114382
0.182513 0.416022 0.113436
0.258732 0.410208 0.11249
0.319341 0.404685 0.111589
0.375189 0.399023 0.110658
0.430838 0.393378 0.109728
0.472709 0.387793 0.108797
0.507408 0.382635 0.107942
0.541939 0.377218 0.107042
0.576486 0.371786 0.106142
0.611139 0.366567 0.105272
0.645762 0.361288 0.104402
0.680476 0.356161 0.103548
0.715084 0.35082 0.102678
0.74963 0.345357 0.101778
0.783871 0.339925 0.100877
0.818357 0.3346 0.0999771
0.852781 0.32929 0.0990616
0.887343 0.3243 0.0981765
0.921736 0.319081 0.0972457
0.956069 0.313726 0.0962997
0.990265 0.308141 0.0953231
0 0.553979 0.122301
0 0.545617 0.121187
0 0.537545 0.120119
0 0.529686 0.119081
0 0.52166 0.118013
0 0.514168 0.117021
0 0.506493 0.115999
0 0.498985 0.115023
0 0.491844 0.114076
0 0.484916 0.113085
0 0.47837 0.112139
0.0448463 0.47219 0.111238
0.153948 0.465888 0.110307
0.236439 0.459876 0.109407
0.303487 0.454002 0.108507
0.357382 0.448096 0.107607
0.414557 0.442481 0.106722
0.462486 0.436927 0.105852
0.496971 0.43125 0.104967
0.531533 0.425681 0.104067
0.56614 0.420188 0.103182
0.600778 0.414816 0.102312
0.635508 0.409628 0.101472
0.6701 0.404227 0.100587
0.704585 0.398672 0.0996872
0.739025 0.393057 0.0987564
0.773159 0.387427 0.0978256
0.807523 0.381765 0.0968948
0.841962 0.376226 0.0959793
0.876158 0.370275 0.0949874
0.910277 0.364202 0.0939803
0.944411 0.358129 0.0929885
0.9785 0.351965 0.0919661
0 0.608957 0.118685
0 0.601251 0.117662
0 0.593561 0.11664
0 0.585962 0.115633
0 0.578851 0.114687
0 0.57142 0.113695
0 0.564218 0.112749
0 0.557275 0.111818
0 0.55021 0.110887
0 0.543267 0.109972
0 0.536614 0.109087
0.0104829 0.529732 0.108171
0.123095 0.523186 0.107301
0.213657 0.516533 0.106416
0.285313 0.509743 0.105516
0.340352 0.50309 0.104646
0.397879 0.496559 0.103792
0.450797 0.490013 0.102892
0.486595 0.483726 0.102007
0.521141 0.477516 0.101106
0.555657 0.471336 0.100191
0.590311 0.465522 0.0993362
0.62475 0.459342 0.0984054
0.659175 0.453223 0.0974746
0.693568 0.44712 0.0965438
0.727962 0.441093 0.095613
0.762234 0.434882 0.0946365
0.796124 0.428611 0.0936446
0.830228 0.422278 0.0926375
0.864347 0.416052 0.0916304
0.89839 0.409705 0.0906081
0.932433 0.403403 0.0895705
0.966552 0.397284 0.0885786
0 0.665812 0.115312
0 0.658335 0.114321
0 0.650919 0.113329
0 0.644038 0.112413
0 0.636896 0.111467
0 0.630243 0.110582
0 0.623224 0.109651
0 0.616281 0.108736
0 0.609842 0.107881
0 0.603037 0.106981
0 0.596262 0.106081
0 0.589502 0.10518
0.0889296 0.58291 0.104311
0.18938 0.576471 0.103456
0.265049 0.570108 0.102602
0.324025 0.563348 0.101717
0.380606 0.556573 0.100816
0.435813 0.549706 0.0999008
0.47602 0.542733 0.0989853
0.510491 0.535836 0.0980697
0.545037 0.529091 0.0971695
0.57937 0.521889 0.0962234
0.613596 0.514427 0.0952316
0.647761 0.506813 0.0942245
0.681926 0.499107 0.0932326
0.716152 0.491737 0.0922408
0.750332 0.484672 0.091249
0.7841 0.477531 0.0902266
0.818173 0.470558 0.0892042
0.852247 0.463722 0.0881819
0.88632 0.456931 0.0871748
0.92047 0.450416 0.086183
0.95462 0.443946 0.0851759
0 0.723598 0.112062
0 0.716869 0.111162
0 0.709895 0.110246
0 0.702892 0.109316
0 0.696178 0.108415
0 0.68954 0.107546
0 0.68275 0.106645
0 0.676387 0.105791
0 0.669642 0.104891
0 0.662913 0.104005
0 0.656184 0.10312
0 0.649439 0.10222
0.05449 0.64271 0.101335
0.162936 0.636393 0.100496
0.243565 0.62974 0.0996109
0.308415 0.622736 0.0986801
0.362661 0.615717 0.0977493
0.419196 0.608637 0.0968185
0.465034 0.601419 0.0958572
0.499367 0.594186 0.0948959
0.533516 0.586587 0.093904
0.567681 0.579004 0.0928969
0.601801 0.571328 0.0918746
0.635874 0.563546 0.0908522
0.67013 0.556176 0.0898756
0.70425 0.548501 0.0888685
0.738369 0.540795 0.0878462
0.772442 0.533043 0.0868238
0.80621 0.525322 0.0858015
0.840375 0.517815 0.0848096
0.874586 0.51043 0.0838331
0.908629 0.502571 0.0828107
0.942641 0.494667 0.0817731
0 0.782864 0.10901
0 0.776089 0.10811
0 0.769284 0.10721
0 0.762692 0.106325
0 0.7561 0.105455
0 0.749355 0.104555
0 0.743053 0.103716
0 0.736324 0.102831
0 0.729564 0.10193
0 0.722789 0.10103
0 0.715953 0.10013
0 0.709392 0.0992599
0.0208133 0.702388 0.0983291
0.132372 0.695369 0.0973983
0.219837 0.688212 0.0964523
0.290074 0.680827 0.0954757
0.343633 0.673243 0.0944686
0.40061 0.666041 0.0935225
0.452506 0.658442 0.0925154
0.487434 0.650782 0.0915084
0.521462 0.642924 0.0904707
0.555566 0.635187 0.0894484
0.5897 0.627558 0.0884413
0.623957 0.620188 0.0874647
0.658045 0.612436 0.0864424
0.692149 0.604746 0.08542
0.726284 0.597101 0.0844129
0.760418 0.589471 0.0834058
0.794278 0.581918 0.082414
0.828489 0.574517 0.0814374
0.862593 0.566903 0.0804303
0.896712 0.559304 0.0794232
0.930846 0.55172 0.0784314
0 0.842618 0.10602
0 0.835859 0.105119
0 0.829129 0.104219
0 0.822736 0.10338
0 0.816312 0.102525
0 0.809689 0.10164
0 0.802884 0.10074
0 0.796002 0.0998398
0 0.789014 0.098909
0 0.781979 0.0979782
0 0.77528 0.0970932
0 0.768093 0.0961318
0 0.760601 0.09514
0.0956283 0.752987 0.0941482
0.192966 0.745403 0.0931411
0.266835 0.737774 0.092134
0.324926 0.730388 0.0911574
0.380835 0.722606 0.0901198
0.435431 0.7149 0.0891127
0.475425 0.707225 0.0880903
0.509514 0.699489 0.087068
0.543603 0.691752 0.0860456
0.57789 0.684459 0.0850843
0.612024 0.676829 0.0840772
0.646159 0.669169 0.0830701
0.680278 0.661509 0.082063
0.714412 0.653864 0.0810559
0.74873 0.646632 0.0800946
0.782498 0.638865 0.0790723
0.816571 0.631174 0.0780499
0.85069 0.62359 0.0770581
0.88481 0.615991 0.076051
0.918975 0.608484 0.0750591
0 0.902525 0.103044
0 0.895781 0.102159
0 0.889006 0.101259
0 0.882429 0.100389
0 0.875853 0.0995193
0 0.86891 0.0985885
0 0.861921 0.097673
0 0.854856 0.0967269
0 0.847532 0.0957656
0 0.840345 0.0948196
0 0.832746 0.0938125
0 0.825162 0.0928054
0 0.817472 0.091783
0.0562905 0.809674 0.0907607
0.163012 0.802213 0.0897688
0.24271 0.794614 0.088777
0.307317 0.786923 0.0877546
0.360861 0.779156 0.0867323
0.416953 0.771344 0.0856947
0.463355 0.763516 0.0846723
0.497642 0.756252 0.083711
0.531762 0.748592 0.0826886
0.565896 0.740932 0.0816815
0.600031 0.733303 0.0806744
0.63418 0.725689 0.0796674
0.66833 0.718105 0.0786755
0.702663 0.710903 0.0777142
0.736812 0.703319 0.0767224
0.770962 0.69572 0.0757153
0.804807 0.688167 0.0747234
0.838941 0.680613 0.0737316
0.873091 0.67306 0.0727245
0.907286 0.665644 0.0717479
0 0.962249 0.100053
0 0.955398 0.0991531
0 0.948653 0.0982528
0 0.941619 0.097322
0 0.934447 0.096376
0 0.927001 0.0953994
0 0.919402 0.0943923
0 0.912001 0.0934157
0 0.904585 0.0924239
0 0.896834 0.0914015
0 0.889052 0.0903792
0 0.881331 0.0893568
0 0.873655 0.0883497
0.0178988 0.866194 0.0873579
0.128695 0.858549 0.0863508
0.216617 0.850858 0.0853285
0.287114 0.843229 0.0843214
0.341024 0.835584 0.0833143
0.397635 0.827909 0.0823072
0.450202 0.8206 0.0813306
0.485771 0.813016 0.0803388
0.519921 0.805417 0.0793317
0.554086 0.797848 0.0783398
0.588205 0.790188 0.0773327
0.62237 0.782605 0.0763256
0.656596 0.775174 0.075349
0.690761 0.767636 0.0743572
0.724956 0.760113 0.0733654
0.759121 0.75256 0.0723583
0.792966 0.744991 0.0713664
0.827298 0.737865 0.0704204
0.861463 0.730373 0.0694285
0.895613 0.72285 0.068452
0 1 0.0969863
0 1 0.0960555
0 1 0.0950637
0 0.999146 0.0940566
0 0.991577 0.0930495
0 0.983902 0.0920424
0 0.976287 0.0910353
0 0.968734 0.0900282
0 0.961044 0.0890211
0 0.953353 0.0879988
0 0.945602 0.0869764
0 0.937865 0.0859541
0 0.930571 0.0849928
0 0.922957 0.0839857
0.0902419 0.915297 0.0829786
0.188891 0.907591 0.0819562
0.263264 0.899733 0.0809186
0.322225 0.892332 0.079942
0.378073 0.884871 0.0789654
0.433036 0.877287 0.0779583
0.473854 0.869703 0.0769665
0.508003 0.862089 0.0759594
0.542168 0.85452 0.0749523
0.576486 0.847303 0.0740063
0.610712 0.839857 0.0730297
0.644877 0.832288 0.0720226
0.678965 0.824582 0.0710155
0.7131 0.816968 0.0700084
0.747295 0.809461 0.0690166
0.781338 0.802304 0.0680705
0.815503 0.794812 0.0670787
0.849668 0.787305 0.0661021
0.883833 0.779812 0.0651102
0 1 0.0936904
0 1 0.0926833
0 1 0.0916915
0 1 0.0906691
0 1 0.0896315
0 1 0.0886397
0 1 0.0876326
0 1 0.0865949
0 1 0.0855726
0 1 0.0845655
0 1 0.0835737
0 0.994705 0.0825971
0 0.987045 0.08159
0 0.979416 0.0805829
0.050782 0.971801 0.0795758
0.158267 0.964218 0.078584
0.239185 0.956832 0.0776074
0.304982 0.949416 0.0766308
0.358389 0.941833 0.0756237
0.41474 0.934203 0.0746166
0.462089 0.926467 0.0735943
0.496162 0.918929 0.0726024
0.530434 0.91162 0.0716411
0.564675 0.904219 0.0706645
0.598871 0.896727 0.0696727
0.633051 0.88922 0.0686809
0.667247 0.881682 0.067689
0.701396 0.874128 0.0666972
0.735683 0.866819 0.0657359
0.769863 0.859312 0.064744
0.803738 0.85182 0.0637522
0.837903 0.844327 0.0627604
0.872068 0.836835 0.0617838
0 1 0.0902876
0 1 0.0892653
0 1 0.0882582
0 1 0.0872358
0 1 0.0862593
0 1 0.0852369
0 1 0.0842298
0 1 0.0832227
0 1 0.0822156
0 1 0.0812085
0 1 0.0802472
0 1 0.0792401
0 1 0.0782177
0 1 0.0772106
0.0126192 1 0.0762036
0.124178 1 0.0752575
0.213504 1 0.0742504
0.284474 1 0.0732586
0.338903 0.998657 0.0722667
0.39556 0.991104 0.0712749
0.448417 0.983734 0.0702983
0.484627 0.976471 0.069337
0.518685 0.968688 0.0683146
0.552865 0.961166 0.0673228
0.58706 0.953658 0.066331
0.621256 0.946166 0.0653391
0.655558 0.938903 0.0643931
0.68983 0.931594 0.0634165
0.724025 0.924102 0.0624399
0.758099 0.91632 0.0614176
0.791974 0.908843 0.0604257
0.826154 0.901366 0.0594339
0.860456 0.894179 0.0584878
0 1 0.0868849
0 1 0.0858625
0 1 0.0848859
0 1 0.0838941
0 1 0.0828565
0 1 0.0818341
0 1 0.080827
0 1 0.0798199
0 1 0.0788739
