public/sampleLut/29.cube
TITLE "Generated by Resolve"
LUT_3D_SIZE 5
0 0 0.193866
0.357031 0 0.183047
0.656855 0 0.17229
0.919676 0 0.161349
1 0 0.150286
0 0.221836 0.157275
0.0746471 0.153979 0.146227
0.528313 0.0879377 0.135515
0.794842 0.0268864 0.125582
1 0 0.116899
0 0.553979 0.122301
0 0.491844 0.114076
0.414557 0.442481 0.106722
0.704585 0.398672 0.0996872
0.9785 0.351965 0.0919661
0 1 0.0969863
0 0.961044 0.0890211
0.263264 0.899733 0.0809186
0.610712 0.839857 0.0730297
0.883833 0.779812 0.0651102
0 1 0.0700542
0 1 0.062211
0.00642405 1 0.0543374
0.516823 1 0.046479
0.789883 1 0.0385138
0 0 0.41326
0.336019 0 0.370321
0.644007 0 0.309499
0.906493 0 0.256138
1 0 0.232853
0 0.198596 0.242695
0.0324712 0.130861 0.229541
0.51606 0.0662089 0.219043
0.784024 0.00769055 0.209506
1 0 0.201328
0 0.531624 0.206378
0 0.473671 0.198581
0.400885 0.427024 0.191409
0.695796 0.383368 0.184283
0.96878 0.335103 0.176303
0 1 0.181415
0 0.939956 0.173358
0.243748 0.879057 0.165316
0.601083 0.819028 0.157412
0.874388 0.75935 0.149538
0 1 0.154467
0 1 0.146593
0 1 0.138766
0.507149 1 0.130846
0.780179 1 0.122881
0 0 0.607355
0.316152 0 0.58349
0.630854 0 0.559579
0.893324 0 0.535164
1 0 0.510842
0 0.175082 0.526101
0 0.108354 0.502174
0.504234 0.0452277 0.479515
0.773892 0 0.459556
1 0 0.441123
0 0.510506 0.452934
0 0.457145 0.432975
0.387213 0.412238 0.409445
0.686351 0.366949 0.380255
0.959075 0.319203 0.338735
0 0.979995 0.367056
0 0.918654 0.320195
0.223301 0.858305 0.278538
0.591485 0.79823 0.246082
0.864805 0.738613 0.233066
0 1 0.238727
0 1 0.230945
0 1 0.223117
0.49749 1 0.215152
0.770291 1 0.207019
0 0 0.791318
0.29688 0 0.767636
0.617716 0 0.74345
0.880034 0 0.718944
1 0 0.695003
0 0.151934 0.710063
0 0.0860761 0.686458
0.49308 0.0254215 0.664698
0.764279 0 0.645548
1 0 0.629007
0 0.490166 0.63946
0 0.441215 0.623331
0.373007 0.397253 0.607675
0.67689 0.350454 0.590616
0.949432 0.30341 0.572747
0 0.959014 0.584054
0 0.897749 0.566186
0.201648 0.837583 0.548638
0.581933 0.777539 0.531167
0.855177 0.717769 0.513741
0 1 0.524788
0 1 0.507424
0 1 0.489891
0.487877 1 0.472404
0.760372 1 0.454261
0 0 0.975494
0.272099 0 0.951675
0.60441 0 0.927306
0.866896 0 0.902892
1 0 0.879286
0 0.129 0.894148
0 0.0645151 0.871031
0.482307 0.00631724 0.850156
0.755077 0 0.831983
1 0 0.815808
0 0.472511 0.825971
0 0.425864 0.810101
0.358343 0.381949 0.794263
0.66714 0.333639 0.776638
0.93962 0.286595 0.75874
0 0.937758 0.770031
0 0.876982 0.752331
0.178103 0.816602 0.734752
0.572457 0.757076 0.717433
0.845731 0.697307 0.700053
0 1 0.710994
0 1 0.693675
0 1 0.676173
0.478218 1 0.658625
0.750088 1 0.640269
