public/sampleLut/30.cube
TITLE "Generated by Resolve"
LUT_3D_SIZE 5
0 0 0
0 0 0
0.660304 0 0
1 0 0
1 0 0
0 0.17911 0.022797
0.179904 0.240375 0
0.944015 0.324453 0
1 0.304173 0
1 0.276844 0
0 0.562493 0
0.157 0.576928 0.0039826
0.569177 0.600244 0
1 0.748409 0
1 0.775708 0
0 0.908248 0.0170291
0.162554 0.915846 0.022034
0.533898 0.902785 0.00856031
0.894026 0.936751 0
1 1 0
0 1 0.037705
0.162341 1 0.0328527
0.524636 1 0.0129549
0.841962 1 0.00360113
1 1 0
0 0 0
0.029984 0.0065156 0.0375067
0.419013 0 0.208774
0.872114 0 0.260716
1 0 0.280308
0 0.0670481 0.0742962
0.172915 0.233249 0.264622
0.864317 0.29366 0.32842
1 0.286976 0.320516
1 0.277302 0.309422
0 0.4654 0.147112
0.158862 0.585977 0.259556
0.567056 0.598535 0.249775
1 0.791577 0.156649
1 0.77673 0.106798
0 0.866697 0.217411
0.163317 0.92137 0.273014
0.532204 0.905074 0.252293
0.892271 0.935485 0.24654
1 1 0.0980087
0 1 0.267185
0.161517 1 0.280446
0.524941 1 0.258869
0.839567 1 0.242832
1 1 0.238071
0 0 0
0.0749523 0.00723278 0.18909
0.475441 0 0.506142
0.885863 0 0.60267
1 0 0.609979
0 0.0550698 0.14786
0.106615 0.161166 0.536461
0.576944 0.238209 0.62565
0.909529 0.247089 0.629908
1 0.263111 0.644251
0 0.253651 0.265003
0 0.265034 0.277699
0.5561 0.587884 0.614298
1 0.766079 0.79765
1 0.743862 0.774838
0 0.654597 0.319387
0.0758526 0.833234 0.513451
0.537133 0.915892 0.604608
0.88484 0.928496 0.597299
1 1 0.617426
0 1 0.462882
0.143343 1 0.602304
0.525841 1 0.603204
0.834882 1 0.576516
1 1 0.589914
0 0 0
0.110216 0 0.445228
0.518334 0 0.85507
0.885847 0 0.940017
1 0 0.945144
0 0.0729076 0.354223
0.0990768 0.154086 0.873106
0.570764 0.239948 0.9608
0.90396 0.24715 0.967071
1 0.258228 0.975418
0 0.180453 0.426291
0 0.162722 0.481544
0.454047 0.481086 0.863859
0.895613 0.593042 0.967681
1 0.604257 0.974014
0 0.430808 0.451789
0 0.362982 0.380606
0.102083 0.468803 0.490517
0.869291 0.912993 0.949508
1 1 1
0 0.80322 0.489281
0 0.930999 0.633265
0.42948 1 0.853376
0.844892 1 0.933043
1 1 0.937743
0 0 0
0.133364 0 0.765835
0.544411 0 1
0.883055 0 1
1 0 1
0 0.0912337 0.671229
0.100298 0.155962 1
0.56286 0.236545 1
0.901015 0.249882 1
1 0.26096 1
0 0.18732 0.707927
0 0.211765 0.926497
0.417975 0.44358 1
0.888731 0.592752 1
1 0.601373 1
0 0.338857 0.686397
0 0.269505 0.63682
0 0.255772 0.637705
0.727245 0.76643 1
1 0.914916 1
0 0.577661 0.604974
0 0.511543 0.535912
0 0.462867 0.484749
0.252155 0.639155 0.667323
1 1 1
