public/sampleLut/30.cube
TITLE "Generated by Resolve"
LUT_3D_SIZE 33
0 0 0
0 0 0
0 0 0
0 0 0
0 0 0
0 0 0
0 0 0
0 0 0
0 0 0
0.0339208 0.0019379 0.00645457
0.106081 0 0.0114443
0.191592 0 0.0124819
0.276188 0 0.0100252
0.367498 0 0.00460822
0.45713 0 0
0.554284 0 0
0.660304 0 0
0.755535 0 0
0.857542 0 0
0.958755 0 0
1 0 0
1 0 0
1 0 0
1 0 0
1 0 0
1 0 0
1 0 0
1 0 0
1 0 0
1 0 0
1 0 0
1 0 0
1 0 0
0 0 0
0 0 0
0 0 0
0 0 0
0 0 0
0 0 0
0 0 0
0.0425879 0.0059205 0.00634775
0.120897 0.00560006 0.00700389
0.214618 0 0.00205997
0.31873 0 0
0.426459 0 0
0.522377 0 0
0.615549 0 0
0.709529 0 0
0.803479 0 0
0.896361 0 0
0.987594 0 0
1 0 0
1 0 0
1 0 0
1 0 0
1 0 0
1 0 0
1 0 0
1 0 0
1 0 0
1 0 0
1 0 0
1 0 0
1 0 0
1 0 0
1 0 0
0 0 0
0 0 0
0 0 0
0 0 0
0 0 0
0.0230716 0.0116884 0.00479133
0.076112 0.0208133 0.00225834
0.163882 0.0236973 0
0.271214 0.0193332 0
0.381643 0.0103304 0
0.495201 0 0
0.605554 0 0
0.699916 0 0
0.787793 0 0
0.872938 0 0
0.954849 0 0
1 0 0
1 0 0
1 0 0
1 0 0
1 0 0
1 0 0
1 0 0
1 0 0
1 0 0
1 0 0
1 0 0
1 0 0
1 0 0
1 0 0
1 0 0
1 0 0
1 0 0
0 0 0
0 0 0
0.000579843 0.00151064 0.00135805
0.00329595 0.0158389 0.0122988
0.0159762 0.0304875 0.014374
0.0486 0.0404822 0.00218204
0.117632 0.0518196 0
0.223758 0.0572824 0
0.347494 0.0547494 0
0.46389 0.0461738 0
0.57847 0.036286 0
0.685283 0.0268864 0
0.773953 0.0187991 0
0.852583 0.0122835 0
0.924468 0.00749218 0
0.992767 0.00364691 0
1 0 0
1 0 0
1 0 0
1 0 0
1 0 0
1 0 0
1 0 0
1 0 0
1 0 0
1 0 0
1 0 0
1 0 0
1 0 0
1 0 0
1 0 0
1 0 0
1 0 0
0 0.0030518 0.00234989
0 0.0162966 0.0111238
0 0.0331426 0.0208133
0 0.0512245 0.0298772
0.0116884 0.0668193 0.0324102
0.0444038 0.0760204 0.0140841
0.104219 0.0836194 0
0.213489 0.0971542 0
0.349828 0.103059 0
0.472282 0.0988022 0
0.583001 0.0918898 0
0.680964 0.0861219 0
0.763378 0.0807507 0
0.839521 0.0760052 0
0.913466 0.0718395 0
0.986633 0.0678264 0
1 0.0639811 0
1 0.0602731 0
1 0.0567636 0
1 0.0534371 0
1 0.0503395 0
1 0.0473945 0
1 0.0446021 0
1 0.0419318 0
1 0.0393835 0
1 0.0369421 0
1 0.0345617 0
1 0.0322118 0
1 0.029984 0
1 0.0277867 0
1 0.0256046 0
1 0.0234531 0
1 0.0214084 0
0 0.0324407 0.0174563
0 0.0522164 0.0252232
0 0.0736095 0.0319982
0 0.0929732 0.0366217
0 0.106508 0.0382696
0.0347448 0.114626 0.028809
0.0846876 0.119524 0
0.166232 0.128496 0
0.297597 0.146441 0
0.428962 0.155718 0
0.541543 0.153903 0
0.645518 0.150072 0
0.733974 0.145373 0
0.814893 0.140978 0
0.892424 0.137118 0
0.968277 0.133486 0
1 0.129915 0
1 0.12636 0
1 0.122896 0
1 0.119493 0
1 0.116152 0
1 0.112902 0
1 0.109773 0
1 0.106722 0
1 0.103731 0
1 0.100877 0
1 0.0980545 0
1 0.095201 0
1 0.0925307 0
1 0.0899367 0
1 0.0874342 0
1 0.085008 0
1 0.0826581 0
0 0.0735332 0.0272068
0 0.0972152 0.031281
0 0.119829 0.0338598
0 0.138155 0.0344854
0 0.14934 0.0328374
0.0240635 0.15491 0.0292821
0.0732433 0.158846 0.0133669
0.135561 0.161807 0
0.23241 0.17525 0
0.360769 0.198047 0
0.484184 0.209262 0
0.596078 0.210544 0
0.69221 0.208331 0
0.779629 0.205325 0
0.86215 0.202396 0
0.941649 0.199435 0
1 0.196353 0
1 0.193042 0
1 0.189685 0
1 0.186313 0
1 0.18294 0
1 0.179583 0
1 0.176226 0
1 0.172854 0
1 0.169543 0
1 0.166323 0
1 0.16321 0
1 0.160098 0
1 0.157137 0
1 0.154269 0
1 0.151446 0
1 0.148684 0
1 0.145983 0
0 0.123705 0.0288853
0 0.147707 0.0288548
0 0.169131 0.0281987
0 0.184924 0.0265049
0 0.19324 0.0233921
0.0116274 0.196963 0.0196994
0.0650492 0.19884 0.0151827
0.12314 0.200427 0
0.194553 0.204822 0
0.294499 0.223575 0
0.417929 0.249851 0
0.534707 0.262196 0
0.637507 0.265568 0
0.731975 0.26598 0
0.820829 0.265248 0
0.905089 0.26389 0
0.986816 0.261875 0
1 0.259373 0
1 0.256428 0
1 0.253269 0
1 0.249943 0
1 0.246571 0
1 0.243198 0
1 0.239841 0
1 0.236515 0
1 0.233204 0
1 0.229923 0
1 0.226596 0
1 0.223392 0
1 0.220218 0
1 0.217075 0
1 0.213931 0
1 0.210849 0
0 0.17911 0.022797
0 0.200855 0.0200809
0 0.21912 0.0180972
0 0.231525 0.0162509
0 0.236851 0.013611
0.000839246 0.238972 0.0113527
0.0586557 0.23946 0.0102083
0.118029 0.239445 0.00788891
0.179904 0.240375 0
0.254826 0.24976 0
0.355917 0.273747 0
0.470588 0.300191 0
0.573632 0.312505 0
0.673198 0.318944 0
0.768292 0.322469 0
0.858106 0.324163 0
0.944015 0.324453 0
1 0.323552 0
1 0.321691 0
1 0.319326 0
1 0.31664 0
1 0.313695 0
1 0.310628 0
1 0.307439 0
1 0.304173 0
1 0.300877 0
1 0.29752 0
1 0.294087 0
1 0.290684 0
1 0.287236 0
1 0.283772 0
1 0.280293 0
1 0.276844 0
0 0.236271 0.01149
0 0.25391 0.00834669
0 0.267903 0.00743114
0 0.276448 0.00764477
0 0.278935 0.00746166
0 0.279637 0.00808728
0.0550393 0.279728 0.00846876
0.114595 0.279469 0.00872816
0.174807 0.279622 0.00515755
0.237079 0.282765 0
0.315831 0.297642 0
0.414252 0.324437 0
0.511116 0.346563 0
0.608865 0.360906 0
0.707408 0.370871 0
0.802228 0.377249 0
0.892454 0.381353 0
0.980026 0.38349 0
1 0.384024 0
1 0.383368 0
1 0.381918 0
1 0.379904 0
1 0.377447 0
1 0.374716 0
1 0.371756 0
1 0.368612 0
1 0.365332 0
1 0.361852 0
1 0.358358 0
1 0.354788 0
1 0.351125 0
1 0.347387 0
1 0.343557 0
0 0.291142 0
0 0.304173 0
0 0.313252 0.000823987
0 0.318105 0.00457771
0 0.319448 0.00561532
0 0.320256 0.00637827
0.0516518 0.320638 0.0069276
0.111131 0.320455 0.00714122
0.171405 0.320302 0.00753796
0.229831 0.320653 0.00231937
0.29514 0.327977 0
0.375006 0.34696 0
0.459327 0.371023 0
0.548638 0.39144 0
0.644068 0.408057 0
0.74052 0.420768 0
0.834562 0.430198 0
0.925658 0.43682 0
1 0.441077 0
1 0.443153 0
1 0.443778 0
1 0.44332 0
1 0.442054 0
1 0.440162 0
1 0.437797 0
1 0.435065 0
1 0.432059 0
1 0.428733 0
1 0.425269 0
1 0.421622 0
1 0.417823 0
1 0.413901 0
1 0.409873 0
0 0.341146 0
0 0.349142 0
0 0.355413 0
0 0.359457 0.00311284
0 0.360739 0.00408942
0 0.361776 0.00500496
0.0486 0.362356 0.00567636
0.108003 0.362234 0.00585946
0.168063 0.36202 0.00608835
0.226368 0.361761 0.00621042
0.285191 0.363836 0.000762951
0.352117 0.375067 0
0.422019 0.393622 0
0.499886 0.415259 0
0.586618 0.43592 0
0.679301 0.4542 0
0.77348 0.469581 0
0.866407 0.48191 0
0.957702 0.490867 0
1 0.497032 0
1 0.500786 0
1 0.502708 0
1 0.503258 0
1 0.502754 0
1 0.501396 0
1 0.499413 0
1 0.496895 0
1 0.493889 0
1 0.490623 0
1 0.487083 0
1 0.483314 0
1 0.479347 0
1 0.475242 0
0 0.385245 0
0 0.392416 0
0 0.398337 0
0 0.401648 0.00204471
0 0.402991 0.00306706
0 0.404181 0.00408942
0.0460212 0.404913 0.00483711
0.105364 0.404852 0.00500496
0.165118 0.404501 0.00502022
0.223178 0.404166 0.00512703
0.280217 0.40383 0.00457771
0.339666 0.408927 0.000411994
0.398581 0.420951 0
0.464729 0.438926 0
0.540322 0.45922 0
0.624628 0.480369 0
0.714488 0.500267 0
0.806119 0.51783 0
0.897612 0.532479 0
0.989059 0.543755 0
1 0.551583 0
1 0.556909 0
1 0.560113 0
1 0.561654 0
1 0.561883 0
1 0.561074 0
1 0.559442 0
1 0.557122 0
1 0.55433 0
1 0.551125 0
1 0.54757 0
1 0.543725 0
1 0.539635 0
0 0.428977 0
0 0.436072 0
0 0.441627 0
0 0.444358 0.0016022
0 0.445792 0.00273136
0 0.447059 0.0037995
0.0440681 0.447852 0.00456245
0.103288 0.447822 0.00468452
0.162737 0.447318 0.00447089
0.220462 0.44683 0.00434882
0.277241 0.446265 0.00421149
0.332891 0.446937 0.00375372
0.384924 0.453513 0
0.441428 0.466011 0
0.506737 0.483375 0
0.580957 0.503563 0
0.662776 0.525032 0
0.74966 0.546075 0
0.838636 0.565286 0
0.928603 0.581674 0
1 0.594736 0
1 0.604318 0
1 0.610849 0
1 0.615244 0
1 0.617731 0
1 0.618723 0
1 0.618524 0
1 0.617258 0
1 0.61532 0
1 0.612757 0
1 0.609674 0
1 0.60621 0
1 0.602396 0
0 0.473213 0
0 0.480125 0
0 0.485161 0
0 0.48748 0.00146487
0 0.489021 0.00268559
0 0.490303 0.00375372
0.0423743 0.491096 0.00448615
0.101457 0.491066 0.00454719
0.160601 0.490379 0.00411994
0.217945 0.489647 0.00370794
0.274403 0.488945 0.00337224
0.328878 0.488228 0.00309758
0.376822 0.490257 0.00277714
0.426947 0.49778 0
0.483833 0.510735 0
0.548791 0.527962 0
0.621668 0.548119 0
0.700999 0.569696 0
0.784802 0.591455 0
0.871305 0.611856 0
0.95967 0.629358 0
1 0.643671 0
1 0.654597 0
1 0.662348 0
1 0.667781 0
1 0.67126 0
1 0.673014 0
1 0.67335 0
1 0.672679 0
1 0.671168 0
1 0.66894 0
1 0.666163 0
1 0.662943 0
0 0.5178 0
0 0.524361 0
0 0.528817 0
0 0.530846 0.0015259
0 0.532464 0.00282292
0 0.533776 0.00390631
0.0408637 0.534524 0.00456245
0.0998093 0.534447 0.00454719
0.158663 0.533608 0.00392157
0.215579 0.532616 0.00318914
0.271656 0.53167 0.00257877
0.325902 0.530846 0.002121
0.371893 0.530465 0.00213626
0.418173 0.533791 0.00175479
0.469078 0.542306 0
0.526436 0.555505 0
0.59089 0.572641 0
0.662196 0.592645 0
0.738933 0.614191 0
0.819867 0.636271 0
0.903944 0.65713 0
0.990982 0.675425 0
1 0.690593 0
1 0.702556 0
1 0.711635 0
1 0.717876 0
1 0.722225 0
1 0.724697 0
1 0.725826 0
1 0.725811 0
1 0.724849 0
1 0.72314 0
1 0.720851 0
0 0.562493 0
0 0.568597 0
0 0.572427 0.000427253
0 0.574273 0.0018616
0 0.575891 0.00315862
0 0.577203 0.00421149
0.0395972 0.577966 0.00485237
0.0984054 0.577874 0.00477607
0.157 0.576928 0.0039826
0.213596 0.575753 0.00302129
0.269398 0.574685 0.00221256
0.323461 0.5738 0.00164797
0.369177 0.573205 0.00140383
0.413077 0.57348 0.00192264
0.460029 0.57792 0.00120546
0.511681 0.586923 0
0.569177 0.600244 0
0.632883 0.617212 0
0.702419 0.636988 0
0.776654 0.658305 0
0.854932 0.680369 0
0.936919 0.701305 0
1 0.719966 0
1 0.735653 0
1 0.748409 0
1 0.758404 0
1 0.765866 0
1 0.770748 0
1 0.774243 0
1 0.776211 0
1 0.776974 0
1 0.77673 0
1 0.775708 0
0 0.607095 0
0 0.61265 0
0 0.615793 0.00109865
0 0.617563 0.00247196
0 0.61912 0.00369268
0 0.620356 0.00468452
0.0385443 0.621134 0.00529488
0.0973526 0.62118 0.00531014
0.155932 0.620401 0.00459297
0.212345 0.619181 0.00354009
0.267887 0.618006 0.00256352
0.321736 0.617014 0.00183108
0.367269 0.616312 0.00143435
0.410391 0.615824 0.00128176
0.454658 0.616831 0.002121
0.502388 0.622003 0.0009308
0.554513 0.631388 0
0.611841 0.644724 0
0.674556 0.661494 0
0.742245 0.680934 0
0.814084 0.701823 0
0.890013 0.723507 0
0.97023 0.744244 0
1 0.762951 0
1 0.779019 0
1 0.792401 0
1 0.803189 0
1 0.811475 0
1 0.817502 0
1 0.821897 0
1 0.824857 0
1 0.826551 0
1 0.827176 0
0 0.651377 0
0 0.656275 0
0 0.658824 0.00207523
0 0.660502 0.0033875
0 0.662058 0.00459297
0 0.663355 0.00561532
0.0380865 0.66424 0.00631724
0.0968948 0.664408 0.00640879
0.155459 0.663767 0.00575265
0.211704 0.662547 0.00463874
0.266987 0.661265 0.00347906
0.320562 0.660121 0.002533
0.365881 0.659312 0.00195315
0.40885 0.658701 0.00163272
0.451804 0.65832 0.00158694
0.496803 0.660075 0.00256352
0.545098 0.665812 0.000915541
0.597406 0.675425 0
0.654292 0.688731 0
0.715785 0.705242 0
0.781613 0.724224 0
0.851194 0.744518 0
0.925185 0.765667 0
1 0.786053 0
1 0.804578 0
1 0.82089 0
1 0.834821 0
1 0.846265 0
1 0.855619 0
1 0.862989 0
1 0.868238 0
1 0.872206 0
1 0.874998 0
0 0.695109 0
0 0.699351 0.0018616
0 0.701534 0.00360113
0 0.703273 0.00495918
0 0.70486 0.00621042
0 0.706203 0.00727855
0.0383001 0.707149 0.00799573
0.0970932 0.707408 0.0081178
0.155596 0.706859 0.00750744
0.211688 0.705669 0.00631724
0.266728 0.70428 0.00500496
0.320012 0.702983 0.00383001
0.365087 0.702022 0.00303655
0.407843 0.701274 0.00251774
0.450599 0.700725 0.00225834
0.493767 0.700496 0.00236515
0.539345 0.702922 0.00321965
0.587945 0.709087 0.00114443
0.640116 0.718868 0
0.696269 0.732067 0
0.756344 0.748211 0
0.82034 0.766674 0
0.888319 0.786618 0
0.960601 0.806806 0
1 0.826658 0
1 0.845029 0
1 0.861753 0
1 0.875914 0
1 0.888319 0
1 0.898665 0
1 0.907149 0
1 0.913893 0
1 0.918334 0
0 0.738399 0.00102235
0 0.742123 0.00430304
0 0.744091 0.00585946
0 0.745861 0.00726329
0 0.747478 0.00852979
0 0.748821 0.00956741
0.0391852 0.749783 0.0102846
0.0979019 0.750088 0.0104219
0.156329 0.749599 0.00981155
0.212268 0.748409 0.00856031
0.267048 0.746929 0.00706493
0.320043 0.74548 0.00567636
0.364858 0.74435 0.00466926
0.407385 0.74345 0.00393683
0.449928 0.742733 0.0034638
0.492668 0.742123 0.0031281
0.536156 0.742184 0.00349432
0.58204 0.745174 0.00401312
0.630625 0.751675 0.00155642
0.682353 0.761547 0
0.737484 0.774578 0
0.796185 0.790356 0
0.858549 0.80827 0
0.925048 0.827527 0
0.996048 0.846952 0
1 0.866361 0
1 0.884627 0
1 0.901259 0
1 0.91635 0
1 0.929595 0
1 0.940993 0
1 0.950652 0
1 0.958129 0
0 0.781338 0.00447089
0 0.784588 0.00732433
0 0.78645 0.0087892
0 0.788205 0.0101778
0 0.789792 0.0114137
0 0.791104 0.0124208
0.040589 0.79205 0.0130922
0.0992447 0.792386 0.0131991
0.157549 0.791913 0.0125582
0.213321 0.790707 0.0112306
0.267842 0.789105 0.00956741
0.320546 0.787503 0.00794995
0.365103 0.786206 0.00672923
0.407385 0.785138 0.00576791
0.449683 0.784253 0.005066
0.49218 0.783459 0.00450141
0.534844 0.782757 0.0040589
0.578561 0.783185 0.00476081
0.624491 0.786679 0.00480659
0.67277 0.793439 0.00195315
0.723796 0.803342 0
0.777905 0.81622 0
0.835279 0.831617 0
0.8963 0.848997 0
0.961593 0.867567 0
1 0.886412 0
1 0.905379 0
1 0.923476 0
1 0.940612 0
1 0.956344 0
1 0.970474 0
1 0.982483 0
1 0.993179 0
0 0.823972 0.0084535
0 0.826749 0.0108492
0 0.828565 0.0122835
0 0.830259 0.013611
0 0.831785 0.0148013
0 0.833051 0.0157473
0.0424506 0.833921 0.0163272
0.100969 0.834211 0.0163729
0.159152 0.833738 0.015671
0.214755 0.832502 0.0142672
0.269032 0.830808 0.0124361
0.321447 0.829023 0.0105898
0.365728 0.827543 0.0091249
0.407736 0.826276 0.00791943
0.449775 0.825193 0.00697337
0.492012 0.824216 0.00616464
0.534432 0.823316 0.00547799
0.576913 0.822553 0.00500496
0.620722 0.823468 0.00593576
0.666438 0.827405 0.00556954
0.714199 0.834394 0.00282292
0.764446 0.844373 0
0.817472 0.857069 0
0.873655 0.872099 0
0.933623 0.88893 0
0.998077 0.906905 0
1 0.925277 0
1 0.943847 0
1 0.962203 0
1 0.979751 0
1 0.996201 0
1 1 0
1 1 0
0 0.86627 0.0127108
0 0.86862 0.0146944
0 0.870375 0.016083
0 0.872007 0.0173495
0 0.873426 0.0184176
0 0.874586 0.0192569
0.0445106 0.87538 0.0197452
0.102876 0.875578 0.0196841
0.160922 0.875059 0.0189212
0.216327 0.873762 0.0173953
0.270359 0.871931 0.0154116
0.322469 0.869963 0.0133211
0.366476 0.868299 0.0116274
0.40824 0.86685 0.010193
0.450019 0.865568 0.00898756
0.491997 0.864393 0.00794995
0.534173 0.863294 0.00704967
0.576379 0.862318 0.00628672
0.618631 0.861677 0.0059205
0.662333 0.863096 0.00694286
0.707591 0.867414 0.00616464
0.754681 0.874632 0.0031281
0.804074 0.884642 0
0.856123 0.897185 0
0.911421 0.911894 0
0.970672 0.928298 0
1 0.945907 0
1 0.963653 0
1 0.982376 0
1 1 0
1 1 0
1 1 0
1 1 0
0 0.908248 0.0170291
0 0.910262 0.018677
0 0.911894 0.0199435
0 0.913405 0.0211032
0 0.914702 0.0220493
0 0.915724 0.0227665
0.0465248 0.916381 0.0231022
0.104707 0.916457 0.0229038
0.162554 0.915846 0.022034
0.217777 0.914443 0.0203861
0.271595 0.912505 0.0182498
0.323415 0.910338 0.0159457
0.367193 0.908537 0.0140688
0.408698 0.906889 0.0124056
0.450233 0.905425 0.0109712
0.491951 0.904067 0.00970474
0.533898 0.902785 0.00856031
0.575875 0.90161 0.00758373
0.617685 0.900557 0.00675975
0.659693 0.900191 0.00668345
0.703029 0.902113 0.00762951
0.747707 0.906813 0.00639353
0.79411 0.914229 0.00311284
0.842695 0.924315 0
0.894026 0.936751 0
0.948745 0.951232 0
1 0.967376 0
1 0.984451 0
1 1 0
1 1 0
1 1 0
1 1 0
1 1 0
0 0.949859 0.0211337
0 0.951598 0.0225071
0 0.953109 0.0236515
0 0.954467 0.0246586
0 0.955581 0.025452
0 0.956436 0.0259861
0.048249 0.956909 0.026154
0.106233 0.956847 0.0258183
0.163912 0.95613 0.0248112
0.218952 0.954635 0.0230716
0.272541 0.952575 0.020798
0.324147 0.950256 0.0183261
0.367666 0.948272 0.0162509
0.408957 0.946471 0.0143893
0.450263 0.944823 0.0127413
0.491753 0.943282 0.0112612
0.533455 0.941802 0.0099031
0.575204 0.940444 0.00868238
0.616815 0.939208 0.00764477
0.658091 0.938155 0.00682078
0.699763 0.938201 0.007187
0.742641 0.940627 0.00791943
0.78674 0.945739 0.00634775
0.832486 0.953414 0.00285344
0.880491 0.963607 0
0.93135 0.975982 0
0.985779 0.99028 0
1 1 0
1 1 0
1 1 0
1 1 0
1 1 0
1 1 0
0 0.991135 0.0248417
0 0.992645 0.0259861
0 0.993973 0.0269627
0 0.995132 0.0277714
0 0.996063 0.0283818
0 0.996704 0.0287175
0.0495155 0.997024 0.0287327
0.107317 0.996811 0.0282444
0.164797 0.995956 0.0271153
0.219669 0.994369 0.0252995
0.273075 0.992203 0.0229038
0.324468 0.989746 0.0202792
0.367788 0.98761 0.0180362
0.40885 0.985641 0.0159915
0.449943 0.98381 0.0141451
0.491188 0.982086 0.0124514
0.532677 0.980453 0.0108797
0.574228 0.978912 0.00947585
0.615656 0.977523 0.00823987
0.656779 0.976318 0.00723278
0.697459 0.975387 0.00654612
0.738796 0.975937 0.00740063
0.781155 0.978897 0.00781262
0.824704 0.984405 0.00595102
0.869978 0.992386 0.00222782
0.917632 1 0
0.968643 1 0
1 1 0
1 1 0
1 1 0
1 1 0
1 1 0
1 1 0
0 1 0.028275
0 1 0.0292363
0 1 0.0300145
0 1 0.0306401
0 1 0.0310521
0 1 0.0312047
0.0505531 1 0.0310521
0.108156 1 0.0304112
0.165469 1 0.0291752
