public/sampleLut/30.cube
TITLE "Generated by Resolve"
LUT_3D_SIZE 9
0 0 0
0 0 0
0 0 0
0.276188 0 0.0100252
0.660304 0 0
1 0 0
1 0 0
1 0 0
1 0 0
0 0.0030518 0.00234989
0.0116884 0.0668193 0.0324102
0.349828 0.103059 0
0.763378 0.0807507 0
1 0.0639811 0
1 0.0503395 0
1 0.0393835 0
1 0.029984 0
1 0.0214084 0
0 0.17911 0.022797
0 0.236851 0.013611
0.179904 0.240375 0
0.573632 0.312505 0
0.944015 0.324453 0
1 0.31664 0
1 0.304173 0
1 0.290684 0
1 0.276844 0
0 0.385245 0
0 0.402991 0.00306706
0.165118 0.404501 0.00502022
0.398581 0.420951 0
0.714488 0.500267 0
1 0.551583 0
1 0.561883 0
1 0.55433 0
1 0.539635 0
0 0.562493 0
0 0.575891 0.00315862
0.157 0.576928 0.0039826
0.369177 0.573205 0.00140383
0.569177 0.600244 0
0.854932 0.680369 0
1 0.748409 0
1 0.774243 0
1 0.775708 0
0 0.738399 0.00102235
0 0.747478 0.00852979
0.156329 0.749599 0.00981155
0.364858 0.74435 0.00466926
0.536156 0.742184 0.00349432
0.737484 0.774578 0
0.996048 0.846952 0
1 0.91635 0
1 0.958129 0
0 0.908248 0.0170291
0 0.914702 0.0220493
0.162554 0.915846 0.022034
0.367193 0.908537 0.0140688
0.533898 0.902785 0.00856031
0.703029 0.902113 0.00762951
0.894026 0.936751 0
1 1 0
1 1 0
0 1 0.0310216
0 1 0.0330205
0.165408 1 0.0305028
0.366995 1 0.0204929
0.530495 1 0.0121309
0.694118 1 0.00677501
0.855894 1 0.00729381
1 1 0
1 1 0
0 1 0.037705
0 1 0.0369573
0.162341 1 0.0328527
0.362631 1 0.0224155
0.524636 1 0.0129549
0.686656 1 0.00601205
0.841962 1 0.00360113
1 1 0.00552377
1 1 0
0 0 0
0 0 0
0.0105592 0.00314336 0.00907912
0.182055 0.00328069 0.0811322
0.411109 0 0.114778
0.7131 0 0.130648
1 0 0.133471
1 0 0.130816
1 0 0.128893
0 0.00523384 0.00634775
0.007187 0.0566567 0.0781109
0.263035 0.0702678 0.117052
0.634714 0.0640116 0.121538
0.900282 0.0563058 0.113283
1 0.0541085 0.110658
1 0.0504158 0.106447
1 0.0433356 0.0986954
1 0.0428626 0.0979171
0 0.11426 0.0666972
0 0.21181 0.111162
0.181079 0.241901 0.123079
0.653651 0.332982 0.0697185
0.987655 0.324422 0.0467231
1 0.310704 0.0364843
1 0.297337 0.0296178
1 0.284916 0.0245365
1 0.273442 0.0193332
0 0.341405 0.0718242
0 0.394476 0.115785
0.167346 0.410056 0.128878
0.396841 0.419379 0.118791
0.775067 0.530739 0.0489662
1 0.567819 0
1 0.564614 0
1 0.550591 0
1 0.533028 0
0 0.532357 0.0845197
0 0.575998 0.123064
0.159045 0.582345 0.12755
0.370733 0.576745 0.122469
0.569558 0.600885 0.116274
0.8925 0.704128 0.0503395
1 0.770138 0
1 0.784253 0
1 0.777798 0
0 0.720455 0.102876
0 0.749355 0.129595
0.157946 0.753994 0.132479
0.365118 0.746929 0.124743
0.535225 0.74258 0.121157
0.737453 0.774807 0.114687
1 0.862928 0.0530861
1 0.938674 0
1 0.974777 0
0 0.898833 0.126223
0 0.916442 0.142611
0.163684 0.91931 0.143771
0.36791 0.911437 0.134554
0.533165 0.903807 0.12668
0.700465 0.900343 0.124163
0.893416 0.93637 0.113634
1 1 0.0521401
1 1 0
0 1 0.145678
0 1 0.152758
0.16582 1 0.151141
0.367742 1 0.140856
0.529885 1 0.130449
0.692988 1 0.123568
0.853025 1 0.124987
1 1 0.109758
1 1 0.051133
0 1 0.155032
0 1 0.156085
0.162448 1 0.15288
0.363516 1 0.142718
0.52462 1 0.131838
0.685832 1 0.123125
0.841031 1 0.11986
0.998474 1 0.124483
1 1 0.106279
0 0 0
0 0 0
0.029984 0.0065156 0.0375067
0.210025 0 0.150301
0.419013 0 0.208774
0.651041 0 0.242649
0.872114 0 0.260716
1 0 0.271183
1 0 0.280308
0 0.00683604 0.0120851
0.00364691 0.0447242 0.10547
0.181079 0.0874037 0.25655
0.404257 0.0800641 0.271824
0.583734 0.0771496 0.271702
0.782788 0.0775158 0.279957
1 0.0789654 0.294545
1 0.0791943 0.306523
1 0.0785992 0.315236
0 0.0670481 0.0742962
0 0.124544 0.141466
0.172915 0.233249 0.264622
0.556603 0.261067 0.294224
0.864317 0.29366 0.32842
1 0.292729 0.327031
1 0.286976 0.320516
1 0.282399 0.315251
1 0.277302 0.309422
0 0.249668 0.131289
0 0.309102 0.164172
0.16527 0.412879 0.261631
0.393744 0.416388 0.253529
0.865248 0.571405 0.257679
1 0.575647 0.244541
1 0.560983 0.231937
1 0.544289 0.221103
1 0.52697 0.210468
0 0.4654 0.147112
0 0.534188 0.211124
0.158862 0.585977 0.259556
0.373571 0.582818 0.254307
0.567056 0.598535 0.249775
0.956512 0.740993 0.20972
1 0.791577 0.156649
1 0.790585 0.12755
1 0.77673 0.106798
0 0.672435 0.180301
0 0.733242 0.240818
0.157809 0.756786 0.262898
0.366918 0.751736 0.255283
0.535317 0.744518 0.247608
0.736858 0.774472 0.249012
1 0.886885 0.196933
1 0.965759 0.113176
1 0.991043 0.0601968
0 0.866697 0.217411
0 0.91165 0.264912
0.163317 0.92137 0.273014
0.369177 0.915221 0.264225
0.532204 0.905074 0.252293
0.697856 0.899046 0.246616
0.892271 0.935485 0.24654
1 1 0.191073
1 1 0.0980087
0 1 0.249287
0 1 0.279103
0.165011 1 0.279301
0.368475 1 0.269673
0.529442 1 0.256703
0.691356 1 0.247257
0.849485 1 0.246891
1 1 0.242069
1 1 0.186908
0 1 0.267185
0 1 0.282902
0.161517 1 0.280446
0.36405 1 0.271092
0.524941 1 0.258869
0.684764 1 0.247547
0.839567 1 0.242832
0.994888 1 0.248157
1 1 0.238071
0 0 0
0 0 0
0.0519112 0.00807202 0.0938125
0.239811 0 0.253895
0.447074 0 0.33875
0.67216 0 0.390967
0.879438 0 0.417868
1 0 0.425025
1 0 0.428016
0 0.0107729 0.0278782
0.000534066 0.0383154 0.139223
0.17879 0.0855879 0.404013
0.402731 0.0779889 0.434943
0.577676 0.0751507 0.432776
0.745464 0.0759136 0.431571
0.904005 0.0800641 0.434485
1 0.0879683 0.442313
1 0.0966812 0.456657
0 0.0527657 0.0939498
0 0.0708476 0.143114
0.138827 0.196216 0.394766
0.403738 0.237491 0.441123
0.581811 0.239002 0.438636
0.757809 0.246906 0.444999
0.957382 0.262867 0.469657
1 0.273884 0.494926
1 0.281224 0.515221
0 0.157992 0.163973
0 0.155779 0.161654
0.0684825 0.298802 0.312993
0.389853 0.41268 0.431769
0.766125 0.489494 0.511894
1 0.543069 0.567422
1 0.53724 0.56112
1 0.529229 0.552605
1 0.520302 0.54316
0 0.363958 0.200595
0 0.391333 0.224674
0.107698 0.528481 0.3626
0.375036 0.5897 0.4215
0.561502 0.593072 0.413031
1 0.796811 0.478264
1 0.805203 0.469825
1 0.788891 0.452979
1 0.770504 0.437751
0 0.572259 0.231327
0 0.646189 0.305745
0.14197 0.742061 0.406638
0.369955 0.758434 0.42118
0.538735 0.750851 0.410727
0.732906 0.770733 0.412116
1 0.930251 0.40325
1 0.997528 0.368566
1 1 0.3458
0 0.790539 0.28661
0 0.864103 0.367956
0.159503 0.9196 0.429648
0.369818 0.918624 0.42591
0.532708 0.908385 0.412177
0.695903 0.898878 0.40148
0.890105 0.933577 0.410758
1 1 0.375784
1 1 0.309102
0 0.992844 0.342229
0 1 0.407034
0.162615 1 0.436683
0.368109 1 0.429236
0.529961 1 0.416236
0.689128 1 0.402136
0.845106 1 0.397681
1 1 0.405646
1 1 0.363882
0 1 0.379431
0 1 0.424781
0.159197 1 0.437186
0.36347 1 0.429679
0.525292 1 0.417823
0.683742 1 0.40383
0.83714 1 0.396201
0.989685 1 0.398611
1 1 0.40116
0 0 0
0 0 0
0.0749523 0.00723278 0.18909
0.269688 0 0.396857
0.475441 0 0.506142
0.692195 0 0.572
0.885863 0 0.60267
1 0 0.607233
1 0 0.609979
0 0.0166629 0.0622568
0 0.0440681 0.244068
0.171038 0.0785382 0.565972
0.399634 0.0766461 0.619791
0.573144 0.0743877 0.616892
0.740993 0.0744793 0.615106
0.899611 0.0786145 0.617594
1 0.0843061 0.622065
1 0.0901198 0.627008
0 0.0550698 0.14786
0 0.0693523 0.224796
0.106615 0.161166 0.536461
0.398291 0.237644 0.6262
0.576944 0.238209 0.62565
0.748684 0.241047 0.625895
0.909529 0.247089 0.629908
1 0.253483 0.634974
1 0.263111 0.644251
0 0.117632 0.20531
0 0.107362 0.203967
0 0.182757 0.369039
0.361685 0.383429 0.596796
0.571252 0.409873 0.624857
0.746395 0.414237 0.625162
0.914733 0.427527 0.636667
1 0.450736 0.668025
1 0.467903 0.698772
0 0.253651 0.265003
0 0.236896 0.247517
0 0.265034 0.277699
0.268147 0.476768 0.498695
0.5561 0.587884 0.614298
0.944488 0.698695 0.728496
1 0.766079 0.79765
1 0.74905 0.780163
1 0.743862 0.774838
0 0.442481 0.279652
0 0.457099 0.293492
0 0.536446 0.373983
0.330236 0.721767 0.568185
0.542565 0.759609 0.605325
0.724788 0.762753 0.597116
1 1 0.722713
1 1 0.724224
1 1 0.709468
0 0.654597 0.319387
0 0.721294 0.390036
0.0758526 0.833234 0.513451
0.361975 0.913664 0.604883
0.537133 0.915892 0.604608
0.69987 0.905516 0.59086
0.88484 0.928496 0.597299
1 1 0.628031
1 1 0.617426
0 0.880446 0.393652
0 0.959014 0.482872
0.126894 1 0.578149
0.365728 1 0.612497
0.531121 1 0.603418
0.689693 1 0.587564
0.842527 1 0.577279
1 1 0.594827
1 1 0.588052
0 1 0.462882
0 1 0.539223
0.143343 1 0.602304
0.361425 1 0.612177
0.525841 1 0.603204
0.685115 1 0.589624
0.834882 1 0.576516
0.984237 1 0.573526
1 1 0.589914
0 0 0
0 0 0
0.0942855 0.00425727 0.308766
0.295247 0 0.555566
0.499046 0 0.680735
0.707866 0 0.75227
0.887388 0 0.778332
1 0 0.780346
1 0 0.783185
0 0.0233005 0.119722
0 0.0489815 0.382849
0.164874 0.0720836 0.72726
0.395987 0.0761883 0.791302
0.569635 0.0746624 0.789914
0.738201 0.0749065 0.789227
0.896834 0.0785687 0.791562
1 0.0840162 0.795727
1 0.0897993 0.800397
0 0.0630045 0.235065
0 0.0848249 0.395651
0.0968948 0.151186 0.703777
0.390372 0.232929 0.79324
0.573465 0.239185 0.800168
0.745464 0.241321 0.80119
0.905684 0.245838 0.803906
1 0.251957 0.808331
1 0.258289 0.813306
0 0.111696 0.284077
0 0.111406 0.324193
0 0.139513 0.463554
0.314458 0.333883 0.724437
0.566445 0.410666 0.800732
0.742107 0.413596 0.802502
0.90486 0.419806 0.806088
1 0.427222 0.811368
1 0.433661 0.816342
0 0.197482 0.329931
0 0.174624 0.312428
0 0.150637 0.294682
0.124468 0.309865 0.514916
0.51812 0.548348 0.761944
0.734371 0.58677 0.799405
0.899733 0.593881 0.802502
1 0.608515 0.814664
1 0.634348 0.846174
0 0.347784 0.364508
0 0.320989 0.336553
0 0.289601 0.303593
0.030869 0.38349 0.401602
0.401602 0.617945 0.645426
0.718532 0.756695 0.788113
1 0.889937 0.925475
1 0.972595 1
1 0.956741 0.995254
0 0.518502 0.359701
0 0.525124 0.36553
0 0.572671 0.413718
0.145434 0.698222 0.545373
0.489128 0.87393 0.737911
0.704906 0.915084 0.779034
0.875761 0.919387 0.772854
1 1 0.946883
1 1 0.957488
0 0.730266 0.404791
0 0.785092 0.464271
0 0.887999 0.580728
0.284123 0.997757 0.705898
0.522515 1 0.774289
0.695537 1 0.774212
0.847791 1 0.761822
1 1 0.773526
1 1 0.840467
0 0.959762 0.48896
0 1 0.57641
0.0606088 1 0.681758
0.330983 1 0.758267
0.524285 1 0.779553
0.687755 1 0.771115
0.836698 1 0.757046
0.982315 1 0.747967
1 1 0.771984
0 0 0
0.00445563 0.00376898 0.0425727
0.110216 0 0.445228
0.317372 0 0.723369
0.518334 0 0.85507
0.718929 0 0.924269
0.885847 0 0.940017
1 0 0.942184
1 0 0.945144
0 0.0298619 0.20116
0 0.051545 0.533761
0.16051 0.066865 0.886152
0.393317 0.076173 0.950332
0.567239 0.0755779 0.9505
0.736492 0.0763867 0.951202
0.895613 0.0801862 0.954238
1 0.0852522 0.958297
1 0.0906844 0.962676
0 0.0729076 0.354223
0 0.0971084 0.593362
0.0990768 0.154086 0.873106
0.379263 0.22385 0.944045
0.570764 0.239948 0.9608
0.743358 0.242771 0.963623
0.90396 0.24715 0.967071
1 0.252384 0.970962
1 0.258228 0.975418
0 0.116945 0.398718
0 0.125475 0.501884
0 0.166751 0.709545
0.288594 0.306783 0.863645
0.557076 0.404089 0.954955
0.739498 0.415167 0.965881
0.902327 0.420432 0.969955
1 0.425879 0.973602
1 0.431861 0.977783
0 0.180453 0.426291
0 0.166629 0.437675
0 0.162722 0.481544
0.0592355 0.231296 0.615335
0.454047 0.481086 0.863859
0.730205 0.587854 0.963729
0.895613 0.593042 0.967681
1 0.598871 0.970855
1 0.604257 0.974014
0 0.284901 0.453681
0 0.252049 0.424033
0 0.214603 0.387564
0 0.208957 0.39704
0.206592 0.404654 0.613474
0.67274 0.709728 0.915084
0.884367 0.755871 0.960647
1 0.761776 0.962814
1 0.775036 0.974166
0 0.430808 0.451789
0 0.396933 0.416159
0 0.362982 0.380606
0 0.334829 0.351003
0.102083 0.468803 0.490517
0.536736 0.754467 0.785779
0.869291 0.912993 0.949508
1 1 1
1 1 1
0 0.594491 0.440696
0 0.594308 0.43949
0 0.621485 0.467018
0 0.691188 0.540398
0.261631 0.818891 0.679622
0.642039 1 0.890028
0.854673 1 0.938781
1 1 0.935576
1 1 1
0 0.80322 0.489281
0 0.846723 0.537469
0 0.930999 0.633265
0.166384 1 0.753384
0.42948 1 0.853376
0.679484 1 0.929335
0.844892 1 0.933043
0.990051 1 0.921523
1 1 0.937743
0 0 0
0.00831617 0.00650034 0.12903
0.123095 0 0.597787
0.335775 0 0.901625
0.533318 0 1
0.724941 0 1
0.884398 0 1
1 0 1
1 0 1
0 0.0356146 0.306142
0 0.0522316 0.696025
0.156649 0.062089 1
0.389273 0.074342 1
0.56553 0.0765698 1
0.734966 0.0777447 1
0.894636 0.0819867 1
1 0.087129 1
1 0.092195 1
0 0.0827192 0.500252
0 0.105821 0.795956
0.100175 0.155535 1
0.369848 0.21593 1
0.568246 0.239979 1
0.741344 0.243793 1
0.902541 0.248737 1
1 0.254047 1
1 0.259236 1
0 0.126787 0.543297
0 0.140902 0.709087
0 0.188312 0.906401
0.287205 0.305592 1
0.541756 0.389975 1
0.736553 0.415305 1
0.900175 0.421546 1
1 0.426963 1
1 0.431571 1
0 0.180362 0.554406
0 0.174609 0.608759
0 0.187243 0.716609
0.0926986 0.268879 0.824414
0.419425 0.4448 0.989273
0.71873 0.578286 1
0.892561 0.593866 1
1 0.598505 1
1 0.60145 1
0 0.257801 0.563577
0 0.232212 0.553903
0 0.209934 0.552804
0 0.211978 0.586984
0.120531 0.302846 0.689189
0.593713 0.627924 0.997726
0.879393 0.755779 1
1 0.759777 1
1 0.763256 1
0 0.372107 0.564675
0 0.332311 0.526177
0 0.287999 0.481437
0 0.250111 0.442664
0 0.251072 0.448981
0.293538 0.499657 0.709026
0.817411 0.859281 1
1 0.911681 1
1 0.91751 1
0 0.503685 0.528084
0 0.470161 0.492882
0 0.436698 0.457664
0 0.409018 0.428489
0 0.387503 0.405951
0.175586 0.554482 0.579736
0.670146 0.881651 0.916808
1 1 1
1 1 1
0 0.670375 0.522637
0 0.666331 0.517082
0 0.679835 0.530526
0 0.721523 0.574731
0.0820935 0.793164 0.652399
0.383322 0.933074 0.80528
0.78735 1 1
0.999344 1 1
1 1 1
0 0 0
0.00994888 0.00695811 0.243885
0.133364 0 0.765835
0.349584 0 1
0.544411 0 1
0.726284 0 1
0.883055 0 1
1 0 1
1 0 1
0 0.0402533 0.435538
0 0.0513771 0.870832
0.152911 0.0575265 1
0.384741 0.0717021 1
0.564202 0.0775006 1
0.733745 0.0790265 1
0.893629 0.0835279 1
1 0.0890059 1
1 0.0940566 1
0 0.0912337 0.671229
0 0.111543 1
0.100298 0.155962 1
0.362005 0.209323 1
0.56286 0.236545 1
0.739773 0.244709 1
0.901015 0.249882 1
1 0.255756 1
1 0.26096 1
0 0.137987 0.71632
0 0.154543 0.926497
0 0.204303 1
0.285786 0.304356 1
0.528603 0.377539 1
0.733486 0.414405 1
0.897856 0.421958 1
1 0.428199 1
1 0.4327 1
0 0.18732 0.707927
0 0.188312 0.806912
0 0.211765 0.926497
0.123629 0.304097 1
0.417975 0.44358 1
0.699351 0.558801 1
0.888731 0.592752 1
1 0.59855 1
1 0.601373 1
0 0.251255 0.698192
0 0.232731 0.717372
0 0.224125 0.757748
0 0.250446 0.8038
0.167391 0.356008 0.90518
0.550179 0.58265 1
0.865583 0.743496 1
1 0.759487 1
1 0.761807 1
0 0.338857 0.686397
0 0.303563 0.661051
0 0.269505 0.63682
0 0.249149 0.626429
0 0.255772 0.637705
0.184131 0.376715 0.761532
0.727245 0.76643 1
1 0.911009 1
1 0.914916 1
0 0.44979 0.652323
0 0.406073 0.608286
0 0.359518 0.560632
0 0.318715 0.518715
0 0.287175 0.486427
0 0.292454 0.493599
0.38381 0.5944 0.800931
0.95349 1 1
1 1 1
0 0.577661 0.604974
0 0.54461 0.570535
0 0.511543 0.535912
0 0.484123 0.507118
0 0.462867 0.484749
0 0.44155 0.462272
0.252155 0.639155 0.667323
0.793088 1 1
1 1 1
