public/sampleLut/31.cube
TITLE "Generated by Resolve"
LUT_3D_SIZE 33
0 0 0
0 0 0
0 0 0
0.0145113 0 0
0.0683452 0 0
0.122271 0 0
0.176364 0 0
0.230945 0 0
0.286671 0 0
0.345251 0 0
0.405783 0 0
0.466392 0 0
0.524361 0 0
0.577905 0 0
0.627649 0 0
0.676127 0 0
0.72285 0 0
0.76846 0 0
0.812909 0 0
0.856626 0 0
0.900771 0 0
0.944732 0 0
0.988739 0 0
1 0 0
1 0 0
1 0 0
1 0 0
1 0 0
1 0 0
1 0 0
1 0 0
1 0 0
1 0 0
0 0 0
0 0 0
0 0 0
0 0 0
0.0500191 0 0
0.104112 0 0
0.157931 0 0
0.212482 0 0
0.267903 0 0
0.324834 0 0
0.384649 0 0
0.445502 0 0
0.504448 0 0
0.559701 0 0
0.610132 0 0
0.658778 0 0
0.705898 0 0
0.751522 0 0
0.796109 0 0
0.84004 0 0
0.883955 0 0
0.927947 0 0
0.971481 0 0
1 0 0
1 0 0
1 0 0
1 0 0
1 0 0
1 0 0
1 0 0
1 0 0
1 0 0
1 0 0
0 0 0
0 0 0
0 0 0
0 0 0
0 0 0
0.0615549 0 0
0.135882 0 0
0.19382 0 0
0.248676 0 0
0.30486 0 0
0.363867 0 0
0.424414 0 0
0.484627 0 0
0.540963 0 0
0.592676 0 0
0.64155 0 0
0.689036 0 0
0.735073 0 0
0.779782 0 0
0.823255 0 0
0.867231 0 0
0.911284 0 0
0.955291 0 0
0.999329 0 0
1 0 0
1 0 0
1 0 0
1 0 0
1 0 0
1 0 0
1 0 0
1 0 0
1 0 0
0 0 0
0 0 0
0 0 0
0 0 0
0.0131228 0 0
0.0440681 0 0
0.0734112 0 0
0.128923 0 0
0.209323 0 0
0.281147 0 0
0.343374 0 0
0.403525 0 0
0.464012 0 0
0.521523 0 0
0.574807 0 0
0.623789 0 0
0.671962 0 0
0.718303 0 0
0.763302 0 0
0.807263 0 0
0.85127 0 0
0.895354 0 0
0.939574 0 0
0.983276 0 0
1 0 0
1 0 0
1 0 0
1 0 0
1 0 0
1 0 0
1 0 0
1 0 0
1 0 0
0 0.0130617 0
0 0.00791943 0
0 0.00256352 0
0 0 0
0 0 0
0.0481422 0 0
0.095964 0 0
0.114229 0 0
0.147631 0 0
0.200946 0 0
0.280858 0 0
0.36701 0 0
0.43917 0 0
0.501335 0 0
0.556069 0 0
0.606867 0 0
0.654978 0 0
0.701671 0 0
0.746899 0 0
0.791165 0 0
0.835294 0 0
0.879667 0 0
0.923552 0 0
0.967117 0 0
1 0 0
1 0 0
1 0 0
1 0 0
1 0 0
1 0 0
1 0 0
1 0 0
1 0 0
0 0.054551 0
0 0.0494087 0
0 0.0441901 0
0 0.0389258 0
0 0.0340276 0
0.0227359 0.0305028 0
0.0827497 0.0229801 0
0.136538 0.0173037 0
0.16759 0.0137789 0
0.186496 0.013901 0
0.22356 0.0124514 0
0.278904 0.00776684 0
0.361044 0 0
0.450843 0 0
0.525338 0 0
0.585504 0 0
0.637613 0 0
0.685023 0 0
0.730465 0 0
0.775097 0 0
0.819471 0 0
0.863676 0 0
0.907683 0 0
0.951064 0 0
0.993957 0 0
1 0 0
1 0 0
1 0 0
1 0 0
1 0 0
1 0 0
1 0 0
1 0 0
0 0.0962692 0
0 0.0913558 0
0 0.0859998 0
0 0.0805676 0
0 0.0751659 0
0.00700389 0.0706188 0
0.055787 0.0670787 0
0.116945 0.0595254 0
0.173007 0.0533761 0
0.218387 0.0483406 0
0.236912 0.0471046 0
0.262181 0.0467231 0
0.304982 0.0443122 0
0.363455 0.0391699 0
0.439063 0.0308232 0
0.518883 0.0210269 0
0.589944 0.0128023 0
0.65185 0.00631724 0
0.706401 0.00163272 0
0.756085 0 0
0.802869 0 0
0.847654 0 0
0.891539 0 0
0.935119 0 0
0.978058 0 0
1 0 0
1 0 0
1 0 0
1 0 0
1 0 0
1 0 0
1 0 0
1 0 0
0 0.138216 0
0 0.133028 0
0 0.127275 0
0 0.121904 0
0 0.116564 0
0 0.111467 0
0.0398718 0.108339 0
0.0898299 0.104372 0
0.15053 0.096788 0
0.20885 0.0899062 0
0.261234 0.0843366 0
0.292729 0.0809949 0
0.309621 0.0803693 0
0.342 0.0791485 0
0.385763 0.0768292 0
0.438666 0.0728923 0
0.500191 0.0675669 0
0.569299 0.0606088 0
0.638209 0.053315 0
0.703258 0.04654 0
0.762783 0.0407568 0
0.817716 0.0358129 0
0.868757 0.0320287 0
0.916045 0.0289616 0
0.960952 0.0260777 0
1 0.0236973 0
1 0.0218509 0
1 0.0203403 0
1 0.0196231 0
1 0.0198672 0
1 0.0210727 0
1 0.0225834 0
1 0.0242008 0
0 0.179706 0
0 0.17464 0
0 0.169329 0
0 0.164004 0
0 0.158968 0
0 0.15375 0
0.0262455 0.148852 0
0.0733043 0.145693 0
0.123842 0.141558 0
0.183917 0.13431 0
0.244724 0.126925 0
0.300435 0.120928 0
0.344381 0.115465 0
0.363745 0.113512 0
0.385412 0.113268 0
0.419333 0.112398 0
0.458198 0.111376 0
0.501976 0.109468 0
0.552789 0.10631 0
0.611673 0.101472 0
0.676326 0.0953078 0
0.74345 0.0886244 0
0.80737 0.0825055 0
0.867353 0.0766461 0
0.921935 0.071809 0
0.972793 0.0676432 0
1 0.0644999 0
1 0.0622416 0
1 0.0606394 0
1 0.0605173 0
1 0.0617685 0
1 0.0633097 0
1 0.0653391 0
0 0.221668 0
0 0.216648 0
0 0.211337 0
0 0.206394 0
0 0.201129 0
0 0.195972 0
0.00859083 0.190738 0
0.0606546 0.185946 0
0.106905 0.183093 0
0.158145 0.179065 0
0.217609 0.171954 0
0.280552 0.163561 0
0.338262 0.157122 0
0.390906 0.150805 0
0.42002 0.147311 0
0.435294 0.147005 0
0.45864 0.147326 0
0.488869 0.147478 0
0.522881 0.147311 0
0.561257 0.146548 0
0.605524 0.144869 0
0.657069 0.141466 0
0.715114 0.136995 0
0.777905 0.131029 0
0.841169 0.124804 0
0.902815 0.118883 0
0.960204 0.113848 0
1 0.109728 0
1 0.106767 0
1 0.10573 0
1 0.106111 0
1 0.107317 0
1 0.108949 0
0 0.263676 0
0 0.258869 0
0 0.25359 0
0 0.248325 0
0 0.243046 0
0 0.237949 0
0 0.2327 0
0.0442664 0.227726 0
0.0953384 0.223239 0
0.141222 0.220478 0
0.192447 0.216114 0
0.251255 0.209216 0
0.316564 0.200092 0
0.376761 0.19324 0
0.433906 0.186526 0
0.472129 0.181598 0
0.489479 0.180346 0
0.504417 0.181308 0
0.526162 0.182422 0
0.55378 0.183307 0
0.58529 0.183444 0
0.620645 0.183017 0
0.660243 0.182101 0
0.705089 0.180026 0
0.755169 0.177188 0
0.810575 0.173358 0
0.868391 0.168765 0
0.925277 0.164385 0
0.981613 0.160418 0
1 0.158663 0
1 0.158389 0
1 0.158495 0
1 0.159197 0
0 0.306493 0
0 0.301366 0
0 0.295949 0
0 0.290578 0
0 0.28513 0
0 0.279866 0
0 0.274968 0
0.0261845 0.269612 0
0.0800641 0.264195 0
0.129107 0.260319 0
0.175357 0.25742 0
0.227039 0.252827 0
0.285969 0.246204 0
0.353735 0.236347 0
0.4159 0.228626 0
0.473686 0.221759 0
0.517922 0.216388 0
0.542992 0.214405 0
0.556405 0.214801 0
0.570901 0.216251 0
0.591455 0.217655 0
0.617853 0.218845 0
0.647639 0.219547 0
0.680598 0.220111 0
0.716258 0.220142 0
0.755779 0.219699 0
0.798657 0.21883 0
0.844907 0.217365 0
0.893217 0.215763 0
0.938796 0.215259 0
0.980743 0.215183 0
1 0.215503 0
1 0.215946 0
0 0.349859 0
0 0.344549 0
0 0.339071 0
0 0.333623 0
0 0.328206 0
0 0.322927 0
0 0.317601 0
0.00656138 0.311986 0
0.0607462 0.306401 0
0.11397 0.30106 0
0.161761 0.297765 0
0.20853 0.294636 0
0.260761 0.289693 0
0.320058 0.282734 0
0.389685 0.272129 0
0.453346 0.263447 0
0.510735 0.257176 0
0.557702 0.252308 0
0.590356 0.249561 0
0.609888 0.249042 0
0.622843 0.250172 0
0.637751 0.252354 0
0.658061 0.254688 0
0.682933 0.256458 0
0.711086 0.258 0
0.741573 0.259358 0
0.773785 0.26067 0
0.808576 0.261921 0
0.844312 0.263401 0
0.878553 0.264897 0
0.911467 0.266865 0
0.944854 0.268833 0
0.978973 0.27071 0
0 0.393393 0
0 0.388022 0
0 0.382483 0
0 0.377111 0
0 0.371572 0
0 0.366155 0
0 0.360571 0
0 0.354803 0
0.0390173 0.349126 0
0.0936904 0.343481 0
0.146014 0.338308 0
0.192111 0.335058 0
0.239872 0.331426 0
0.292943 0.326604 0
0.353613 0.319127 0
0.424659 0.308675 0
0.489174 0.299855 0
0.544305 0.294102 0
0.592538 0.290105 0
0.631662 0.287373 0
0.660761 0.286473 0
0.678996 0.2869 0
0.692027 0.288777 0
0.706554 0.29131 0
0.72549 0.29395 0
0.748486 0.296361 0
0.774639 0.29897 0
0.80264 0.301488 0
0.8309 0.303868 0
0.857801 0.306844 0
0.883497 0.310201 0
0.909255 0.313649 0
0.936049 0.31725 0
0 0.436667 0
0 0.43125 0
0 0.425986 0
0 0.420356 0
0 0.414588 0
0 0.409125 0
0 0.403372 0
0 0.397604 0
0.0166171 0.391989 0
0.0712291 0.386053 0
0.125795 0.380224 0
0.176516 0.375692 0
0.222599 0.372854 0
0.271427 0.369619 0
0.326101 0.364462 0
0.388113 0.357137 0
0.458442 0.347082 0
0.522744 0.33875 0
0.575998 0.333883 0
0.624659 0.331121 0
0.668849 0.328435 0
0.705333 0.32636 0
0.731777 0.325704 0
0.749065 0.326589 0
0.761975 0.328878 0
0.775937 0.332143 0
0.793194 0.33547 0
0.813504 0.338491 0
0.835996 0.341527 0
0.85803 0.345113 0
0.879545 0.349065 0
0.901106 0.353491 0
0.922866 0.357656 0
0 0.479271 0
0 0.474083 0
0 0.468452 0
0 0.462791 0
0 0.457008 0
0 0.451438 0
0 0.445869 0
0 0.440314 0
0 0.434669 0
0.049485 0.428992 0
0.104189 0.423301 0
0.158175 0.418235 0
0.208225 0.414862 0
0.254658 0.412558 0
0.304875 0.409003 0
0.361212 0.403723 0
0.423392 0.396719 0
0.491737 0.387518 0
0.554696 0.380163 0
0.606851 0.37612 0
0.654871 0.373068 0
0.701747 0.37023 0
0.743084 0.368002 0
0.777325 0.366766 0
0.802426 0.36669 0
0.819791 0.368185 0
0.832547 0.370657 0
0.844968 0.373785 0
0.859251 0.377279 0
0.875013 0.381582 0
0.891325 0.385931 0
0.908537 0.390585 0
0.926299 0.394903 0
0 0.520806 0
0 0.515373 0
0 0.509819 0
0 0.504341 0
0 0.499016 0
0 0.493828 0
0 0.488365 0
0 0.482887 0
0 0.477623 0
0.0297093 0.47248 0
0.0845808 0.467369 0
0.13959 0.46247 0
0.192935 0.458137 0
0.24184 0.45507 0
0.288655 0.452827 0
0.340749 0.449042 0
0.39826 0.443824 0
0.459602 0.437476 0
0.524681 0.429694 0
0.58497 0.422705 0
0.637125 0.418235 0
0.685206 0.415122 0
0.731762 0.412726 0
0.775891 0.410529 0
0.814908 0.408942 0
0.846693 0.408042 0
0.870787 0.408133 0
0.88809 0.409445 0
0.901762 0.412146 0
0.912077 0.415869 0
0.92314 0.420447 0
0.934554 0.424887 0
0.946899 0.429297 0
0 0.560998 0
0 0.555871 0
0 0.550576 0
0 0.545357 0
0 0.540703 0
0 0.535714 0
0 0.530785 0
0 0.525765 0
0 0.520775 0
0.0129244 0.51603 0
0.0681773 0.511452 0
0.123171 0.506752 0
0.177432 0.502007 0
0.229587 0.497963 0
0.277409 0.495399 0
0.325734 0.493004 0
0.379385 0.489143 0
0.436744 0.484031 0
0.495415 0.478294 0
0.55613 0.471382 0
0.615137 0.464607 0
0.667903 0.460166 0
0.715389 0.456992 0
0.760876 0.454749 0
0.804959 0.45243 0
0.845701 0.450538 0
0.881697 0.449287 0
0.911559 0.448829 0
0.935103 0.449485 0
0.95198 0.451362 0
0.964843 0.454459 0
0.975921 0.458137 0
0.985977 0.462348 0
0 0.600778 0
0 0.596063 0
0 0.591226 0
0 0.586923 0
0 0.582223 0
0 0.577432 0
0 0.572824 0
0 0.5682 0
0 0.563775 0
0.000259403 0.559091 0
0.0547951 0.554742 0
0.1093 0.550072 0
0.163516 0.54548 0
0.217319 0.541024 0
0.268528 0.537667 0
0.315938 0.535225 0
0.36585 0.53254 0
0.419745 0.528222 0
0.475181 0.523323 0
0.530922 0.518166 0
0.588556 0.512154 0
0.646296 0.50547 0
0.698619 0.500725 0
0.745235 0.497429 0
0.788968 0.494926 0
0.831495 0.492805 0
0.872328 0.491051 0
0.909895 0.489876 0
0.942412 0.489113 0
0.968261 0.489754 0
0.989197 0.491356 0
1 0.493843 0
1 0.496803 0
0 0.641321 0
0 0.63711 0
0 0.632685 0
0 0.62826 0
0 0.623713 0
0 0.619104 0
0 0.614588 0
0 0.610391 0
0 0.605875 0
0 0.601556 0
0.0437171 0.597101 0
0.0979629 0.592462 0
0.151873 0.587884 0
0.206088 0.583612 0
0.258595 0.579416 0
0.309071 0.576074 0
0.356954 0.573434 0
0.406943 0.570062 0
0.459892 0.565774 0
0.513512 0.561379 0
0.566461 0.556542 0
0.621286 0.551049 0
0.677134 0.544457 0
0.728206 0.539269 0
0.774105 0.536156 0
0.816403 0.533745 0
0.857328 0.531929 0
0.896162 0.530221 0
0.932525 0.529076 0
0.963684 0.529168 0
0.99025 0.530266 0
1 0.531914 0
1 0.533455 0
0 0.682704 0
0 0.678523 0
0 0.674327 0
0 0.669856 0
0 0.665431 0
0 0.66099 0
0 0.656825 0
0 0.652293 0
0 0.648066 0
0 0.643488 0
0.0330968 0.638972 0
0.087541 0.634577 0
0.141115 0.629938 0
0.194766 0.625254 0
0.248173 0.620829 0
0.300084 0.616541 0
0.349905 0.612863 0
0.398077 0.610056 0
0.447456 0.606439 0
0.499214 0.602304 0
0.550439 0.597833 0
0.60058 0.593469 0
0.652918 0.588098 0
0.70695 0.582055 0
0.757183 0.577005 0
0.801709 0.573495 0
0.842573 0.571099 0
0.88101 0.569329 0
0.917311 0.568048 0
0.949508 0.568002 0
0.978302 0.568658 0
1 0.569528 0
1 0.570596 0
0 0.724178 0
0 0.720348 0
0 0.715999 0
0 0.711543 0
0 0.707271 0
0 0.702907 0
0 0.698421 0
0 0.694057 0
0 0.689509 0
0 0.684825 0
0.0231479 0.680339 0
0.0767071 0.675608 0
0.129961 0.670832 0
0.183322 0.6663 0
0.236225 0.661372 0
0.289097 0.656367 0
0.340749 0.652094 0
0.390143 0.648188 0
0.437934 0.645197 0
0.486427 0.641489 0
0.536355 0.63714 0
0.585107 0.632959 0
0.63328 0.629084 0
0.683589 0.624231 0
0.735378 0.61825 0
0.783948 0.612924 0
0.827344 0.609155 0
0.866896 0.606928 0
0.902892 0.605463 0
0.93463 0.605142 0
0.962905 0.605417 0
0.989639 0.605997 0
1 0.606714 0
0 0.765682 0
0 0.761608 0
0 0.757198 0
0 0.752956 0
0 0.748501 0
0 0.743923 0
0 0.739605 0
0 0.734859 0
0 0.730037 0
0 0.72549 0
0.0127871 0.720577 0
0.0659342 0.715923 0
0.11902 0.710811 0
0.171695 0.70576 0
0.224247 0.701015 0
0.277363 0.695811 0
0.330053 0.690867 0
0.381216 0.686076 0
0.429435 0.682139 0
0.476112 0.678706 0
0.52433 0.675044 0
0.572106 0.671107 0
0.618341 0.667323 0
0.664256 0.663249 0
0.712062 0.658366 0
0.761547 0.652583 0
0.80882 0.647532 0
0.85127 0.643839 0
0.888594 0.641382 0
0.920256 0.640528 0
0.948333 0.640635 0
0.974914 0.641123 0
1 0.642054 0
0 0.806668 0
0 0.802502 0
0 0.798108 0
0 0.793515 0
0 0.78883 0
0 0.784314 0
0 0.779522 0
0 0.774701 0
0 0.769787 0
0 0.764614 0
0.00257877 0.759793 0
0.055024 0.754788 0
0.107866 0.749554 0
0.160555 0.744442 0
0.212634 0.739284 0
0.265003 0.734203 0
0.317952 0.728679 0
0.370321 0.723217 0
0.420752 0.718212 0
0.467689 0.714488 0
0.513695 0.710903 0
0.560128 0.707134 0
0.60499 0.703395 0
0.649165 0.699596 0
0.693172 0.695628 0
0.738872 0.691203 0
0.785855 0.686046 0
0.831189 0.680903 0
0.871504 0.677211 0
0.905028 0.675471 0
0.934203 0.675273 0
0.961105 0.6757 0
0.987045 0.676051 0
0 0.846662 0
0 0.842466 0
0 0.837751 0
0 0.832898 0
0 0.828229 0
0 0.823194 0
0 0.81825 0
0 0.813245 0
0 0.808057 0
0 0.803052 0
0 0.797665 0
0.0447852 0.792294 0
0.0973831 0.787198 0
0.149508 0.781842 0
0.201373 0.776699 0
0.253071 0.771115 0
0.30515 0.765347 0
0.358282 0.759426 0
0.410346 0.75378 0
0.459785 0.748989 0
0.505226 0.745007 0
0.549584 0.741268 0
0.593317 0.737591 0
0.636164 0.734249 0
0.678965 0.730892 0
0.721248 0.727153 0
0.76437 0.722881 0
0.808316 0.71809 0
0.850706 0.713527 0
0.887373 0.711116 0
0.918212 0.709819 0
0.946166 0.709316 0
0.972671 0.709209 0
0 0.88574 0
0 0.88098 0
0 0.876249 0
0 0.871199 0
0 0.866056 0
0 0.861082 0
0 0.855772 0
0 0.850584 0
0 0.845228 0
0 0.83975 0
0 0.834379 0
0.03505 0.828992 0
0.0871138 0.823377 0
0.139086 0.817823 0
0.190204 0.812268 0
0.241596 0.806516 0
0.293233 0.800702 0
0.345342 0.794659 0
0.398627 0.788388 0
0.449729 0.782498 0
0.497566 0.777523 0
0.541329 0.77377 0
0.583581 0.77055 0
0.625437 0.767483 0
0.666529 0.764126 0
0.707454 0.760647 0
0.747555 0.757244 0
0.788312 0.753536 0
0.829267 0.749798 0
0.866026 0.746548 0
0.898619 0.744396 0
0.928573 0.742992 0
0.956909 0.742306 0
0 0.923156 0
0 0.918563 0
0 0.913405 0
0 0.908064 0
0 0.902937 0
0 0.897505 0
0 0.892241 0
0 0.886748 0
0 0.88101 0
0 0.875257 0
0 0.869596 0
0.0255589 0.86389 0
0.0772259 0.858244 0
0.128634 0.852308 0
0.17969 0.846342 0
0.230854 0.84062 0
0.281621 0.834669 0
0.333532 0.828626 0
0.386404 0.821988 0
0.438895 0.815427 0
0.489189 0.809628 0
0.534874 0.805234 0
0.576379 0.802106 0
0.616205 0.799069 0
0.656168 0.79585 0
0.69572 0.792599 0
0.734997 0.789715 0
0.773205 0.786679 0
0.810712 0.783459 0
0.845243 0.780819 0
0.877791 0.778759 0
0.908492 0.776852 0
0.938262 0.775341 0
0 0.959609 0
0 0.954391 0
0 0.94931 0
0 0.943877 0
0 0.938308 0
0 0.932723 0
0 0.92694 0
0 0.921111 0
0 0.915419 0
