public/sampleLut/31.cube
TITLE "Generated by Resolve"
LUT_3D_SIZE 9
0 0 0
0.0683452 0 0
0.286671 0 0
0.524361 0 0
0.72285 0 0
0.900771 0 0
1 0 0
1 0 0
1 0 0
0 0.0130617 0
0 0 0
0.147631 0 0
0.43917 0 0
0.654978 0 0
0.835294 0 0
1 0 0
1 0 0
1 0 0
0 0.179706 0
0 0.158968 0
0.123842 0.141558 0
0.344381 0.115465 0
0.458198 0.111376 0
0.676326 0.0953078 0
0.921935 0.071809 0
1 0.0606394 0
1 0.0653391 0
0 0.349859 0
0 0.328206 0
0.0607462 0.306401 0
0.260761 0.289693 0
0.510735 0.257176 0
0.622843 0.250172 0
0.711086 0.258 0
0.844312 0.263401 0
0.978973 0.27071 0
0 0.520806 0
0 0.499016 0
0 0.477623 0
0.192935 0.458137 0
0.39826 0.443824 0
0.637125 0.418235 0
0.814908 0.408942 0
0.901762 0.412146 0
0.946899 0.429297 0
0 0.682704 0
0 0.665431 0
0 0.648066 0
0.141115 0.629938 0
0.349905 0.612863 0
0.550439 0.597833 0
0.757183 0.577005 0
0.917311 0.568048 0
1 0.570596 0
0 0.846662 0
0 0.828229 0
0 0.808057 0
0.0973831 0.787198 0
0.30515 0.765347 0
0.505226 0.745007 0
0.678965 0.730892 0
0.850706 0.713527 0
0.972671 0.709209 0
0 0.994186 0
0 0.971862 0
0 0.947738 0
0.0604257 0.923018 0
0.262959 0.898665 0
0.471809 0.87158 0
0.641932 0.854978 0
0.786038 0.843809 0
0.900557 0.838407 0
0 1 0
0 1 0
0 1 0
0.0542916 1 0
0.253666 1 0
0.458885 0.975555 0
0.64007 0.950759 0
0.768414 0.937636 0
0.866941 0.929671 0
0 0 0.0802472
0.0578775 0 0.0568093
0.271199 0 0.0355993
0.502556 0 0.0091249
0.708858 0 0
0.884169 0 0
1 0 0
1 0 0
1 0 0
0 0.00613413 0.00422675
0 0 0
0.197528 0 0
0.411017 0 0
0.635645 0 0
0.824659 0 0
0.999435 0 0
1 0 0
1 0 0
0 0.172961 0
0 0.151354 0
0.120317 0.131075 0
0.273548 0.114351 0
0.540215 0.0801099 0
0.753613 0.0691386 0
0.934462 0.0594797 0
1 0.0529488 0
1 0.0579995 0
0 0.342779 0
0 0.319814 0
0.0530556 0.287984 0
0.244633 0.266468 0
0.458381 0.241611 0
0.567773 0.250767 0
0.76434 0.246677 0
0.995727 0.230838 0
1 0.233753 0
0 0.513344 0
0 0.490883 0
0 0.4692 0
0.184161 0.435996 0
0.371786 0.411826 0
0.619028 0.403586 0
0.766613 0.405997 0
0.831052 0.417304 0
0.914107 0.431403 0
0 0.676249 0
0 0.658183 0
0 0.637705 0
0.132082 0.612528 0
0.331716 0.583352 0
0.519615 0.566964 0
0.747723 0.565484 0
0.909072 0.559823 0
1 0.563073 0
0 0.840757 0
0 0.818952 0
0 0.793408 0
0.0908827 0.759594 0
0.287968 0.736187 0
0.489509 0.720409 0
0.669779 0.717174 0
0.847654 0.702358 0
0.963211 0.699825 0
0 0.984085 0
0 0.958999 0
0 0.929244 0
0.0567483 0.902083 0
0.253269 0.880171 0
0.454566 0.849607 0
0.634379 0.838895 0
0.780102 0.832135 0
0.895506 0.825498 0
0 1 0
0 1 0
0 1 0
0.0518349 1 0
0.244755 0.988663 0
0.444572 0.957488 0
0.629389 0.930419 0
0.760281 0.923033 0
0.85864 0.915633 0
0 0 0.326146
0.049897 0 0.293965
0.253864 0 0.26714
0.476646 0 0.240528
0.662745 0 0.217838
0.807599 0 0.197818
0.978698 0 0.191531
1 0 0.201419
1 0 0.211841
0 0 0.248661
0 0 0.221637
0.175036 0 0.185168
0.364828 0 0.160021
0.572045 0 0.139803
0.777554 0 0.136294
0.951171 0 0.128374
1 0 0.127687
1 0 0.136645
0 0.164553 0.168856
0 0.139956 0.144564
0.112764 0.116701 0.121172
0.280308 0.090074 0.0950637
0.477455 0.0693675 0.0750134
0.713314 0.0592203 0.0661326
0.907057 0.0505684 0.0585946
1 0.0445563 0.0536049
1 0.0502937 0.0605936
0 0.334218 0.0907759
0 0.30457 0.0708476
0.0460059 0.260517 0.0515755
0.222873 0.238514 0.0347448
0.372259 0.229435 0.0879072
0.634379 0.21416 0.00102235
0.847715 0.215045 0
1 0.214847 0
1 0.224567 0
0 0.504768 0.00294499
0 0.482826 0
0 0.443198 0
0.165805 0.377691 0
0.324605 0.361822 0
0.540413 0.360845 0
0.684184 0.401373 0.0751812
0.843336 0.410819 0.0524758
1 0.411124 0.00015259
0 0.667826 0
0 0.646204 0
0 0.604089 0
0.121492 0.567727 0
0.284901 0.514092 0
0.463554 0.51751 0
0.72079 0.54612 0
0.882734 0.551904 0
0.928725 0.561349 0
0 0.832242 0
0 0.806714 0
0 0.769879 0
0.0915236 0.711864 0
0.26836 0.689769 0
0.455497 0.680949 0
0.639185 0.688197 0
0.835477 0.68835 0
0.95201 0.689906 0
0 0.97293 0
0 0.946761 0
0 0.915877 0
0.0558785 0.880079 0
0.251774 0.828779 0
0.429023 0.808209 0
0.608499 0.802869 0
0.7673 0.815518 0
0.889204 0.811368 0
0 1 0
0 1 0
0 1 0
0.0644694 0.978698 0
0.2486 0.951507 0
0.4318 0.919753 0
0.610346 0.899779 0
0.747799 0.90341 0
0.848386 0.900038 0
0 0 0.576135
0.0393988 0 0.546258
0.240833 0 0.518715
0.437369 0 0.470726
0.55317 0 0.386297
0.669657 0 0.346105
0.847471 0 0.359335
1 0 0.409293
1 0 0.45301
0 0 0.513313
0 0 0.458564
0.15967 0 0.403021
0.335363 0 0.366094
0.53167 0 0.34342
0.70132 0 0.332464
0.868559 0 0.329046
1 0 0.340108
1 0 0.372869
0 0.152743 0.416144
0 0.128923 0.377096
0.0997635 0.104524 0.329839
0.271748 0.0845197 0.296086
0.4692 0.0645762 0.278294
0.634775 0.049958 0.260517
0.824857 0.0423438 0.264973
1 0.0383612 0.273915
1 0.0447547 0.295979
0 0.318105 0.331609
0 0.28426 0.296468
0.040528 0.239216 0.249012
0.206867 0.217655 0.226535
0.373465 0.203021 0.212497
0.572427 0.194476 0.204944
0.795193 0.199588 0.211734
0.976806 0.203067 0.216663
1 0.214664 0.229496
0 0.491539 0.244221
0 0.465995 0.223438
0 0.39559 0.192325
0.154971 0.334142 0.172961
0.290349 0.324895 0.167941
0.466758 0.348318 0.223148
0.728862 0.360632 0.160891
0.93373 0.372213 0.151812
1 0.384512 0.157076
0 0.656474 0.192187
0 0.631006 0.170901
0 0.571939 0.145876
0.117418 0.511406 0.134218
0.265492 0.480995 0.135698
0.438514 0.493034 0.122683
0.648157 0.502403 0.111376
0.78201 0.539742 0.211246
0.878828 0.56054 0.232029
0 0.818006 0.156374
0 0.796597 0.133822
0 0.742535 0.113695
0.0973983 0.67013 0.113466
0.253346 0.637629 0.125505
0.406073 0.630442 0.128695
0.590387 0.648722 0.0836042
0.807797 0.670024 0.0173342
0.934005 0.677989 0.000427253
0 0.952941 0.12929
0 0.936965 0.102678
0 0.901808 0.0806897
0.0773327 0.833066 0.09308
0.261814 0.77055 0.13724
0.405676 0.755993 0.144091
0.578256 0.765225 0.082475
0.732296 0.784054 0.000259403
0.873579 0.792706 0
0 1 0.133913
0 1 0.112779
0 0.998123 0.0932326
0.0765393 0.951202 0.0940871
0.260868 0.911391 0.103868
0.425071 0.878035 0.112047
0.586221 0.863157 0.0681621
0.71693 0.865125 0
0.826474 0.875731 0
0 0 0.705333
0.0331884 0 0.740627
0.228794 0 0.714809
0.414054 0 0.664668
0.504784 0 0.556527
0.646311 0 0.537316
0.816953 0 0.556359
0.973922 0 0.572747
1 0 0.626932
0 0 0.632502
0 0 0.644602
0.152697 0 0.623514
0.346563 0 0.611154
0.480949 0 0.530922
0.557794 0 0.446159
0.711589 0 0.450538
0.877226 0 0.479408
1 0 0.529671
0 0.132326 0.598489
0 0.116426 0.589014
0.0864271 0.0917983 0.524147
0.24715 0.0753643 0.492836
0.421698 0.0575418 0.471351
0.578302 0.0448463 0.445289
0.765072 0.0358282 0.463218
0.940322 0.0327916 0.485435
1 0.0400092 0.500938
0 0.275822 0.528374
0 0.251026 0.493828
0.0349279 0.221378 0.442252
0.189899 0.203586 0.410147
0.388724 0.20502 0.435859
0.569696 0.190509 0.418952
0.738338 0.185626 0.415793
0.939452 0.193133 0.44361
1 0.205646 0.466026
0 0.459236 0.480522
0 0.435111 0.456718
0 0.359411 0.380041
0.151812 0.327276 0.346685
0.322454 0.348959 0.368826
0.50692 0.337835 0.357656
0.675349 0.332815 0.354284
0.883223 0.35201 0.374823
1 0.367803 0.392233
0 0.639536 0.437095
0 0.616007 0.409659
0 0.54522 0.349996
0.121599 0.453513 0.296864
0.243397 0.437873 0.293065
0.402426 0.461738 0.299535
0.581659 0.485954 0.355825
0.780285 0.509789 0.331685
0.970474 0.529244 0.307805
0 0.789944 0.385824
0 0.774136 0.363058
0 0.707027 0.319799
0.110048 0.62594 0.289281
0.248478 0.605112 0.291234
0.409751 0.635264 0.287572
0.578759 0.636561 0.270512
0.736126 0.634714 0.265003
0.869963 0.663172 0.297704
0 0.930159 0.356756
0 0.918975 0.332921
0 0.882216 0.305745
0.0997787 0.796796 0.295415
0.265858 0.756298 0.301976
0.406897 0.767498 0.28072
0.572229 0.757443 0.258381
0.703746 0.759457 0.232944
0.852201 0.774151 0.189502
0 0.993744 0.363592
0 1 0.33727
0 0.993194 0.308812
0.0773785 0.93756 0.298451
0.290898 0.859831 0.329564
0.428458 0.829618 0.34165
0.561929 0.82237 0.309514
0.682918 0.825284 0.261845
0.785321 0.838666 0.204044
0 0 0.855497
0.0293126 0 0.91519
0.213794 0 0.861051
0.379049 0 0.796216
0.47921 0 0.689342
0.646555 0 0.695903
0.862318 0 0.757458
1 0 0.796887
1 0 0.819089
0 0 0.815824
0 0 0.816632
0.145556 0 0.783536
0.311727 0 0.741588
0.454414 0 0.676555
0.561685 0 0.616342
0.736049 0 0.642603
0.893645 0 0.668605
1 0 0.692058
0 0.135988 0.809857
0 0.112352 0.764538
0.0784314 0.084184 0.662226
0.23064 0.0701457 0.644953
0.433829 0.0544289 0.669886
0.588159 0.0403296 0.641443
0.748577 0.0360418 0.644038
0.935927 0.0309758 0.681437
1 0.0363012 0.712963
0 0.270909 0.711696
0 0.249241 0.685466
0.0319219 0.214572 0.620371
0.172534 0.187716 0.555169
0.359487 0.195575 0.608759
0.564446 0.187228 0.621332
0.778592 0.192889 0.654948
0.967422 0.193225 0.679255
1 0.203464 0.696559
0 0.454429 0.685542
0 0.422904 0.656687
0.000228885 0.34374 0.564172
0.148089 0.314504 0.524132
0.290822 0.322286 0.5402
0.53077 0.347646 0.59086
0.714351 0.345129 0.594659
0.88986 0.350057 0.608057
1 0.362203 0.625528
0 0.639368 0.663798
0 0.617365 0.641932
0 0.528588 0.557794
0.126101 0.423316 0.459571
0.240192 0.430869 0.467521
0.443366 0.487251 0.519631
0.631296 0.489845 0.520439
0.802777 0.498466 0.530678
0.966186 0.519463 0.550286
0 0.787182 0.623316
0 0.768185 0.602502
0 0.70602 0.548638
0.113939 0.615122 0.478645
0.248005 0.587564 0.463249
0.398993 0.624628 0.483299
0.578882 0.631571 0.474418
0.752346 0.655039 0.520882
0.865797 0.66508 0.513436
0 0.923064 0.59704
0 0.902358 0.572
0 0.859083 0.536629
0.108125 0.77792 0.497246
0.266636 0.745418 0.487007
0.399252 0.751202 0.479149
0.580652 0.767559 0.442466
0.724453 0.766278 0.414786
0.847562 0.7664 0.402991
0 1 0.596017
0 1 0.574975
0 0.971038 0.544274
0.0961318 0.9084 0.520363
0.29897 0.838712 0.519081
0.422156 0.824689 0.508461
0.560632 0.831342 0.459922
0.684443 0.821912 0.430579
0.780377 0.829175 0.394385
0 0 1
0.0261082 0 1
0.203952 0 1
0.361181 0 0.928237
0.485954 0 0.838804
0.625711 0 0.816785
0.837751 0 0.891356
1 0 0.971878
1 0 1
0 0 1
0 0 1
0.141344 0 0.93724
0.286381 0 0.852262
0.424613 0 0.790677
0.552483 0 0.746914
0.719387 0 0.773449
0.967102 0 0.883131
1 0 0.933989
0 0.135729 0.998825
0 0.111864 0.944152
0.0761578 0.0823682 0.809674
0.219638 0.0673686 0.770642
0.389883 0.0536507 0.775586
0.604944 0.0393225 0.818021
0.772885 0.0312963 0.827756
0.961975 0.0308995 0.870985
1 0.0385443 0.906355
0 0.274647 0.892775
0 0.269749 0.913573
0.03122 0.212711 0.769009
0.164401 0.180575 0.661494
0.319615 0.185809 0.708247
0.593591 0.192386 0.819638
0.781689 0.189014 0.836667
0.952804 0.195087 0.854459
1 0.20502 0.880598
0 0.465705 0.886107
0 0.444877 0.8701
0 0.36968 0.762921
0.148486 0.313558 0.668513
0.2654 0.301762 0.646204
0.500648 0.335164 0.738491
0.715358 0.344305 0.776547
0.882139 0.350683 0.78999
1 0.361959 0.822049
0 0.641962 0.858183
0 0.618036 0.834195
0 0.54287 0.747387
0.128267 0.427985 0.617014
0.237308 0.420264 0.608698
0.409247 0.464836 0.666758
0.667445 0.50753 0.730846
0.84387 0.510399 0.741207
0.971771 0.516442 0.75169
0 0.787884 0.816999
0 0.768811 0.798047
0 0.727245 0.757565
0.114702 0.619791 0.657176
0.252384 0.581125 0.62385
0.387457 0.612009 0.652018
0.613519 0.647105 0.679957
0.777066 0.644572 0.675929
0.904311 0.650156 0.681147
0 0.936828 0.803433
0 0.89926 0.769879
0 0.8663 0.740108
0.0881514 0.791897 0.689342
0.265171 0.744686 0.662058
0.395697 0.737102 0.65539
0.567575 0.755123 0.643961
0.721187 0.757687 0.627695
0.82623 0.758495 0.647303
0 1 0.800809
0 1 0.77203
0 0.954711 0.736324
0.0923781 0.902113 0.706172
0.297047 0.834333 0.682857
0.420539 0.814664 0.66949
0.549966 0.817838 0.641703
0.69572 0.831708 0.605859
0.801404 0.836057 0.583597
0 0 1
0.0248569 0 1
0.214984 0 1
0.386618 0 1
0.503731 0 0.989837
0.625803 0 0.9402
0.796643 0 0.980514
1 0 1
1 0 1
0 0 1
0 0 1
0.146609 0 1
0.311864 0 1
0.438773 0 0.935546
0.563302 0 0.879591
0.698741 0 0.874556
0.917433 0 0.979034
1 0 1
0 0.142489 1
0 0.120073 1
0.0819867 0.0894484 1
0.225849 0.0683604 0.915312
0.371893 0.054612 0.877119
0.585489 0.0402991 0.932052
0.770199 0.0316625 0.968215
0.94345 0.0286564 1
1 0.035172 1
0 0.289387 1
0 0.281285 1
0.0245518 0.239368 1
0.180468 0.196612 0.846815
0.304662 0.183963 0.799878
0.545571 0.185382 0.905837
0.795056 0.191287 1
0.961135 0.191638 1
1 0.205859 1
0 0.466484 1
0 0.456138 1
0 0.413581 0.994736
0.152911 0.336919 0.838407
0.278141 0.313939 0.784894
0.465614 0.323964 0.834577
0.736568 0.351553 0.950973
0.904112 0.351415 0.965957
1 0.362005 0.976303
0 0.644816 1
0 0.630549 1
0 0.592874 0.972168
0.120378 0.482887 0.808576
0.246128 0.433234 0.72903
0.380652 0.447395 0.750668
0.639307 0.495781 0.858503
0.843931 0.508263 0.904631
0.963607 0.515221 0.913146
0 0.79646 0.992386
0 0.775937 0.971908
0 0.749981 0.945083
0.0890059 0.670588 0.846983
0.258579 0.604547 0.760449
0.380194 0.601541 0.755032
0.585046 0.631312 0.809491
0.794339 0.648981 0.850385
0.903746 0.648646 0.848768
0 0.942168 0.976165
0 0.910933 0.944961
0 0.875944 0.910384
0.0482185 0.824109 0.860655
0.258183 0.758373 0.799954
0.397513 0.739437 0.782635
0.556008 0.743862 0.784009
0.737896 0.761822 0.795392
0.848676 0.757366 0.790646
0 1 0.9776
0 1 0.942824
0 0.976349 0.905013
0.0425574 0.930327 0.866804
0.276051 0.85156 0.813718
0.419242 0.815442 0.78912
0.542641 0.801862 0.771527
0.679896 0.817777 0.76051
0.799374 0.828855 0.751263
0 0 1
0.0265202 0 1
0.228519 0 1
0.427848 0 1
0.562188 0 1
0.65098 0 1
0.767849 0 1
0.990448 0 1
1 0 1
0 0 1
0 0 1
0.157031 0 1
0.333135 0 1
0.478279 0 1
0.568276 0 0.968994
0.703624 0 0.963668
0.904524 0 1
1 0 1
0 0.142275 1
0 0.123949 1
0.0886854 0.0972915 1
0.249638 0.0737011 1
0.393118 0.0575265 0.997665
0.578561 0.0444648 1
0.778454 0.0349889 1
0.931838 0.032639 1
1 0.0366674 1
0 0.295262 1
0 0.28957 1
0.0224002 0.255833 1
0.196826 0.212543 1
0.332662 0.194446 0.934524
0.518288 0.186099 0.959838
0.782757 0.193149 1
0.957153 0.194156 1
1 0.203677 1
0 0.468666 1
0 0.465064 1
0 0.437888 1
0.159396 0.371817 1
0.295415 0.330358 0.903899
0.439979 0.319158 0.88368
0.724987 0.351049 1
0.902495 0.353429 1
1 0.361685 1
0 0.645014 1
0 0.635203 1
0 0.610391 1
0.116518 0.521706 0.961028
0.254749 0.44538 0.81323
0.366033 0.441428 0.793393
0.601373 0.484215 0.910216
0.849256 0.510735 1
0.968978 0.513512 1
0 0.798337 1
0 0.785489 1
0 0.764096 1
0.0748302 0.696681 0.983551
0.268788 0.600244 0.821591
0.37229 0.587533 0.788922
0.526009 0.605005 0.830243
0.77055 0.641398 0.944137
0.905028 0.646632 0.966644
0 0.942397 1
0 0.920165 1
0 0.895277 1
0.00881971 0.855543 1
0.250874 0.774639 0.904967
0.403922 0.734936 0.855238
0.53666 0.722698 0.842481
0.71635 0.750027 0.891646
0.841062 0.752895 0.901915
0 1 1
0 1 1
0 0.999802 1
0 0.960983 0.999802
0.283131 0.848341 0.895766
0.457145 0.764843 0.82153
0.532403 0.751873 0.808911
0.646952 0.788891 0.835904
0.802701 0.827482 0.863752
