public/sampleLut/31.cube
TITLE "Generated by Resolve"
LUT_3D_SIZE 5
0 0 0
0.286671 0 0
0.72285 0 0
1 0 0
1 0 0
0 0.179706 0
0.123842 0.141558 0
0.458198 0.111376 0
0.921935 0.071809 0
1 0.0653391 0
0 0.520806 0
0 0.477623 0
0.39826 0.443824 0
0.814908 0.408942 0
0.946899 0.429297 0
0 0.846662 0
0 0.808057 0
0.30515 0.765347 0
0.678965 0.730892 0
0.972671 0.709209 0
0 1 0
0 1 0
0.253666 1 0
0.64007 0.950759 0
0.866941 0.929671 0
0 0 0.326146
0.253864 0 0.26714
0.662745 0 0.217838
0.978698 0 0.191531
1 0 0.211841
0 0.164553 0.168856
0.112764 0.116701 0.121172
0.477455 0.0693675 0.0750134
0.907057 0.0505684 0.0585946
1 0.0502937 0.0605936
0 0.504768 0.00294499
0 0.443198 0
0.324605 0.361822 0
0.684184 0.401373 0.0751812
1 0.411124 0.00015259
0 0.832242 0
0 0.769879 0
0.26836 0.689769 0
0.639185 0.688197 0
0.95201 0.689906 0
0 1 0
0 1 0
0.2486 0.951507 0
0.610346 0.899779 0
0.848386 0.900038 0
0 0 0.705333
0.228794 0 0.714809
0.504784 0 0.556527
0.816953 0 0.556359
1 0 0.626932
0 0.132326 0.598489
0.0864271 0.0917983 0.524147
0.421698 0.0575418 0.471351
0.765072 0.0358282 0.463218
1 0.0400092 0.500938
0 0.459236 0.480522
0 0.359411 0.380041
0.322454 0.348959 0.368826
0.675349 0.332815 0.354284
1 0.367803 0.392233
0 0.789944 0.385824
0 0.707027 0.319799
0.248478 0.605112 0.291234
0.578759 0.636561 0.270512
0.869963 0.663172 0.297704
0 0.993744 0.363592
0 0.993194 0.308812
0.290898 0.859831 0.329564
0.561929 0.82237 0.309514
0.785321 0.838666 0.204044
0 0 1
0.203952 0 1
0.485954 0 0.838804
0.837751 0 0.891356
1 0 1
0 0.135729 0.998825
0.0761578 0.0823682 0.809674
0.389883 0.0536507 0.775586
0.772885 0.0312963 0.827756
1 0.0385443 0.906355
0 0.465705 0.886107
0 0.36968 0.762921
0.2654 0.301762 0.646204
0.715358 0.344305 0.776547
1 0.361959 0.822049
0 0.787884 0.816999
0 0.727245 0.757565
0.252384 0.581125 0.62385
0.613519 0.647105 0.679957
0.904311 0.650156 0.681147
0 1 0.800809
0 0.954711 0.736324
0.297047 0.834333 0.682857
0.549966 0.817838 0.641703
0.801404 0.836057 0.583597
0 0 1
0.228519 0 1
0.562188 0 1
0.767849 0 1
1 0 1
0 0.142275 1
0.0886854 0.0972915 1
0.393118 0.0575265 0.997665
0.778454 0.0349889 1
1 0.0366674 1
0 0.468666 1
0 0.437888 1
0.295415 0.330358 0.903899
0.724987 0.351049 1
1 0.361685 1
0 0.798337 1
0 0.764096 1
0.268788 0.600244 0.821591
0.526009 0.605005 0.830243
0.905028 0.646632 0.966644
0 1 1
0 0.999802 1
0.283131 0.848341 0.895766
0.532403 0.751873 0.808911
0.802701 0.827482 0.863752
