public/sampleLut/4.cube
TITLE "Blockbuster-V2_0-Native"
LUT_3D_SIZE 9
# S-Log3/Sony S-Gamut3.cine -> LA - Blockbuster type2/LA - Blockbuster type2, CineEI Shift 0.00, Black Level 0.46% IRE, Input 109% -> Output 100% - Created with LUTCalc v3.1.2 by Ben Turley September 2017
0.000000 0.000000 0.000000
0.018881 0.000000 0.000000
0.107505 0.019869 0.000000
0.287922 0.038509 0.000000
0.553064 0.129576 0.019697
0.819431 0.072549 0.060539
0.912489 0.115607 0.073826
0.985476 0.234073 0.085603
0.985663 0.434699 0.124308
0.000000 0.018478 0.000000
0.013625 0.017632 0.000000
0.105403 0.037096 0.000000
0.283396 0.053382 0.000000
0.558680 0.114469 0.019925
0.819289 0.076696 0.060862
0.913083 0.120006 0.074460
0.985476 0.234365 0.086989
0.985663 0.434699 0.124308
0.002554 0.085088 0.025555
0.020421 0.085588 0.028575
0.106502 0.078876 0.016302
0.306895 0.104799 0.000000
0.573598 0.088912 0.021296
0.819284 0.083099 0.061467
0.914245 0.125921 0.075409
0.985476 0.240324 0.088849
0.985663 0.434699 0.124308
0.008074 0.188896 0.071123
0.030309 0.193062 0.067700
0.105322 0.232730 0.065124
0.358194 0.207085 0.017758
0.695076 0.267167 0.057576
0.832670 0.142645 0.069203
0.921194 0.144257 0.078648
0.985477 0.256166 0.094070
0.985663 0.434699 0.124308
0.025552 0.371412 0.144349
0.068709 0.383937 0.128884
0.137004 0.420306 0.118051
0.400032 0.519443 0.150311
0.740224 0.438825 0.087944
0.950951 0.490309 0.124058
0.960625 0.293098 0.104157
0.985479 0.290841 0.106319
0.985663 0.434699 0.124308
0.115055 0.629004 0.274610
0.151479 0.635812 0.254493
0.220118 0.649443 0.233797
0.395357 0.693162 0.235318
0.693341 0.767133 0.255994
0.935379 0.673633 0.151322
0.987874 0.706948 0.167631
0.984695 0.593277 0.167649
0.985663 0.434701 0.124308
0.311515 0.859070 0.467090
0.345910 0.861537 0.452412
0.381273 0.864664 0.445592
0.476879 0.872039 0.435971
0.642929 0.896979 0.436686
0.852864 0.934316 0.439183
0.987870 0.851553 0.201613
0.988010 0.735559 0.174066
0.986410 0.399819 0.122339
0.583642 0.990439 0.658963
0.600331 0.990567 0.653654
0.623314 0.990769 0.645093
0.656366 0.990896 0.640071
0.711994 0.990893 0.638202
0.807152 0.992113 0.636837
0.957553 0.994983 0.601237
0.993495 0.985823 0.338141
0.990744 1.004492 0.363519
0.770074 0.998404 0.798754
0.774845 0.998502 0.797815
0.781593 0.998665 0.796383
0.798718 0.998916 0.792322
0.819752 0.999198 0.789923
0.855929 1.000331 0.788314
0.935105 0.997361 0.776242
0.996313 1.004483 0.741792
0.996179 1.006387 0.648423
0.000000 0.010462 0.021877
0.000000 0.004800 0.010270
0.077510 0.035945 0.025877
0.276541 0.044423 0.000000
0.561651 0.090488 0.019095
0.814181 0.083596 0.060664
0.911694 0.117688 0.074084
0.985476 0.234041 0.085436
0.985663 0.434699 0.124308
0.000000 0.018338 0.019597
0.002115 0.014323 0.015317
0.092916 0.041774 0.015891
0.280296 0.051424 0.000000
0.571728 0.063773 0.019229
0.813880 0.088363 0.060976
0.912700 0.121909 0.074753
0.985476 0.234333 0.086819
0.985663 0.434699 0.124308
0.000000 0.093799 0.052699
0.014183 0.085032 0.041659
0.096007 0.079671 0.030691
0.293346 0.103782 0.000000
0.568265 0.086269 0.020310
0.813746 0.097000 0.061600
0.914483 0.128008 0.075753
0.985476 0.240217 0.088674
0.985663 0.434699 0.124308
0.000000 0.201110 0.101585
0.017610 0.194802 0.084856
0.080010 0.219552 0.074143
0.336991 0.203543 0.028736
0.681875 0.264226 0.055039
0.826553 0.151619 0.068719
0.922185 0.146513 0.079044
0.985477 0.252291 0.092984
0.985663 0.434699 0.124308
0.022945 0.398018 0.187775
0.048711 0.390576 0.162278
0.113275 0.412477 0.140991
0.345410 0.498037 0.153936
0.714857 0.437684 0.084513
0.942200 0.487549 0.122177
0.961216 0.295697 0.104421
0.985479 0.282605 0.104655
0.985663 0.434699 0.124308
0.114532 0.644566 0.316331
0.136399 0.640298 0.286032
0.203797 0.654201 0.267083
0.373731 0.690278 0.252755
0.674696 0.762562 0.273193
0.918458 0.677026 0.150035
0.987864 0.701260 0.166609
0.984697 0.583924 0.165289
0.985663 0.434701 0.124308
0.312092 0.862292 0.487606
0.337040 0.863170 0.468140
0.372218 0.866235 0.461052
0.468002 0.873549 0.451257
0.636618 0.896042 0.447526
0.848517 0.933614 0.448686
0.987655 0.852498 0.203203
0.988030 0.736521 0.174224
0.986410 0.399839 0.122341
0.583501 0.990488 0.665143
0.599360 0.990607 0.658301
0.622427 0.990810 0.649872
0.655454 0.990945 0.644629
0.711048 0.990941 0.642633
0.806456 0.992071 0.640820
0.956840 0.994953 0.604494
0.993505 0.985107 0.340248
0.990744 1.004212 0.361436
0.768354 0.998346 0.800186
0.774742 0.998511 0.798782
0.781497 0.998670 0.797308
0.798628 0.998921 0.793150
0.819709 0.999205 0.790727
0.855881 1.000338 0.789114
0.935011 0.997398 0.777305
0.996317 1.004482 0.742400
0.996202 1.006367 0.654057
0.000000 0.069648 0.104555
0.000000 0.062126 0.086726
0.034174 0.056753 0.065225
0.180730 0.108153 0.086340
0.517181 0.143336 0.017723
0.802450 0.106823 0.060829
0.912041 0.121185 0.074664
0.985476 0.227099 0.083618
0.985663 0.434699 0.124308
0.000000 0.071429 0.094797
0.000000 0.069716 0.095970
0.042179 0.063161 0.071878
0.192090 0.109936 0.085563
0.526207 0.131025 0.019357
0.802069 0.111843 0.061194
0.912667 0.125129 0.075284
0.985476 0.225950 0.084603
0.985663 0.434699 0.124308
0.000000 0.083615 0.087987
0.000000 0.085531 0.087464
0.058890 0.090081 0.092620
0.271198 0.107529 0.042331
0.541754 0.129339 0.024567
0.801974 0.121192 0.061859
0.913982 0.131446 0.076218
0.985476 0.228797 0.085663
0.985663 0.434699 0.124308
0.000000 0.249716 0.176637
0.000000 0.231172 0.150716
0.048749 0.217483 0.120790
0.302921 0.214285 0.078868
0.632326 0.264275 0.049045
0.812904 0.165679 0.067335
0.920506 0.150118 0.079441
0.985477 0.235621 0.089044
0.985663 0.434699 0.124308
0.034597 0.445025 0.264352
0.029985 0.422095 0.227259
0.084787 0.420031 0.190717
0.281307 0.481632 0.174515
0.672145 0.446255 0.085362
0.925014 0.483166 0.118626
0.960651 0.296513 0.104198
0.985479 0.269473 0.102345
0.985663 0.434699 0.124308
0.100302 0.659688 0.374747
0.119706 0.655150 0.343811
0.177255 0.660119 0.310715
0.345268 0.687592 0.281289
0.642658 0.756071 0.295615
0.895897 0.682821 0.155984
0.987708 0.692032 0.164052
0.984699 0.570615 0.161406
0.985663 0.434701 0.124308
0.293107 0.863567 0.515737
0.315446 0.864326 0.496133
0.363537 0.867791 0.479220
0.459603 0.874978 0.468616
0.631273 0.895030 0.462827
0.841798 0.932524 0.463311
0.987304 0.853937 0.205671
0.988060 0.737949 0.174469
0.986409 0.399870 0.122342
0.583277 0.990564 0.673960
0.599167 0.990685 0.667710
0.621047 0.990879 0.657255
0.654012 0.991021 0.651967
0.709569 0.991017 0.649881
0.805805 0.992024 0.645960
0.955694 0.994905 0.609322
0.993520 0.984084 0.343518
0.990743 1.003673 0.358192
0.765575 0.998257 0.802518
0.772266 0.998416 0.801053
0.781342 0.998677 0.798825
0.798487 0.998930 0.794482
0.819641 0.999216 0.791996
0.855807 1.000348 0.790362
0.934861 0.997456 0.778982
0.996324 1.004481 0.743358
0.996238 1.006339 0.662458
0.000000 0.168828 0.251158
0.000000 0.161566 0.221432
0.000000 0.156017 0.190179
0.076055 0.159260 0.149292
0.327172 0.212017 0.155132
0.661406 0.257999 0.143191
0.910091 0.131439 0.076152
0.985476 0.196824 0.076706
0.985663 0.434699 0.124308
0.000000 0.170850 0.235352
0.000000 0.168123 0.240280
0.000000 0.162033 0.204817
0.083314 0.163496 0.154927
0.333436 0.213832 0.155391
0.661678 0.264042 0.145114
0.911179 0.135815 0.076809
0.985476 0.197065 0.077719
0.985663 0.434699 0.124308
0.000000 0.173724 0.226104
0.000000 0.178554 0.228387
0.000000 0.183371 0.249498
0.109042 0.180838 0.181860
0.349194 0.218927 0.158381
0.671166 0.270922 0.143543
0.913624 0.141272 0.077794
0.985476 0.201887 0.078994
0.985663 0.434699 0.124308
0.000000 0.202954 0.224595
0.000000 0.213969 0.229018
0.000000 0.229672 0.241899
0.160371 0.258832 0.270249
0.570502 0.267889 0.189437
0.739624 0.282767 0.136702
0.921000 0.162812 0.081364
0.985477 0.216152 0.083367
0.985663 0.434699 0.124308
0.048560 0.498507 0.423923
0.050494 0.506207 0.400110
0.046782 0.491902 0.363591
0.176889 0.483741 0.297609
0.612844 0.489894 0.224060
0.859148 0.508222 0.153418
0.954200 0.296059 0.102638
0.985479 0.261766 0.100329
0.985663 0.434699 0.124308
0.100786 0.697507 0.511088
0.099477 0.688579 0.478646
0.106386 0.683370 0.454287
0.280440 0.696941 0.384013
0.578393 0.746723 0.373344
0.870263 0.707161 0.224811
0.986318 0.689069 0.163698
0.984978 0.550937 0.153948
0.985663 0.434701 0.124308
0.219579 0.864315 0.594786
0.241906 0.865067 0.574193
0.290321 0.868380 0.556104
0.438888 0.879048 0.517222
0.617443 0.892230 0.506992
0.823349 0.929292 0.505608
0.986661 0.858971 0.228101
0.988075 0.731732 0.174517
0.986407 0.399969 0.122347
0.564681 0.990658 0.693242
0.581128 0.990778 0.687886
0.605515 0.990982 0.680178
0.651831 0.991165 0.667398
0.707699 0.991148 0.664981
0.804643 0.991881 0.661051
0.952035 0.994762 0.622762
0.993568 0.980612 0.353353
0.990742 1.002143 0.348368
0.757018 0.998008 0.810078
0.763835 0.998145 0.808596
0.774276 0.998384 0.806141
0.798055 0.998956 0.798956
0.819430 0.999248 0.796081
0.855577 1.000378 0.794255
0.934500 0.997603 0.783099
0.996346 1.004477 0.746383
0.996353 1.006248 0.683150
0.005741 0.319131 0.454409
0.003416 0.309376 0.420242
0.000933 0.304890 0.369635
0.000318 0.301436 0.304934
0.139153 0.313246 0.209214
0.529865 0.317746 0.158675
0.636477 0.331125 0.190818
0.985476 0.145562 0.064561
0.985663 0.434698 0.124308
0.005612 0.319682 0.437792
0.006410 0.321985 0.451220
0.003462 0.314594 0.421235
0.001439 0.305022 0.323411
0.142544 0.315811 0.211069
0.534480 0.319843 0.160083
0.649301 0.329446 0.186201
0.985476 0.144808 0.065417
0.985663 0.434698 0.124308
0.006179 0.322167 0.434697
0.008860 0.331284 0.443616
0.010167 0.335288 0.470294
0.006154 0.321535 0.376097
0.155907 0.322593 0.217991
0.542566 0.322784 0.162656
0.671078 0.328387 0.182857
0.985476 0.145357 0.066438
0.985663 0.434699 0.124308
0.008989 0.332675 0.431504
0.010723 0.342886 0.440006
0.016738 0.363955 0.461574
0.026708 0.387914 0.507232
0.331705 0.380596 0.339349
0.578980 0.339077 0.186125
0.719367 0.344123 0.189448
0.985477 0.151358 0.069718
0.985663 0.434699 0.124308
0.021506 0.389644 0.448368
0.026331 0.410764 0.458380
0.033163 0.435009 0.474339
0.050586 0.473772 0.501708
0.455538 0.548270 0.559804
0.799443 0.555957 0.509661
0.859322 0.442700 0.271948
0.985479 0.168883 0.079275
0.985663 0.434699 0.124308
0.105705 0.719724 0.677247
0.108973 0.732667 0.673009
0.109727 0.735303 0.662869
0.118807 0.729613 0.625583
0.495064 0.747856 0.560461
0.838460 0.742884 0.473152
0.983957 0.743107 0.400977
0.985867 0.488129 0.138008
0.985663 0.434701 0.124308
0.152259 0.872765 0.731230
0.157344 0.871777 0.716926
0.178738 0.873209 0.701103
0.296811 0.884551 0.677677
0.588731 0.899193 0.606561
0.793020 0.922219 0.598034
0.984979 0.877008 0.394663
0.989898 0.800004 0.208313
0.986402 0.423597 0.125160
0.506119 0.990800 0.753733
0.522527 0.990930 0.747711
0.547116 0.991145 0.739691
0.597741 0.991358 0.725516
0.704189 0.991502 0.698341
0.801772 0.991475 0.693979
0.941955 0.994321 0.667810
0.993835 0.971670 0.388944
0.990335 1.001306 0.295135
0.742955 0.997598 0.827354
0.747980 0.997706 0.825948
0.757503 0.997891 0.823691
0.786954 0.998624 0.816747
0.819767 0.999339 0.807288
0.856104 1.000441 0.804626
0.934197 0.998096 0.793331
0.996412 1.004465 0.757158
0.996706 1.005977 0.744261
0.051132 0.499853 0.646500
0.051162 0.498296 0.665433
0.049269 0.488247 0.685205
0.042170 0.472084 0.523130
0.051480 0.462026 0.384620
0.367539 0.479747 0.239006
0.727856 0.291841 0.025143
0.076260 0.194171 0.028447
0.985663 0.434699 0.124308
0.051646 0.501985 0.643802
0.051678 0.500453 0.663166
0.051048 0.496039 0.680113
0.045972 0.481703 0.590026
0.060134 0.464563 0.404935
0.375783 0.479067 0.239702
0.729805 0.296960 0.026297
0.081357 0.193419 0.031509
0.985663 0.434699 0.124308
0.050777 0.497965 0.648358
0.052258 0.503105 0.662476
0.052790 0.504428 0.675802
0.049474 0.491990 0.639999
0.084791 0.470637 0.452333
0.390288 0.477667 0.240686
0.734072 0.305529 0.032668
0.089484 0.191945 0.034420
0.985663 0.434699 0.124308
0.051554 0.500718 0.651949
0.053947 0.510859 0.660859
0.056482 0.521339 0.672411
0.060091 0.534061 0.704530
0.167200 0.515365 0.611300
0.459260 0.472964 0.255620
0.748501 0.331949 0.051462
0.082461 0.177114 0.032089
0.985663 0.434699 0.124308
0.055200 0.517544 0.654501
0.058388 0.529052 0.662200
0.062375 0.545689 0.673752
0.072254 0.583017 0.702078
0.276618 0.622286 0.763966
0.679956 0.603592 0.649493
0.799485 0.464411 0.230430
0.171577 0.185925 0.034220
0.985663 0.434699 0.124308
0.078099 0.610221 0.684688
0.081265 0.621482 0.690745
0.085050 0.635399 0.699828
0.092963 0.662264 0.719901
0.332911 0.722502 0.771011
0.780292 0.778205 0.777468
0.963760 0.788598 0.770712
0.938983 0.525925 0.382971
0.985663 0.434701 0.124308
0.146983 0.877661 0.865580
0.148474 0.883896 0.866025
0.149361 0.887359 0.859072
0.160787 0.889995 0.846823
0.358230 0.910544 0.823709
0.774804 0.918740 0.755556
0.976453 0.901507 0.660358
0.994767 0.880449 0.584480
0.986516 0.502433 0.136021
0.362936 0.990732 0.872494
0.375241 0.990833 0.867896
0.395105 0.991009 0.860288
0.453011 0.991368 0.844147
0.601702 0.991935 0.815242
0.798124 0.991980 0.773805
0.925108 0.993316 0.751408
0.995181 0.976820 0.548908
0.991201 0.978940 0.288203
0.708806 0.996691 0.875342
0.716836 0.996785 0.873807
0.727748 0.996925 0.871371
0.753379 0.997344 0.863530
0.792025 0.998130 0.852673
0.858082 1.000345 0.834656
0.933399 1.003794 0.827430
0.996612 1.004429 0.790342
0.997275 1.005553 0.838713
0.092471 0.655244 0.830343
0.092624 0.655659 0.833150
0.092866 0.656314 0.837558
0.091139 0.648136 0.848004
0.084771 0.630486 0.789685
0.291297 0.635293 0.638646
0.559881 0.628240 0.432232
0.456323 0.709642 0.622239
0.976033 0.133973 0.005768
0.093068 0.658100 0.830537
0.093221 0.658504 0.833328
0.093460 0.659139 0.837711
0.092201 0.652958 0.848265
0.086497 0.635384 0.798602
0.304996 0.634951 0.654627
0.566487 0.628460 0.439095
0.462874 0.708619 0.623789
0.975701 0.134013 0.005330
0.094009 0.662412 0.830842
0.094159 0.662788 0.833607
0.094395 0.663379 0.837954
0.093925 0.660479 0.848686
0.089439 0.643515 0.814820
0.333067 0.633539 0.679050
0.578426 0.628588 0.450144
0.472463 0.710541 0.626290
0.975166 0.134052 0.004774
0.094150 0.662977 0.831138
0.094971 0.666199 0.834117
0.096242 0.671113 0.838776
0.097656 0.676145 0.850084
0.101940 0.662542 0.848062
0.420418 0.633137 0.766917
0.616770 0.628624 0.488062
0.503803 0.716523 0.634655
0.973525 0.133848 0.003502
0.096595 0.673121 0.832002
0.098196 0.679071 0.836105
0.099766 0.684192 0.839942
0.104044 0.700410 0.852810
0.132008 0.717706 0.880285
0.543942 0.699429 0.874999
0.758900 0.626113 0.650456
0.607189 0.739527 0.669025
0.973073 0.144593 0.000000
0.102847 0.697009 0.838072
0.104303 0.703030 0.841627
0.106203 0.711887 0.846409
0.111056 0.730669 0.858976
0.174894 0.766137 0.887753
0.635083 0.801833 0.926268
0.907505 0.789236 0.877997
0.944795 0.728093 0.748484
0.974134 0.209827 0.000000
0.125472 0.786696 0.872061
0.126234 0.788922 0.873629
0.127378 0.792566 0.876282
0.141086 0.803536 0.883202
0.280097 0.836014 0.905808
0.667929 0.883417 0.924842
0.936581 0.925148 0.916676
0.996480 0.920652 0.914028
0.995001 0.673590 0.215602
0.196601 0.980654 0.975144
0.198097 0.981502 0.974924
0.200645 0.982689 0.974507
0.220171 0.984921 0.970380
0.366607 0.990202 0.966461
0.673478 0.992527 0.939750
0.921419 0.992246 0.888659
0.996448 0.987618 0.801605
0.996039 0.974507 0.746818
0.615409 0.995505 0.972717
0.621024 0.995574 0.971970
0.630303 0.995684 0.970827
0.663669 0.996020 0.967298
0.717599 0.996758 0.958943
0.805812 0.998749 0.937242
0.938966 1.005553 0.903556
0.994560 1.004449 0.881274
0.998218 1.005553 0.923157
0.131020 0.799858 0.964394
0.131038 0.799903 0.964862
0.131067 0.799975 0.965588
0.131157 0.800203 0.967737
0.129922 0.794207 0.971425
0.295211 0.789044 0.977618
0.640585 0.783866 0.917757
0.879812 0.902854 0.613911
1.005553 0.999575 0.726432
0.131165 0.800415 0.964481
0.131183 0.800462 0.964948
0.131212 0.800535 0.965671
0.131300 0.800764 0.967812
0.130160 0.795046 0.971516
0.297583 0.789849 0.978098
0.652504 0.782370 0.920146
0.881444 0.901943 0.615172
1.005553 0.999594 0.725172
0.131392 0.801312 0.964618
0.131410 0.801358 0.965083
0.131439 0.801433 0.965802
0.131527 0.801665 0.967931
0.130542 0.796458 0.971662
0.301480 0.791117 0.978853
0.669824 0.779699 0.923776
0.883307 0.899565 0.622727
1.005553 0.999624 0.725154
0.132112 0.804183 0.965043
0.132129 0.804231 0.965499
0.132158 0.804308 0.966206
0.132246 0.804545 0.968297
0.131766 0.801414 0.972146
0.313289 0.795157 0.981354
0.714347 0.766879 0.944860
0.889949 0.892155 0.647708
1.005553 0.999720 0.726379
0.133027 0.808136 0.965457
0.133141 0.808609 0.965990
0.133321 0.809319 0.966814
0.133876 0.811518 0.969227
0.134807 0.814656 0.973632
0.347512 0.808010 0.986087
0.771195 0.786358 0.974078
0.908240 0.864756 0.727889
1.005553 0.999653 0.724787
0.134754 0.815490 0.966664
0.135143 0.816753 0.967395
0.135516 0.817989 0.968093
0.136754 0.823135 0.970237
0.139611 0.836193 0.974883
0.411424 0.849801 0.989666
0.833790 0.847419 0.989252
0.971925 0.755060 0.927477
1.005553 0.999608 0.738899
0.139539 0.836115 0.970328
0.139827 0.837480 0.970697
0.140436 0.840340 0.971550
0.141751 0.846502 0.973198
0.149804 0.858299 0.976231
0.497254 0.892468 0.990091
0.880301 0.932133 0.990848
0.993306 0.912348 0.984834
1.003105 0.895565 0.860917
0.201576 0.911060 0.983714
0.206779 0.912232 0.983994
0.214809 0.914108 0.984454
0.233793 0.919547 0.985789
0.340294 0.932218 0.988432
0.624881 0.954089 0.990317
0.893870 0.979882 0.988861
0.992888 0.991388 0.983741
0.998793 0.990480 0.989019
0.509451 1.001828 0.994572
0.514684 1.002091 0.994647
0.522781 1.002483 0.994767
0.546920 1.003711 0.995136
0.608683 1.005553 0.995972
0.699945 1.005553 0.996682
0.882407 1.005553 0.996120
0.993722 1.005553 0.988612
1.005553 1.005926 0.960730
0.046166 0.897632 0.982347
0.048603 0.897565 0.982449
0.051929 0.897460 0.982607
0.063174 0.897131 0.983086
0.107840 0.896137 0.984468
0.223828 0.890379 0.990343
0.740883 0.869849 0.997264
0.956828 0.891825 0.999034
1.005553 0.834455 0.997276
0.046380 0.897692 0.982364
0.048788 0.897626 0.982465
0.052089 0.897521 0.982623
0.063434 0.897192 0.983102
0.108137 0.896192 0.984484
0.224758 0.890701 0.990363
0.741418 0.870184 0.997262
0.955199 0.891221 0.999061
1.005553 0.834457 0.997277
0.046716 0.897788 0.982390
0.049090 0.897722 0.982492
0.052342 0.897617 0.982649
0.063852 0.897288 0.983127
0.108616 0.896279 0.984510
0.226258 0.891188 0.990396
0.742262 0.870711 0.997258
0.952447 0.890264 0.999103
1.005553 0.834461 0.997277
0.047729 0.898087 0.982472
0.050021 0.898021 0.982573
0.053124 0.897917 0.982731
0.065184 0.897589 0.983207
0.110173 0.896567 0.984589
0.231248 0.892548 0.990497
0.744923 0.872337 0.997247
0.943634 0.887272 0.999236
1.005553 0.834472 0.997281
0.050611 0.899016 0.982723
0.052579 0.898951 0.982823
0.055681 0.898847 0.982979
0.069365 0.898524 0.983448
0.115487 0.897516 0.984832
0.250388 0.895613 0.990804
0.754533 0.877229 0.997209
0.946739 0.859459 1.005553
1.005553 0.834505 0.997295
0.078412 0.893885 0.982262
0.080538 0.894200 0.982453
0.084458 0.894697 0.982746
0.098646 0.896226 0.983610
0.144245 0.901248 0.986253
0.309726 0.907401 0.991778
0.794024 0.893995 0.997108
0.977310 0.872275 1.005553
1.005553 0.834607 0.997460
0.158098 0.908988 0.987507
0.158193 0.909762 0.987548
0.158511 0.910994 0.987620
0.160841 0.913173 0.987774
0.160687 0.916412 0.987770
0.410452 0.928971 0.993265
0.833768 0.944962 0.997115
0.991234 0.933881 0.998230
1.005553 0.839398 1.000347
0.185471 0.923883 0.988818
0.189094 0.924301 0.988984
0.194549 0.924943 0.989256
0.206275 0.926882 0.989789
0.308917 0.933572 0.992101
0.590743 0.947426 0.996884
0.851895 0.978722 0.999425
0.992682 0.993593 1.000552
1.005553 0.990053 1.001678
0.567968 0.960653 0.994134
0.572936 0.960861 0.994158
0.580879 0.961187 0.994193
0.603918 0.962171 0.994303
0.673039 0.965335 0.994628
0.785736 0.973169 0.994979
0.933025 0.984787 0.994797
0.993462 0.992711 0.997212
1.005553 1.005553 1.005553
