public/sampleLut/4.cube
TITLE "Blockbuster-V2_0-Native"
LUT_3D_SIZE 33
# S-Log3/Sony S-Gamut3.cine -> LA - Blockbuster type2/LA - Blockbuster type2, CineEI Shift 0.00, Black Level 0.46% IRE, Input 109% -> Output 100% - Created with LUTCalc v3.1.2 by Ben Turley September 2017
0.000000 0.000000 0.000000
0.000000 0.000000 0.000000
0.003473 0.000000 0.000000
0.009953 0.000000 0.000000
0.018881 0.000000 0.000000
0.031434 0.000000 0.000000
0.051170 0.004746 0.000000
0.076420 0.012828 0.000000
0.107505 0.019869 0.000000
0.142582 0.027858 0.000000
0.182688 0.032925 0.000000
0.229832 0.036542 0.000000
0.287922 0.038509 0.000000
0.352722 0.044801 0.000000
0.421928 0.054250 0.000859
0.489250 0.077641 0.008364
0.553064 0.129576 0.019697
0.634957 0.114546 0.032960
0.726028 0.051814 0.043047
0.785407 0.039060 0.052896
0.819431 0.072549 0.060539
0.827412 0.172690 0.068365
0.846289 0.221568 0.077731
0.904375 0.120146 0.073521
0.912489 0.115607 0.073826
0.881618 0.130067 0.072179
0.954281 0.266768 0.082325
0.987116 0.145916 0.050029
0.985476 0.234073 0.085603
0.985621 0.425728 0.130250
0.985663 0.434445 0.124308
0.985663 0.434572 0.124308
0.985663 0.434699 0.124308
0.000000 0.000000 0.000000
0.000000 0.000000 0.000000
0.002297 0.000000 0.000000
0.008436 0.000000 0.000000
0.017709 0.000000 0.000000
0.029539 0.003251 0.000000
0.049018 0.009885 0.000000
0.074686 0.017571 0.000000
0.105772 0.024859 0.000000
0.140568 0.033150 0.000000
0.179127 0.039907 0.000000
0.225531 0.044817 0.000000
0.283175 0.046584 0.000000
0.350484 0.049154 0.000000
0.421815 0.055912 0.000848
0.489529 0.078201 0.008454
0.554313 0.127044 0.019756
0.635928 0.111982 0.032994
0.725816 0.052461 0.043114
0.785008 0.040678 0.052959
0.819386 0.073686 0.060608
0.827492 0.173400 0.068484
0.847188 0.220773 0.077808
0.904764 0.120697 0.073604
0.912555 0.117003 0.074005
0.881966 0.130535 0.072297
0.954852 0.267268 0.082448
0.987113 0.146130 0.050132
0.985476 0.234146 0.085946
0.985621 0.426427 0.130373
0.985663 0.434445 0.124308
0.985663 0.434572 0.124308
0.985663 0.434699 0.124308
0.000000 0.002594 0.000000
0.000000 0.002662 0.000000
0.000000 0.002065 0.000000
0.005791 0.002415 0.000000
0.016487 0.003345 0.000000
0.028766 0.006890 0.000000
0.048142 0.013373 0.000000
0.073760 0.021476 0.000000
0.104694 0.030936 0.000000
0.140084 0.037192 0.000000
0.179065 0.042809 0.000000
0.225318 0.047466 0.000000
0.282606 0.049349 0.000000
0.349433 0.051812 0.000000
0.421335 0.058142 0.000841
0.489902 0.078554 0.008550
0.555667 0.123779 0.019814
0.636504 0.110457 0.033031
0.725437 0.053634 0.043198
0.784764 0.042463 0.053025
0.819415 0.074568 0.060703
0.827954 0.173664 0.068607
0.847949 0.220425 0.077898
0.905136 0.121213 0.073682
0.912617 0.118419 0.074176
0.882305 0.130992 0.072412
0.955403 0.267761 0.082570
0.987110 0.146336 0.050231
0.985476 0.234219 0.086292
0.985621 0.427120 0.130493
0.985663 0.434445 0.124308
0.985663 0.434572 0.124308
0.985663 0.434699 0.124308
0.000000 0.008849 0.000000
0.000000 0.008677 0.000000
0.000000 0.009417 0.000000
0.004184 0.009259 0.000000
0.015006 0.009510 0.000000
0.028547 0.010403 0.000000
0.048446 0.016834 0.000000
0.074180 0.024615 0.000000
0.105116 0.033365 0.000000
0.140629 0.039845 0.000000
0.180035 0.044449 0.000000
0.226366 0.048626 0.000000
0.282765 0.051392 0.000000
0.348258 0.054819 0.000000
0.420484 0.060572 0.000869
0.490668 0.078276 0.008681
0.557168 0.119324 0.019869
0.637118 0.108861 0.033065
0.725443 0.053820 0.043253
0.784388 0.044690 0.053092
0.819469 0.075391 0.060807
0.828850 0.173214 0.068725
0.848332 0.221312 0.078038
0.905358 0.122691 0.073829
0.912794 0.119383 0.074327
0.882645 0.131431 0.072522
0.955939 0.268246 0.082691
0.987106 0.146534 0.050328
0.985476 0.234292 0.086640
0.985621 0.427805 0.130612
0.985663 0.434445 0.124308
0.985663 0.434572 0.124308
0.985663 0.434699 0.124308
0.000000 0.018478 0.000000
0.000000 0.017539 0.000000
0.000000 0.018340 0.000000
0.005458 0.018182 0.000000
0.013625 0.017632 0.000000
0.027543 0.017004 0.000000
0.048391 0.020217 0.000000
0.074489 0.029211 0.000000
0.105403 0.037096 0.000000
0.140894 0.044615 0.000000
0.180960 0.048419 0.000000
0.227815 0.050470 0.000000
0.283396 0.053382 0.000000
0.347269 0.058355 0.000000
0.419076 0.063865 0.000870
0.491180 0.078420 0.008819
0.558680 0.114469 0.019925
0.638051 0.106102 0.033095
0.725003 0.055616 0.043344
0.783876 0.047074 0.053160
0.819289 0.076696 0.060862
0.829473 0.173237 0.068843
0.848690 0.222155 0.078169
0.905559 0.123831 0.073981
0.913083 0.120006 0.074460
0.883533 0.131799 0.072616
0.956315 0.268934 0.082844
0.987102 0.146725 0.050421
0.985476 0.234365 0.086989
0.985621 0.428481 0.130730
0.985663 0.434445 0.124308
0.985663 0.434572 0.124308
0.985663 0.434699 0.124308
0.000000 0.029038 0.002324
0.000000 0.027174 0.002544
0.000773 0.028224 0.002869
0.006772 0.029708 0.002997
0.014558 0.030117 0.002561
0.026663 0.028031 0.000000
0.047931 0.027098 0.000000
0.074974 0.033459 0.000000
0.106126 0.041971 0.000000
0.141680 0.050372 0.000000
0.181706 0.054863 0.000000
0.229262 0.055130 0.000000
0.285603 0.055992 0.000000
0.348406 0.060479 0.000000
0.419365 0.065570 0.000893
0.492592 0.077030 0.008990
0.560102 0.110882 0.020011
0.638495 0.105166 0.033135
0.725073 0.055916 0.043384
0.783617 0.048789 0.053231
0.819257 0.077722 0.060948
0.829551 0.174046 0.068967
0.849260 0.222383 0.078283
0.905753 0.124920 0.074124
0.913359 0.120619 0.074588
0.884403 0.132129 0.072713
0.956380 0.270142 0.083091
0.987097 0.146667 0.050723
0.985476 0.234439 0.087340
0.985621 0.429149 0.130847
0.985663 0.434445 0.124308
0.985663 0.434572 0.124308
0.985663 0.434699 0.124308
0.000000 0.044579 0.007841
0.000000 0.042684 0.008236
0.003441 0.043098 0.008867
0.008662 0.044687 0.009682
0.016172 0.046586 0.010176
0.029094 0.046766 0.008929
0.046584 0.042105 0.000000
0.075068 0.041619 0.000000
0.107346 0.048932 0.000000
0.143552 0.056030 0.000000
0.183667 0.063023 0.000000
0.230733 0.067091 0.000000
0.288357 0.064357 0.000000
0.352785 0.061877 0.000000
0.421600 0.066530 0.000939
0.493682 0.076314 0.009133
0.562225 0.105613 0.020060
0.640081 0.101214 0.033173
0.724716 0.058059 0.043476
0.782897 0.051265 0.053318
0.819354 0.078693 0.061091
0.830067 0.174341 0.069126
0.850349 0.221351 0.078390
0.906081 0.126249 0.074272
0.913688 0.121383 0.074743
0.885460 0.132528 0.072831
0.956461 0.271706 0.083412
0.987091 0.146138 0.051297
0.985476 0.234916 0.087729
0.985621 0.429974 0.130990
0.985663 0.434445 0.124308
0.985663 0.434572 0.124308
0.985663 0.434699 0.124308
0.000000 0.064009 0.016102
0.003762 0.062605 0.016603
0.006704 0.062550 0.017223
0.010788 0.063279 0.017883
0.018107 0.065479 0.018716
0.030848 0.068818 0.020683
0.048187 0.069662 0.020276
0.073315 0.059962 0.008009
0.107986 0.060119 0.003938
0.146400 0.066751 0.000000
0.188429 0.073996 0.000000
0.236661 0.080036 0.000000
0.294163 0.083559 0.000000
0.358016 0.082011 0.000000
0.428631 0.070459 0.002307
0.499926 0.071267 0.009649
0.566060 0.097715 0.020194
0.641582 0.097532 0.033240
0.724633 0.059383 0.043570
0.782271 0.053972 0.053447
0.819176 0.080670 0.061218
0.831448 0.173482 0.069344
0.851511 0.221306 0.078587
0.906811 0.127367 0.074429
0.914055 0.122777 0.074987
0.886882 0.133063 0.072988
0.956574 0.273816 0.083839
0.987081 0.145413 0.051754
0.985476 0.237013 0.088172
0.985621 0.430596 0.131085
0.985663 0.434445 0.124308
0.985663 0.434572 0.124308
0.985663 0.434699 0.124308
0.002554 0.085088 0.025555
0.006900 0.084237 0.025834
0.010027 0.083989 0.026420
0.013870 0.084019 0.027309
0.020421 0.085588 0.028575
0.031957 0.088948 0.030593
0.049634 0.093528 0.033127
0.075725 0.094816 0.033022
0.106502 0.078876 0.016302
0.148896 0.079936 0.008221
0.193872 0.086125 0.000000
0.246114 0.095140 0.000000
0.306895 0.104799 0.000000
0.373688 0.110942 0.000000
0.439602 0.109420 0.005595
0.509103 0.082519 0.011083
0.573598 0.088912 0.021296
0.644819 0.087877 0.033293
0.723418 0.063865 0.043796
0.781231 0.058945 0.053618
0.819284 0.083099 0.061467
0.832086 0.174768 0.069633
0.852521 0.223496 0.078925
0.907579 0.129397 0.074695
0.914245 0.125921 0.075409
0.888505 0.133930 0.073209
0.956724 0.276491 0.084394
0.987069 0.144481 0.052327
0.985476 0.240324 0.088849
0.985621 0.429930 0.130924
0.985663 0.434445 0.124308
0.985663 0.434572 0.124308
0.985663 0.434699 0.124308
0.005450 0.107280 0.036999
0.009728 0.106729 0.036921
0.012705 0.106601 0.037363
0.017575 0.106693 0.038009
0.024184 0.108116 0.038815
0.032109 0.110712 0.039752
0.049992 0.116556 0.042516
0.077310 0.123438 0.043889
0.112195 0.124259 0.039082
0.149050 0.102113 0.024004
0.199452 0.103456 0.005517
0.257219 0.110645 0.000000
0.324092 0.123777 0.000000
0.396653 0.137031 0.003257
0.467729 0.145362 0.011077
0.532804 0.141935 0.019491
0.591044 0.100790 0.025215
0.651532 0.091203 0.034390
0.722570 0.068658 0.044035
0.780576 0.064570 0.053852
0.819227 0.086880 0.061764
0.833932 0.173717 0.070010
0.854568 0.222198 0.079238
0.908202 0.132269 0.075173
0.914914 0.128939 0.075892
0.889996 0.135520 0.073586
0.957368 0.279194 0.084938
0.987053 0.143290 0.053003
0.985476 0.244525 0.089741
0.985621 0.429051 0.130710
0.985663 0.434445 0.124308
0.985663 0.434572 0.124308
0.985663 0.434699 0.124308
0.008698 0.131325 0.048349
0.011488 0.130996 0.047810
0.015410 0.131080 0.047885
0.019560 0.131348 0.048228
0.026528 0.132748 0.048695
0.034763 0.136480 0.049313
0.048828 0.142624 0.050251
0.075212 0.151812 0.053344
0.113766 0.160316 0.052128
0.162974 0.159573 0.041235
0.203000 0.131097 0.022772
0.266489 0.133251 0.000000
0.339114 0.144853 0.000000
0.418453 0.160361 0.007229
0.497933 0.174723 0.018416
0.569460 0.183956 0.030570
0.627582 0.177650 0.038069
0.672783 0.129604 0.040199
0.726928 0.088351 0.046565
0.778851 0.074744 0.054174
0.819795 0.091388 0.062289
0.835700 0.174004 0.070471
0.857241 0.223469 0.079704
0.909951 0.135907 0.075672
0.916464 0.131674 0.076419
0.892679 0.137284 0.074011
0.959649 0.281034 0.085383
0.987033 0.142477 0.054103
0.985477 0.250405 0.090891
0.985621 0.427892 0.130426
0.985663 0.434445 0.124308
0.985663 0.434572 0.124308
0.985663 0.434699 0.124308
0.009975 0.157260 0.059813
0.013395 0.157051 0.058942
0.017914 0.157486 0.058777
0.023025 0.158423 0.058795
0.030030 0.160376 0.058711
0.037175 0.164646 0.058157
0.051244 0.171573 0.057708
0.071861 0.182846 0.057832
0.107873 0.195745 0.061770
0.160645 0.205378 0.056628
0.223260 0.199873 0.038471
0.272759 0.164079 0.016783
0.350457 0.171879 0.004857
0.436336 0.186071 0.011689
0.523266 0.202579 0.024162
0.602784 0.218214 0.037376
0.670746 0.227208 0.050097
0.718879 0.220739 0.056368
0.745829 0.172381 0.056091
0.785351 0.110880 0.058243
0.819919 0.099698 0.062861
0.840089 0.170747 0.071140
0.861012 0.221824 0.080241
0.911374 0.142615 0.076684
0.917843 0.138060 0.077452
0.897648 0.139123 0.074498
0.961383 0.285126 0.086310
0.987013 0.143878 0.054553
0.985477 0.255526 0.092249
0.985621 0.426363 0.130053
0.985663 0.434445 0.124308
0.985663 0.434572 0.124308
0.985663 0.434699 0.124308
0.008074 0.188896 0.071123
0.012392 0.188926 0.069657
0.017772 0.189593 0.069060
0.022392 0.190901 0.068526
0.030309 0.193062 0.067700
0.036824 0.197357 0.066285
0.050282 0.206581 0.063477
0.071787 0.218343 0.062314
0.105322 0.232730 0.065124
0.157871 0.250341 0.071987
0.224186 0.257755 0.065381
0.297434 0.243382 0.041601
0.358194 0.207085 0.017758
0.448928 0.218106 0.018476
0.541833 0.232455 0.032299
0.624045 0.250313 0.045696
0.695076 0.267167 0.057576
0.752416 0.276908 0.068099
0.794634 0.272133 0.074122
0.814568 0.224316 0.073602
0.832670 0.142645 0.069203
0.844197 0.171826 0.072050
0.867115 0.225648 0.081203
0.914801 0.150281 0.077817
0.921194 0.144257 0.078648
0.902128 0.143154 0.075395
0.961650 0.293001 0.087894
0.986983 0.143698 0.055498
0.985477 0.256166 0.094070
0.985622 0.426475 0.129972
0.985663 0.434445 0.124308
0.985663 0.434572 0.124308
0.985663 0.434699 0.124308
0.005429 0.225346 0.083147
0.010446 0.225787 0.081018
0.017641 0.227136 0.079220
0.022466 0.228685 0.078436
0.031788 0.232340 0.076856
0.038548 0.236930 0.075323
0.051853 0.243978 0.073523
0.074369 0.258085 0.071666
0.107136 0.275071 0.073835
0.155503 0.293943 0.080739
0.222660 0.314820 0.090444
0.301946 0.316929 0.079797
0.385966 0.294019 0.051265
0.457971 0.258585 0.026932
0.554541 0.270610 0.038464
0.642254 0.285471 0.052738
0.720038 0.302690 0.065519
0.779558 0.318907 0.076439
0.825962 0.329746 0.084692
0.861504 0.325856 0.090031
0.894089 0.276242 0.088075
0.874228 0.215826 0.079630
0.876448 0.223831 0.082488
0.917445 0.166610 0.080318
0.924336 0.156810 0.080795
0.909162 0.147737 0.076514
0.965391 0.295042 0.088802
0.986957 0.141197 0.057003
0.985477 0.262011 0.096254
0.985622 0.433961 0.131285
0.985663 0.434446 0.124308
0.985663 0.434572 0.124308
0.985663 0.434699 0.124308
0.008077 0.268094 0.099656
0.012858 0.269082 0.097787
0.021351 0.271402 0.094772
0.031743 0.273988 0.092663
0.038433 0.276958 0.091066
0.049341 0.282221 0.088666
0.059768 0.289894 0.086256
0.080087 0.302944 0.085102
0.114517 0.320678 0.086996
0.163869 0.341974 0.093679
0.226681 0.365632 0.103223
0.308584 0.387818 0.110556
0.396210 0.382170 0.093687
0.482177 0.348361 0.056926
0.562110 0.315785 0.046346
0.654347 0.327519 0.059757
0.734693 0.342592 0.072836
0.792303 0.358272 0.083228
0.842921 0.373518 0.092985
0.889294 0.385772 0.101119
0.924191 0.382666 0.105247
0.950758 0.329310 0.104696
0.913434 0.273373 0.093241
0.922447 0.183755 0.083118
0.929575 0.168556 0.083322
0.916302 0.154353 0.078037
0.967236 0.303362 0.091217
0.986962 0.144889 0.059238
0.985478 0.276653 0.098498
0.985622 0.437895 0.131860
0.985663 0.434446 0.124308
0.985663 0.434572 0.124308
0.985663 0.434699 0.124308
0.014746 0.315801 0.120487
0.020070 0.317462 0.118054
0.031913 0.320652 0.114320
0.043721 0.324250 0.110124
0.053045 0.328366 0.107971
0.061379 0.333012 0.106204
0.075743 0.341161 0.103497
0.094055 0.352308 0.100573
0.125618 0.369855 0.101816
0.171855 0.390964 0.107044
0.231744 0.415743 0.115904
0.309835 0.442926 0.126608
0.404393 0.462976 0.129525
0.494616 0.448964 0.106325
0.578507 0.404068 0.069577
0.660812 0.376882 0.068075
0.740323 0.387299 0.079635
0.801352 0.399984 0.090878
0.853892 0.414891 0.100050
0.902042 0.431140 0.107881
0.940729 0.446581 0.115798
0.967739 0.443742 0.119893
0.988924 0.401368 0.121498
0.960994 0.247514 0.097599
0.934015 0.195303 0.087477
0.928029 0.163823 0.080435
0.971441 0.310391 0.093791
0.986955 0.144587 0.065106
0.985478 0.276517 0.102320
0.985622 0.437056 0.131634
0.985663 0.434446 0.124308
0.985663 0.434573 0.124308
0.985663 0.434699 0.124308
0.025552 0.371412 0.144349
0.033081 0.373782 0.141538
0.044144 0.376904 0.137897
0.055728 0.380460 0.133407
0.068709 0.383937 0.128884
0.078067 0.388818 0.125720
0.089646 0.395862 0.123041
0.110179 0.407003 0.120663
0.137004 0.420306 0.118051
0.179310 0.441131 0.123100
0.236061 0.464216 0.130534
0.309863 0.490647 0.139793
0.400032 0.519443 0.150311
0.496529 0.533947 0.147406
0.585188 0.514714 0.122754
0.666550 0.460871 0.084736
0.740224 0.438825 0.087944
0.805745 0.447968 0.098730
0.861419 0.458858 0.106929
0.908783 0.472475 0.114959
0.950951 0.490309 0.124058
0.978978 0.506015 0.131869
0.988468 0.511613 0.135966
0.990907 0.482043 0.133615
0.960625 0.293098 0.104157
0.940873 0.178351 0.083640
0.973382 0.330665 0.098851
0.986959 0.149296 0.072010
0.985479 0.290841 0.106319
0.985622 0.455416 0.134966
0.985663 0.434446 0.124308
0.985663 0.434573 0.124308
0.985663 0.434699 0.124308
0.041110 0.432405 0.171169
0.050626 0.435192 0.167510
0.059568 0.438267 0.163261
0.073226 0.441921 0.157977
0.083665 0.445401 0.152904
0.095960 0.448721 0.148558
0.108368 0.453971 0.144486
0.127830 0.464265 0.142233
0.155925 0.476716 0.142058
0.191307 0.491651 0.141859
0.243671 0.513642 0.147998
0.309622 0.537187 0.154602
0.391664 0.562933 0.164020
0.486799 0.590870 0.173524
0.578180 0.598701 0.163313
0.664843 0.576554 0.136339
0.740091 0.521682 0.103298
0.802976 0.499791 0.105799
0.863894 0.507475 0.114733
0.914028 0.518218 0.122609
0.956774 0.531311 0.131148
0.982101 0.547773 0.138728
0.988306 0.565731 0.143538
0.988740 0.569279 0.144352
0.987785 0.537894 0.139742
0.968035 0.266841 0.100945
0.980620 0.356149 0.104770
0.986941 0.177458 0.081522
0.985480 0.306863 0.113858
0.985622 0.464144 0.136427
0.985663 0.434446 0.124308
0.985663 0.434573 0.124308
0.985663 0.434700 0.124308
0.062559 0.497464 0.200378
0.071816 0.499807 0.195257
0.079572 0.502337 0.190848
0.091787 0.505680 0.186402
0.103844 0.508906 0.181909
0.114161 0.512003 0.177429
0.128739 0.515703 0.172332
0.145604 0.521113 0.165986
0.172477 0.533271 0.165320
0.209863 0.546607 0.167100
0.254365 0.562164 0.169224
0.314608 0.584366 0.175066
0.386776 0.607400 0.181498
0.472486 0.630446 0.189719
0.566985 0.656913 0.196906
0.649799 0.661632 0.184526
0.728529 0.636506 0.154291
0.795833 0.582416 0.122025
0.855264 0.559678 0.122428
0.911373 0.564039 0.129899
0.954343 0.574962 0.137421
0.978851 0.587700 0.143878
0.986537 0.603719 0.148518
0.987156 0.614116 0.149940
0.987077 0.627960 0.152881
0.986759 0.603117 0.152521
0.986684 0.520239 0.132502
0.986788 0.225629 0.093582
0.985481 0.348771 0.123729
0.985623 0.489427 0.140928
0.985663 0.434447 0.124308
0.985663 0.434573 0.124308
0.985663 0.434700 0.124308
0.086742 0.563550 0.233973
0.095846 0.565277 0.228231
0.103950 0.567103 0.223330
0.113664 0.569855 0.219691
0.126197 0.572680 0.216027
0.137777 0.575450 0.212252
0.150739 0.578825 0.206815
0.170042 0.583372 0.199872
0.192241 0.589001 0.192097
0.226489 0.601581 0.193057
0.271989 0.614701 0.195760
0.323481 0.629161 0.199327
0.389055 0.650650 0.205684
0.463951 0.673032 0.211966
0.547607 0.692321 0.218240
0.635183 0.714857 0.224133
0.709315 0.718944 0.211530
0.777885 0.694808 0.177982
0.839398 0.641239 0.140432
0.898635 0.617788 0.137318
0.950346 0.618913 0.143890
0.979118 0.628820 0.151155
0.986820 0.639765 0.154851
0.987467 0.654724 0.157247
0.987346 0.667342 0.158125
0.987320 0.644567 0.155770
0.986937 0.573134 0.144322
0.986140 0.293575 0.110427
0.985483 0.437939 0.142305
0.985623 0.498751 0.142567
0.985663 0.434447 0.124308
0.985663 0.434574 0.124308
0.985663 0.434700 0.124308
0.115055 0.629004 0.274610
0.124029 0.630305 0.268391
0.132892 0.631606 0.261950
0.141080 0.633763 0.258022
0.151479 0.635812 0.254493
0.163093 0.637894 0.251110
0.176998 0.640542 0.247132
0.195667 0.644332 0.241017
0.220118 0.649443 0.233797
0.249111 0.655561 0.226699
0.290547 0.667863 0.228073
0.339452 0.680398 0.231261
0.395357 0.693162 0.235318
0.463023 0.712790 0.241026
0.535924 0.732197 0.245893
0.613689 0.748167 0.250898
0.693341 0.767133 0.255994
0.759045 0.771173 0.244815
0.818232 0.750838 0.209707
0.876486 0.699334 0.160245
0.935379 0.673633 0.151322
0.975978 0.671561 0.156920
0.986334 0.682004 0.161909
0.987718 0.692772 0.165044
0.987874 0.706948 0.167631
0.987600 0.665636 0.158675
0.985662 0.603253 0.149341
0.983734 0.522696 0.138835
0.984695 0.593277 0.167649
0.985625 0.525753 0.147564
0.985663 0.434448 0.124308
0.985663 0.434574 0.124308
0.985663 0.434701 0.124308
0.149795 0.692524 0.317997
0.158430 0.693509 0.311260
0.167546 0.694509 0.305019
0.175728 0.695871 0.300291
0.184257 0.697608 0.297726
0.194130 0.699072 0.295585
0.207652 0.700958 0.293037
0.225523 0.703677 0.289671
0.249239 0.707407 0.284999
0.280030 0.712527 0.278964
0.315943 0.718444 0.271304
0.362216 0.729647 0.272149
0.410414 0.740796 0.275083
0.467267 0.752121 0.278648
0.532545 0.768835 0.283127
0.599740 0.784210 0.286988
0.672368 0.797957 0.290395
0.743800 0.813002 0.293369
0.800255 0.816861 0.284312
0.855868 0.801076 0.245551
0.908034 0.753473 0.179497
0.960982 0.724764 0.163851
0.986188 0.721068 0.168821
0.987592 0.728765 0.170242
0.988273 0.747562 0.175487
0.987937 0.716697 0.170666
0.986776 0.638810 0.154996
0.985778 0.536970 0.144882
0.985303 0.463945 0.126719
0.985911 0.459886 0.128878
0.985663 0.434449 0.124308
0.985663 0.434575 0.124308
0.985663 0.434701 0.124308
0.194019 0.753137 0.365518
0.203151 0.753978 0.360233
0.212604 0.754828 0.355109
0.221130 0.755688 0.350097
0.228609 0.757003 0.347723
0.236770 0.758251 0.346070
0.247615 0.759573 0.344145
0.264542 0.761423 0.341489
0.284962 0.763845 0.338033
0.311109 0.766952 0.333072
0.345463 0.771099 0.326990
0.385891 0.776170 0.319736
0.434368 0.785531 0.320304
0.479229 0.793597 0.322971
0.533750 0.803770 0.326401
0.594500 0.816606 0.330665
0.654964 0.829240 0.334115
0.720108 0.843447 0.336535
0.786106 0.858142 0.338351
0.837719 0.862421 0.331499
0.889567 0.848344 0.292209
0.934283 0.801334 0.204352
0.974091 0.769468 0.174533
0.988264 0.761021 0.176665
0.988261 0.781243 0.179585
0.987828 0.758714 0.177723
0.987788 0.707605 0.167365
0.987789 0.584682 0.151633
0.986752 0.507661 0.144209
0.978339 0.368484 0.124680
0.982915 0.408793 0.125138
0.985663 0.434576 0.124308
0.985663 0.434702 0.124308
0.248691 0.807647 0.415367
0.258303 0.808443 0.410746
0.267963 0.809199 0.406113
0.276845 0.809939 0.401491
0.285221 0.810675 0.397057
0.291657 0.811506 0.395829
0.300188 0.812447 0.394428
0.312279 0.813591 0.392700
0.329440 0.815066 0.390472
0.350844 0.816947 0.387625
0.377493 0.819197 0.383877
0.412321 0.822182 0.379214
0.454711 0.826505 0.373873
0.501721 0.834861 0.374062
0.542962 0.843199 0.376268
0.593434 0.853168 0.379120
0.646020 0.864424 0.382545
0.698909 0.875280 0.385448
0.758357 0.886775 0.386878
0.820484 0.897881 0.387019
0.873044 0.902426 0.382784
0.920613 0.890929 0.344921
0.956309 0.845502 0.230612
0.981695 0.809919 0.186201
0.988616 0.801876 0.184456
0.988000 0.792304 0.182801
0.988238 0.773070 0.179126
0.988102 0.692919 0.168328
0.987354 0.572817 0.155259
0.986395 0.383764 0.132463
0.980368 0.289449 0.125173
0.984926 0.396522 0.125565
0.985663 0.434703 0.124308
0.311515 0.859070 0.467090
0.320190 0.859683 0.463375
0.329047 0.860289 0.459690
0.337704 0.860891 0.456036
0.345910 0.861537 0.452412
0.353846 0.862186 0.448933
0.360364 0.862823 0.447996
0.369456 0.863659 0.446839
0.381273 0.864664 0.445592
0.397261 0.865951 0.443977
0.418037 0.867586 0.441907
0.443907 0.869619 0.439282
0.476879 0.872039 0.435971
0.518678 0.875265 0.431859
0.561845 0.882422 0.432047
0.600143 0.889121 0.434063
0.642929 0.896979 0.436686
0.690878 0.906257 0.439434
0.742705 0.915157 0.441331
0.794964 0.924634 0.441282
0.852864 0.934316 0.439183
0.905191 0.938116 0.433811
0.946402 0.929122 0.394504
0.973387 0.887901 0.263013
0.987870 0.851553 0.201613
0.988786 0.830235 0.189914
0.989364 0.837387 0.191208
0.988586 0.797087 0.184595
0.988010 0.735559 0.174066
0.987716 0.505963 0.148804
0.976775 0.209602 0.100855
0.985590 0.271608 0.114345
0.986410 0.399819 0.122339
0.376828 0.907800 0.521106
0.384199 0.908332 0.518224
0.391774 0.908861 0.515333
0.399433 0.909385 0.512437
0.407052 0.909905 0.509540
0.414512 0.910420 0.506648
0.423675 0.911060 0.503042
0.430850 0.911563 0.502153
0.439743 0.912098 0.501291
0.450892 0.912611 0.500386
0.465482 0.913279 0.499218
0.484300 0.914141 0.497723
0.508603 0.915254 0.495845
0.539464 0.916667 0.493513
0.577772 0.918406 0.490625
0.617565 0.923462 0.491000
0.651208 0.928988 0.492339
0.689849 0.935510 0.494176
0.737245 0.942339 0.495965
0.781467 0.948796 0.496815
0.828390 0.955718 0.494709
0.883542 0.962377 0.489316
0.932915 0.965529 0.481227
0.967223 0.958122 0.439729
0.984537 0.922357 0.291778
0.990301 0.887189 0.219844
0.989157 0.873090 0.196218
0.988872 0.854253 0.194262
0.988751 0.856271 0.191316
0.988319 0.758578 0.177379
0.983074 0.553304 0.139442
0.967763 0.124927 0.096725
0.955688 0.093190 0.071065
0.448084 0.946140 0.569723
0.454358 0.946495 0.567484
0.460640 0.946847 0.565283
0.466896 0.947195 0.563113
0.473121 0.947539 0.560966
0.479306 0.947879 0.558840
0.486981 0.948299 0.556204
0.497684 0.948878 0.552542
0.504681 0.949126 0.551864
0.513140 0.949391 0.551253
0.523356 0.949672 0.550603
0.536364 0.950034 0.549767
0.552611 0.950499 0.548698
0.573872 0.951072 0.547387
0.602164 0.951806 0.545730
0.633814 0.952816 0.543640
0.673044 0.956395 0.543890
0.699498 0.960278 0.544552
0.737995 0.964602 0.545568
0.776389 0.969318 0.545776
0.813511 0.974032 0.543877
