public/sampleLut/4.cube
TITLE "Blockbuster-V2_0-Native"
LUT_3D_SIZE 5
# S-Log3/Sony S-Gamut3.cine -> LA - Blockbuster type2/LA - Blockbuster type2, CineEI Shift 0.00, Black Level 0.46% IRE, Input 109% -> Output 100% - Created with LUTCalc v3.1.2 by Ben Turley September 2017
0.000000 0.000000 0.000000
0.107505 0.019869 0.000000
0.553064 0.129576 0.019697
0.912489 0.115607 0.073826
0.985663 0.434699 0.124308
0.002554 0.085088 0.025555
0.106502 0.078876 0.016302
0.573598 0.088912 0.021296
0.914245 0.125921 0.075409
0.985663 0.434699 0.124308
0.025552 0.371412 0.144349
0.137004 0.420306 0.118051
0.740224 0.438825 0.087944
0.960625 0.293098 0.104157
0.985663 0.434699 0.124308
0.311515 0.859070 0.467090
0.381273 0.864664 0.445592
0.642929 0.896979 0.436686
0.987870 0.851553 0.201613
0.986410 0.399819 0.122339
0.770074 0.998404 0.798754
0.781593 0.998665 0.796383
0.819752 0.999198 0.789923
0.935105 0.997361 0.776242
0.996179 1.006387 0.648423
0.000000 0.069648 0.104555
0.034174 0.056753 0.065225
0.517181 0.143336 0.017723
0.912041 0.121185 0.074664
0.985663 0.434699 0.124308
0.000000 0.083615 0.087987
0.058890 0.090081 0.092620
0.541754 0.129339 0.024567
0.913982 0.131446 0.076218
0.985663 0.434699 0.124308
0.034597 0.445025 0.264352
0.084787 0.420031 0.190717
0.672145 0.446255 0.085362
0.960651 0.296513 0.104198
0.985663 0.434699 0.124308
0.293107 0.863567 0.515737
0.363537 0.867791 0.479220
0.631273 0.895030 0.462827
0.987304 0.853937 0.205671
0.986409 0.399870 0.122342
0.765575 0.998257 0.802518
0.781342 0.998677 0.798825
0.819641 0.999216 0.791996
0.934861 0.997456 0.778982
0.996238 1.006339 0.662458
0.005741 0.319131 0.454409
0.000933 0.304890 0.369635
0.139153 0.313246 0.209214
0.636477 0.331125 0.190818
0.985663 0.434698 0.124308
0.006179 0.322167 0.434697
0.010167 0.335288 0.470294
0.155907 0.322593 0.217991
0.671078 0.328387 0.182857
0.985663 0.434699 0.124308
0.021506 0.389644 0.448368
0.033163 0.435009 0.474339
0.455538 0.548270 0.559804
0.859322 0.442700 0.271948
0.985663 0.434699 0.124308
0.152259 0.872765 0.731230
0.178738 0.873209 0.701103
0.588731 0.899193 0.606561
0.984979 0.877008 0.394663
0.986402 0.423597 0.125160
0.742955 0.997598 0.827354
0.757503 0.997891 0.823691
0.819767 0.999339 0.807288
0.934197 0.998096 0.793331
0.996706 1.005977 0.744261
0.092471 0.655244 0.830343
0.092866 0.656314 0.837558
0.084771 0.630486 0.789685
0.559881 0.628240 0.432232
0.976033 0.133973 0.005768
0.094009 0.662412 0.830842
0.094395 0.663379 0.837954
0.089439 0.643515 0.814820
0.578426 0.628588 0.450144
0.975166 0.134052 0.004774
0.096595 0.673121 0.832002
0.099766 0.684192 0.839942
0.132008 0.717706 0.880285
0.758900 0.626113 0.650456
0.973073 0.144593 0.000000
0.125472 0.786696 0.872061
0.127378 0.792566 0.876282
0.280097 0.836014 0.905808
0.936581 0.925148 0.916676
0.995001 0.673590 0.215602
0.615409 0.995505 0.972717
0.630303 0.995684 0.970827
0.717599 0.996758 0.958943
0.938966 1.005553 0.903556
0.998218 1.005553 0.923157
0.046166 0.897632 0.982347
0.051929 0.897460 0.982607
0.107840 0.896137 0.984468
0.740883 0.869849 0.997264
1.005553 0.834455 0.997276
0.046716 0.897788 0.982390
0.052342 0.897617 0.982649
0.108616 0.896279 0.984510
0.742262 0.870711 0.997258
1.005553 0.834461 0.997277
0.050611 0.899016 0.982723
0.055681 0.898847 0.982979
0.115487 0.897516 0.984832
0.754533 0.877229 0.997209
1.005553 0.834505 0.997295
0.158098 0.908988 0.987507
0.158511 0.910994 0.987620
0.160687 0.916412 0.987770
0.833768 0.944962 0.997115
1.005553 0.839398 1.000347
0.567968 0.960653 0.994134
0.580879 0.961187 0.994193
0.673039 0.965335 0.994628
0.933025 0.984787 0.994797
1.005553 1.005553 1.005553
