public/sampleLut/5.cube
TITLE "Generated by Resolve"
LUT_3D_SIZE 5
0.0219425 0.0599527 0.0612345
0.544228 0.119203 0.0837262
0.887129 0.212909 0.0961776
0.958038 0.219928 0.101839
1 0.233722 0.110536
0.00721752 0.279179 0.0612192
0.319615 0.314321 0
0.960616 0.435187 0.10248
1 0.487816 0.107225
1 0.531899 0.102632
0.278492 0.745724 0.215015
0.434241 0.784848 0.2094
0.819455 0.800214 0.0470893
0.935882 0.774853 0.0569924
1 0.77261 0.054963
0.334188 0.843854 0.245365
0.452506 0.859846 0.214511
0.79968 0.886412 0.0370031
0.900984 0.846296 0.0676127
0.987579 0.839963 0.0481422
0.32018 0.891203 0.233539
0.431418 0.902052 0.209537
0.776654 0.943633 0.0141909
0.876188 0.900801 0.0434882
0.967697 0.892332 0.0201877
0.0143282 0.176959 0.547158
0.538537 0.206561 0.533089
0.897231 0.242374 0.241337
0.965011 0.26331 0.28896
1 0.307881 0.388083
0 0.329244 0.318929
0.364889 0.433982 0.443275
0.924666 0.499535 0.356283
0.990417 0.534585 0.400793
1 0.604883 0.50724
0.190112 0.755062 0.424598
0.468849 0.786648 0.42388
0.82797 0.79588 0.205707
0.9411 0.770047 0.213886
1 0.766278 0.2103
0.222309 0.847257 0.470207
0.487892 0.857145 0.419745
0.800259 0.886 0.188495
0.898146 0.843931 0.217899
0.984588 0.835096 0.197971
0.235492 0.89163 0.424292
0.464912 0.899031 0.38526
0.774685 0.941131 0.165103
0.870893 0.898192 0.187778
0.962524 0.88629 0.16672
0.0106661 0.239384 0.781109
0.229679 0.259342 0.82678
0.900282 0.364538 0.876829
0.989517 0.372534 0.886549
1 0.3888 0.893385
0 0.426001 0.764904
0.242283 0.47834 0.797436
0.9037 0.589975 0.872007
0.972625 0.623545 0.874022
1 0.66392 0.875547
0.132647 0.79884 0.790951
0.279454 0.806424 0.798154
0.853056 0.846555 0.815579
0.935622 0.851362 0.809934
0.985809 0.848981 0.807462
0.15024 0.882979 0.806409
0.277882 0.879408 0.797848
0.777005 0.913268 0.737484
0.9411 0.903944 0.709941
1 0.896101 0.711421
0.139376 0.929824 0.791272
0.259464 0.926024 0.782132
0.745892 0.955322 0.712978
0.914397 0.948913 0.661631
0.985428 0.939361 0.644572
0.0106508 0.239017 0.835935
0.225849 0.258564 0.88191
0.907073 0.366659 0.943969
0.998108 0.375692 0.955139
1 0.392508 0.957214
0 0.442313 0.824903
0.257771 0.492226 0.857252
0.906416 0.581872 0.934096
0.982803 0.633371 0.93225
1 0.666285 0.933303
0.137011 0.806165 0.857832
0.281987 0.809674 0.86186
0.796323 0.812543 0.89839
0.934829 0.852384 0.887541
0.982895 0.851026 0.885328
0.148272 0.882734 0.864164
0.27332 0.876844 0.85893
0.677897 0.895018 0.874189
0.923476 0.92459 0.869581
0.973129 0.921859 0.871473
0.136599 0.930282 0.854246
0.254948 0.923232 0.848051
0.641672 0.947082 0.85275
0.903365 0.984787 0.845426
0.979858 0.966812 0.833875
0.0110781 0.239109 0.885786
0.225528 0.259007 0.931365
0.910185 0.368887 0.994888
1 0.379965 1
1 0.397284 1
0.00334173 0.458762 0.879423
0.272999 0.506432 0.91194
0.907729 0.58291 0.99733
0.988006 0.642039 0.985641
1 0.669856 0.986084
0.14136 0.809537 0.909545
0.28513 0.811154 0.912154
0.783993 0.804517 0.976379
0.939757 0.837156 0.965866
0.995254 0.845136 0.93228
0.146975 0.881575 0.912428
0.270771 0.875395 0.907057
0.654429 0.890547 0.95259
0.911711 0.927474 0.951095
0.970504 0.92166 0.913664
0.134401 0.928725 0.90248
0.252888 0.921859 0.896345
0.600351 0.947601 0.928695
0.892576 0.996612 0.946288
0.974594 0.974685 0.914199
