public/sampleLut/5.cube
TITLE "Generated by Resolve"
LUT_3D_SIZE 9
0.0219425 0.0599527 0.0612345
0.0875563 0.0624552 0.0568551
0.544228 0.119203 0.0837262
0.754009 0.170123 0.0956741
0.887129 0.212909 0.0961776
0.929015 0.216052 0.0990768
0.958038 0.219928 0.101839
0.987869 0.225757 0.10576
1 0.233722 0.110536
0.0115206 0.115434 0.0464027
0.0799573 0.106737 0.0260319
0.492424 0.146639 0.0668193
0.741848 0.205386 0.0890822
0.891478 0.259495 0.0936294
0.940002 0.26978 0.101518
0.977996 0.28069 0.10927
1 0.29839 0.118196
1 0.32047 0.128435
0.00721752 0.279179 0.0612192
0.0775006 0.295506 0.0716564
0.319615 0.314321 0
0.875944 0.374792 0.0791791
0.960616 0.435187 0.10248
1 0.463767 0.109331
1 0.487816 0.107225
1 0.510674 0.10399
1 0.531899 0.102632
0.154101 0.560235 0.15053
0.237629 0.583246 0.168841
0.342458 0.640146 0.148791
0.707408 0.664607 0
0.917372 0.649195 0
0.962692 0.672496 0
1 0.690684 0
1 0.696437 0.0121462
1 0.699565 0.025864
0.278492 0.745724 0.215015
0.348562 0.756161 0.223209
0.434241 0.784848 0.2094
0.670329 0.83241 0.0722515
0.819455 0.800214 0.0470893
0.880446 0.778515 0.0716869
0.935882 0.774853 0.0569924
0.979355 0.776272 0.0569162
1 0.77261 0.054963
0.325704 0.81059 0.241657
0.382406 0.816831 0.244388
0.454765 0.833371 0.21561
0.674601 0.875883 0.0861219
0.81059 0.856977 0.0499275
0.864057 0.831052 0.0765545
0.914153 0.819242 0.0786145
0.960555 0.816632 0.0663157
0.997391 0.81355 0.0628519
0.334188 0.843854 0.245365
0.385 0.846967 0.244495
0.452506 0.859846 0.214511
0.662974 0.899702 0.0869917
0.79968 0.886412 0.0370031
0.852094 0.860395 0.0595865
0.900984 0.846296 0.0676127
0.949096 0.842283 0.0533455
0.987579 0.839963 0.0481422
0.328344 0.868315 0.240238
0.378058 0.869535 0.23856
0.439887 0.880888 0.211765
0.645716 0.919844 0.089662
0.788067 0.915419 0.0245823
0.840436 0.889632 0.043473
0.888167 0.873243 0.0572976
0.937575 0.867903 0.0411688
0.977584 0.866224 0.0341039
0.32018 0.891203 0.233539
0.370535 0.891569 0.232761
0.431418 0.902052 0.209537
0.629084 0.939345 0.0935683
0.776654 0.943633 0.0141909
0.829526 0.918807 0.0276493
0.876188 0.900801 0.0434882
0.925628 0.893751 0.0307164
0.967697 0.892332 0.0201877
0.0185397 0.073579 0.141512
0.0940719 0.0769665 0.150256
0.546654 0.122301 0.118944
0.763119 0.17641 0.126314
0.891112 0.219608 0.128145
0.933303 0.223178 0.13138
0.962509 0.227497 0.13431
0.992554 0.233814 0.138186
1 0.242344 0.142489
0.007187 0.126223 0.119158
0.0758373 0.124544 0.119875
0.507225 0.155917 0.104097
0.753872 0.215396 0.121767
0.896849 0.268681 0.127108
0.946075 0.278828 0.134478
0.984253 0.2916 0.141985
1 0.317189 0.157275
1 0.342443 0.173205
0.00361639 0.300038 0.114046
0.0779431 0.324132 0.122499
0.341283 0.327321 0.0248417
0.878874 0.393774 0.121401
0.955001 0.450996 0.151278
0.995392 0.479576 0.159426
1 0.50399 0.162203
1 0.526665 0.163287
1 0.545754 0.16051
0.150408 0.583932 0.198077
0.238453 0.605524 0.223209
0.360159 0.655085 0.197726
0.712551 0.673961 0.0358434
0.912413 0.652522 0.00230411
0.959915 0.674739 0.0217746
0.999344 0.692287 0.0539254
1 0.697169 0.071809
1 0.699611 0.0856031
0.275212 0.753353 0.264851
0.347112 0.76257 0.273625
0.441367 0.788449 0.247608
0.672251 0.832563 0.121263
0.81796 0.801068 0.0947433
0.878477 0.777905 0.118563
0.93373 0.772976 0.103609
0.977234 0.774395 0.103731
1 0.770489 0.101701
0.323873 0.813519 0.293767
0.386053 0.819333 0.294713
0.455802 0.833692 0.252781
0.67303 0.873716 0.135424
0.807691 0.857801 0.0963607
0.860655 0.831617 0.122347
0.910124 0.818082 0.127825
0.957183 0.814588 0.115358
0.994553 0.811521 0.111727
0.330526 0.845701 0.29929
0.387717 0.848249 0.293965
0.452399 0.859403 0.250996
0.660853 0.896498 0.13724
0.796384 0.886946 0.0841993
0.848646 0.860578 0.105882
0.896941 0.844892 0.117281
0.945724 0.840055 0.103136
0.984756 0.837674 0.0974899
0.324712 0.869657 0.289082
0.378759 0.870848 0.281682
0.440604 0.880858 0.247517
0.644495 0.916197 0.140581
0.784772 0.915129 0.0737926
0.837064 0.889311 0.0906996
0.88423 0.8719 0.106554
0.933791 0.865583 0.0925917
0.974685 0.863661 0.0844434
0.315862 0.892989 0.27602
0.370199 0.893202 0.269337
0.432975 0.902007 0.244892
0.628519 0.935347 0.144656
0.773587 0.942657 0.0649577
0.826398 0.918105 0.0765545
0.872328 0.899214 0.0940414
0.921721 0.891142 0.0837415
0.964675 0.889433 0.0722515
0.0143282 0.176959 0.547158
0.0670176 0.166796 0.534676
0.538537 0.206561 0.533089
0.762951 0.212268 0.305638
0.897231 0.242374 0.241337
0.938369 0.251911 0.263096
0.965011 0.26331 0.28896
0.991119 0.281712 0.329397
1 0.307881 0.388083
0 0.202655 0.490425
0.0527504 0.197192 0.48867
0.504845 0.241352 0.503761
0.760479 0.26276 0.29691
0.903761 0.305165 0.286931
0.942885 0.343984 0.386954
0.963775 0.383169 0.478401
0.987762 0.403937 0.530953
1 0.435279 0.57882
0 0.329244 0.318929
0.0621347 0.360265 0.350958
0.364889 0.433982 0.443275
0.842969 0.455283 0.33547
0.924666 0.499535 0.356283
0.961181 0.508904 0.363897
0.990417 0.534585 0.400793
1 0.571862 0.458991
1 0.604883 0.50724
0.109682 0.606058 0.36997
0.179461 0.634455 0.394369
0.38349 0.688823 0.398993
0.72256 0.68571 0.116533
0.927825 0.651591 0.120531
0.971756 0.674372 0.146227
1 0.687343 0.17821
1 0.691463 0.201175
1 0.693935 0.218601
0.190112 0.755062 0.424598
0.274006 0.766629 0.430564
0.468849 0.786648 0.42388
0.678294 0.829572 0.225788
0.82797 0.79588 0.205707
0.888838 0.774578 0.223468
0.9411 0.770047 0.213886
0.982895 0.770382 0.21265
1 0.766278 0.2103
0.223606 0.815366 0.461433
0.311559 0.821714 0.453742
0.493111 0.833005 0.429725
0.675792 0.86862 0.24358
0.81387 0.856977 0.204685
0.865339 0.830625 0.227604
0.912871 0.817197 0.234318
0.959228 0.812848 0.22092
0.995483 0.809323 0.216922
0.222309 0.847257 0.470207
0.313695 0.849851 0.449943
0.487892 0.857145 0.419745
0.663523 0.890028 0.243885
0.800259 0.886 0.188495
0.85153 0.86009 0.206104
0.898146 0.843931 0.217899
0.946044 0.838117 0.204883
0.984588 0.835096 0.197971
0.22829 0.868482 0.447166
0.319463 0.873045 0.426368
0.476646 0.877607 0.402304
0.646769 0.90898 0.243702
0.787289 0.914107 0.175128
0.838392 0.889158 0.186694
0.883955 0.870665 0.203418
0.932662 0.863432 0.19144
0.973465 0.860792 0.181521
0.235492 0.89163 0.424292
0.325444 0.896696 0.40798
0.464912 0.899031 0.38526
0.628107 0.927321 0.242908
0.774685 0.941131 0.165103
0.826581 0.91783 0.170169
0.870893 0.898192 0.187778
0.919112 0.888823 0.180591
0.962524 0.88629 0.16672
0.0117647 0.216617 0.677302
0.0653544 0.20763 0.669291
0.247837 0.254597 0.774075
0.7579 0.304006 0.745632
0.903304 0.344305 0.750027
0.953445 0.34992 0.759487
0.983124 0.356329 0.765805
1 0.365179 0.775051
1 0.376379 0.785611
0 0.250904 0.653391
0.0514382 0.244572 0.647837
0.235111 0.288945 0.750805
0.753353 0.351705 0.737789
0.910063 0.401801 0.762203
0.958129 0.41532 0.791577
0.987366 0.436072 0.815854
1 0.462135 0.833707
1 0.487511 0.839994
0 0.38407 0.636759
0.047364 0.404929 0.640742
0.228428 0.44445 0.718379
0.821607 0.543648 0.801221
0.906188 0.584955 0.802274
0.93959 0.593072 0.805249
0.967788 0.61442 0.809049
0.99498 0.640085 0.812848
1 0.660822 0.816938
0.0971237 0.640467 0.630701
0.152331 0.666163 0.657649
0.266773 0.702831 0.699001
0.737301 0.745556 0.730404
0.881468 0.750362 0.704585
0.919463 0.762264 0.714504
0.949264 0.771176 0.723842
0.97763 0.777096 0.730373
1 0.780575 0.734112
0.140337 0.798077 0.702968
0.187579 0.8065 0.715572
0.288899 0.816556 0.71989
0.642878 0.830106 0.645411
0.856641 0.805219 0.502785
0.92961 0.785824 0.467781
0.973495 0.780224 0.45388
1 0.775845 0.45156
1 0.770413 0.444846
0.154589 0.856504 0.732372
0.198169 0.859297 0.734127
0.295125 0.866392 0.725124
0.643488 0.865263 0.625696
0.82298 0.873747 0.435569
0.884428 0.836378 0.411337
0.932174 0.820203 0.403342
0.97258 0.81471 0.388418
1 0.809659 0.380285
0.156756 0.886244 0.733104
0.197024 0.886412 0.730373
0.289082 0.891539 0.716976
0.628107 0.885573 0.609171
0.80824 0.897429 0.388159
0.867201 0.862165 0.360327
0.910491 0.845563 0.372305
0.955428 0.839872 0.354665
0.989624 0.835935 0.345083
0.152361 0.910063 0.723293
0.191211 0.909712 0.718929
0.279896 0.914992 0.703914
0.61004 0.904341 0.58764
0.793179 0.919524 0.344427
0.847547 0.892134 0.324041
0.890425 0.873045 0.338247
0.936919 0.86453 0.330037
0.975753 0.861143 0.318776
0.147784 0.933516 0.711742
0.18674 0.933303 0.706569
0.271901 0.93933 0.690883
0.593072 0.92398 0.568383
0.774777 0.942321 0.315328
0.832975 0.920714 0.299794
0.874876 0.900511 0.315175
0.920394 0.889662 0.311955
0.962386 0.886076 0.296391
0.0106661 0.239384 0.781109
0.0645151 0.233188 0.776379
0.229679 0.259342 0.82678
0.720058 0.339635 0.863447
0.900282 0.364538 0.876829
0.957229 0.367422 0.884398
0.989517 0.372534 0.886549
1 0.379767 0.889784
1 0.3888 0.893385
0 0.280537 0.766278
0.0511635 0.276738 0.764218
0.224475 0.304143 0.816175
0.721767 0.39028 0.859266
0.91194 0.420874 0.882216
0.955825 0.432486 0.894026
0.987869 0.452796 0.895201
1 0.474311 0.895079
1 0.49543 0.895125
0 0.426001 0.764904
0.0522774 0.447944 0.768948
0.242283 0.47834 0.797436
0.806241 0.568826 0.868879
0.9037 0.589975 0.872007
0.941161 0.601175 0.873198
0.972625 0.623545 0.874022
1 0.645762 0.874556
1 0.66392 0.875547
0.0779583 0.655039 0.74284
0.135363 0.679088 0.764721
0.263172 0.708507 0.793729
0.624018 0.704601 0.824323
0.882139 0.765362 0.843671
0.919661 0.778607 0.846067
0.947051 0.785962 0.84918
0.974014 0.790784 0.851575
1 0.793408 0.85304
0.132647 0.79884 0.790951
0.180896 0.805219 0.797238
0.279454 0.806424 0.798154
0.529412 0.813687 0.801892
0.853056 0.846555 0.815579
0.909865 0.851286 0.809613
0.935622 0.851362 0.809934
0.960952 0.850477 0.809064
0.985809 0.848981 0.807462
0.14902 0.854246 0.807675
0.191638 0.854917 0.807614
0.284779 0.854551 0.804074
0.513405 0.872435 0.79968
0.802823 0.891539 0.753948
0.91545 0.884016 0.746227
0.949218 0.879088 0.750225
0.973922 0.876051 0.754696
0.997238 0.873899 0.757153
0.15024 0.882979 0.806409
0.189303 0.881178 0.803311
0.277882 0.879408 0.797848
0.486488 0.897154 0.790982
0.777005 0.913268 0.737484
0.897856 0.911131 0.71281
0.9411 0.903944 0.709941
0.973144 0.899611 0.709377
1 0.896101 0.711421
0.144839 0.906218 0.798489
0.183841 0.904601 0.795575
0.268223 0.902663 0.789853
0.467491 0.921736 0.785016
0.758389 0.935607 0.723049
0.882338 0.935454 0.691188
0.928832 0.926574 0.684306
0.9635 0.921935 0.678035
0.996414 0.917403 0.675593
0.139376 0.929824 0.791272
0.178408 0.928191 0.788235
0.259464 0.926024 0.782132
0.438087 0.944595 0.777584
0.745892 0.955322 0.712978
0.868177 0.959426 0.673274
0.914397 0.948913 0.661631
0.950896 0.944106 0.65185
0.985428 0.939361 0.644572
0.0104677 0.239017 0.810819
0.0644388 0.232837 0.806699
0.22681 0.258717 0.857343
0.724392 0.340429 0.901244
0.905867 0.365866 0.918425
0.962753 0.368887 0.927321
0.995605 0.374136 0.928664
1 0.381476 0.930114
1 0.390341 0.930968
0 0.280842 0.797803
0.0522316 0.277516 0.795895
0.229313 0.306615 0.850156
0.734951 0.394614 0.8972
0.918578 0.423484 0.921416
0.95848 0.437201 0.925292
0.991272 0.458228 0.925765
1 0.478157 0.926146
1 0.499001 0.92639
0 0.434684 0.797406
0.060441 0.45774 0.80148
0.250751 0.485695 0.829526
0.808606 0.574685 0.898604
0.906416 0.58912 0.90341
0.945586 0.6065 0.904341
0.978698 0.627939 0.90544
1 0.647807 0.905867
1 0.664256 0.906371
0.0822003 0.672587 0.796643
0.141268 0.690425 0.807294
0.270588 0.716045 0.830427
0.61323 0.701732 0.859861
0.880476 0.755642 0.884504
0.92726 0.777951 0.879561
0.954421 0.784558 0.879622
0.980056 0.789075 0.879774
1 0.791501 0.879911
0.134554 0.804257 0.831571
0.182147 0.809171 0.835599
0.280079 0.808682 0.836332
0.481422 0.801831 0.839338
0.802335 0.81912 0.86215
0.904265 0.854154 0.86569
0.930495 0.854673 0.86537
0.955779 0.853803 0.865248
0.980621 0.852506 0.864851
0.148806 0.855283 0.841413
0.190753 0.855512 0.841489
0.282597 0.853452 0.839475
0.462776 0.855406 0.838926
0.721279 0.865354 0.845838
0.890105 0.890333 0.848005
0.93077 0.894514 0.850645
0.955154 0.893233 0.850355
0.979751 0.891951 0.849531
0.148852 0.883284 0.839811
0.18761 0.881483 0.838193
0.274632 0.877592 0.834684
0.442161 0.881727 0.832044
0.695521 0.903593 0.834394
0.870604 0.92285 0.817578
0.937484 0.920836 0.815229
0.964706 0.91812 0.819821
0.988357 0.916594 0.823255
0.143038 0.907134 0.834806
0.181811 0.90518 0.833066
0.264988 0.90074 0.829129
0.436591 0.909392 0.82678
0.681834 0.934264 0.82295
0.844617 0.95346 0.801968
0.929641 0.944411 0.792218
0.96434 0.940108 0.790066
0.994614 0.936584 0.793164
0.137316 0.930907 0.829892
0.176181 0.928893 0.828092
0.255985 0.923934 0.823713
0.40763 0.932738 0.818875
0.664912 0.962722 0.81062
0.835843 0.976898 0.790112
0.920317 0.967453 0.775677
0.955825 0.963149 0.766979
0.990646 0.958572 0.763394
0.0106508 0.239017 0.835935
0.0647288 0.232898 0.831815
0.225849 0.258564 0.88191
0.725139 0.340825 0.926482
0.907073 0.366659 0.943969
0.964523 0.370001 0.953353
0.998108 0.375692 0.955139
1 0.383368 0.956802
1 0.392508 0.957214
0 0.281651 0.823209
0.0538338 0.278828 0.821622
0.236683 0.309987 0.877974
0.74583 0.399054 0.925078
0.921675 0.426139 0.948791
0.960464 0.443534 0.951019
0.993912 0.46392 0.951858
1 0.483772 0.95259
1 0.504433 0.95314
0 0.442313 0.824903
0.065568 0.467216 0.828672
0.257771 0.492226 0.857252
0.811353 0.576364 0.925383
0.906416 0.581872 0.934096
0.948699 0.61268 0.9308
0.982803 0.633371 0.93225
1 0.651377 0.93286
1 0.666285 0.933303
0.0875257 0.677714 0.823713
0.149874 0.700389 0.839338
0.276493 0.720913 0.857893
0.619715 0.704814 0.889723
0.87747 0.746624 0.922667
0.932342 0.778241 0.906569
0.961624 0.783383 0.906126
0.987915 0.78703 0.904997
1 0.789059 0.903746
0.137011 0.806165 0.857832
0.183917 0.810575 0.861448
0.281987 0.809674 0.86186
0.481865 0.801541 0.867369
0.796323 0.812543 0.89839
0.905562 0.845747 0.898573
0.934829 0.852384 0.887541
0.958831 0.852216 0.885969
0.982895 0.851026 0.885328
0.149264 0.855467 0.866377
0.190768 0.855406 0.866194
0.282048 0.853056 0.863981
0.459297 0.854459 0.866941
0.703716 0.858656 0.884703
0.867933 0.884596 0.890684
0.923735 0.893416 0.880903
0.949676 0.892271 0.87892
0.974578 0.890608 0.878614
0.148272 0.882734 0.864164
0.186923 0.880842 0.862486
0.27332 0.876844 0.85893
0.438911 0.880949 0.858625
0.677897 0.895018 0.874189
0.841199 0.918227 0.871763
0.923476 0.92459 0.869581
0.949554 0.922347 0.870207
0.973129 0.921859 0.871473
0.142367 0.906523 0.859144
0.181109 0.904555 0.857389
0.263859 0.900038 0.853437
0.428946 0.907622 0.852216
0.664286 0.921752 0.862348
0.811658 0.946563 0.866743
0.915694 0.95375 0.852689
0.953994 0.944961 0.849515
0.980209 0.942931 0.85626
0.136599 0.930282 0.854246
0.175479 0.928267 0.852445
0.254948 0.923232 0.848051
0.39765 0.929992 0.846143
0.641672 0.947082 0.85275
0.78706 0.973877 0.86099
0.903365 0.984787 0.845426
0.945632 0.971527 0.833722
0.979858 0.966812 0.833875
0.0108492 0.239048 0.860945
0.0650645 0.233021 0.85684
0.225406 0.258656 0.906615
0.726528 0.341527 0.951705
0.908507 0.367666 0.969467
0.966003 0.371481 0.979019
1 0.377676 0.981231
1 0.38558 0.983047
1 0.394949 0.982956
0 0.282643 0.848585
0.0556497 0.280324 0.847364
0.244907 0.313802 0.905776
0.757549 0.403784 0.953094
0.923735 0.429511 0.975448
0.961395 0.444389 0.978805
0.996063 0.469749 0.977554
1 0.489632 0.978607
1 0.510262 0.97966
0 0.450385 0.852247
0.071107 0.476616 0.85536
0.263783 0.498283 0.884382
0.814237 0.577081 0.952728
0.906661 0.580499 0.965942
0.949828 0.604852 0.965408
0.985763 0.638865 0.958419
1 0.655177 0.959518
1 0.668238 0.960006
0.0929732 0.682857 0.850782
0.157748 0.708675 0.86981
0.279194 0.726116 0.885496
0.626215 0.707286 0.920394
0.874617 0.740063 0.964462
0.933684 0.775433 0.936736
0.965606 0.782895 0.932601
0.993805 0.785229 0.931319
1 0.786328 0.929335
0.139284 0.807919 0.883833
0.185504 0.811826 0.887053
0.28368 0.810483 0.88716
0.481086 0.8009 0.895781
0.790356 0.808682 0.935912
0.904616 0.839734 0.937682
0.93962 0.843854 0.924224
0.965499 0.84921 0.909514
0.988373 0.848432 0.907408
0.149584 0.855558 0.891142
0.190616 0.855192 0.89073
0.281331 0.852598 0.888319
0.454765 0.853284 0.895079
0.696315 0.85507 0.92137
0.864378 0.879683 0.928862
0.923613 0.890043 0.913207
0.951339 0.890745 0.900084
0.975738 0.889494 0.898756
0.147631 0.88217 0.888395
0.186221 0.880201 0.886671
0.272038 0.876097 0.883085
0.434256 0.879896 0.885161
0.672221 0.893324 0.909758
0.83151 0.916762 0.917845
0.914168 0.92665 0.907729
0.944366 0.924041 0.899199
0.969741 0.922271 0.893706
0.141756 0.905974 0.883421
0.180438 0.903929 0.881621
0.262745 0.899336 0.877653
0.424887 0.906813 0.876387
0.659358 0.920317 0.895308
0.806302 0.944961 0.910582
0.910964 0.956069 0.894209
0.948623 0.948241 0.889982
0.97322 0.943465 0.887633
0.135882 0.929656 0.878492
0.174762 0.927626 0.876692
0.25391 0.92253 0.872297
0.393896 0.929213 0.870344
0.636545 0.94583 0.885023
0.782177 0.97261 0.900435
0.900587 0.986755 0.887922
0.942916 0.975387 0.870558
0.977829 0.967254 0.868147
0.0110781 0.239109 0.885786
0.065507 0.233234 0.881727
0.225528 0.259007 0.931365
0.728557 0.34255 0.976822
0.910185 0.368887 0.994888
0.967391 0.373266 1
1 0.379965 1
1 0.388067 1
1 0.397284 1
0 0.283818 0.873854
0.0576638 0.282048 0.873045
0.253971 0.318029 0.933654
0.770809 0.408972 0.981506
0.925414 0.434485 1
0.962219 0.445335 1
0.997787 0.475883 1
1 0.495766 1
1 0.516381 1
0.00334173 0.458762 0.879423
0.077348 0.485527 0.881483
0.272999 0.506432 0.91194
0.817441 0.578149 0.980209
0.907729 0.58291 0.99733
0.9505 0.596704 1
0.988006 0.642039 0.985641
1 0.658961 0.985489
1 0.669856 0.986084
0.0983902 0.688106 0.877729
0.165194 0.716228 0.899382
0.283452 0.73051 0.91249
0.633005 0.709331 0.951812
0.872602 0.735195 1
0.932311 0.766232 0.977523
0.967407 0.778408 0.964584
0.996887 0.784039 0.957229
1 0.784039 0.955291
0.14136 0.809537 0.909545
0.187152 0.812924 0.912352
0.28513 0.811154 0.912154
0.47924 0.799908 0.924636
0.783993 0.804517 0.976379
0.900847 0.834714 0.980224
0.939757 0.837156 0.965866
0.970764 0.845197 0.938231
0.995254 0.845136 0.93228
0.149767 0.855573 0.915633
0.190341 0.854932 0.915007
0.280507 0.852094 0.912444
0.447425 0.851377 0.924041
0.687572 0.851102 0.960479
0.856077 0.875547 0.974777
0.924132 0.885237 0.959976
0.957687 0.885908 0.9364
0.980835 0.887037 0.920577
0.146975 0.881575 0.912428
0.185519 0.879561 0.910674
0.270771 0.875395 0.907057
0.421973 0.877287 0.91342
0.654429 0.890547 0.95259
0.817578 0.915877 0.967575
0.911711 0.927474 0.951095
0.944671 0.925032 0.935027
0.970504 0.92166 0.913664
0.140978 0.905318 0.907408
0.179767 0.903319 0.905669
0.261631 0.898665 0.901686
0.417609 0.905516 0.900862
0.634287 0.919158 0.937606
0.788403 0.94699 0.960571
0.902663 0.961593 0.94963
0.940154 0.954131 0.936126
0.969482 0.947753 0.921355
0.134401 0.928725 0.90248
0.174075 0.927016 0.900771
0.252888 0.921859 0.896345
0.390219 0.92845 0.894377
0.600351 0.947601 0.928695
0.757168 0.979034 0.952056
0.892576 0.996612 0.946288
0.938338 0.984512 0.920043
0.974594 0.974685 0.914199
