public/sampleLut/5.cube
TITLE "Generated by Resolve"
LUT_3D_SIZE 33
0.0219425 0.0599527 0.0612345
0.0409247 0.0597696 0.0598459
0.0560006 0.0605936 0.0585336
0.0710918 0.0614939 0.0577859
0.0875563 0.0624552 0.0568551
0.113313 0.064271 0.0555734
0.186664 0.0694438 0.0511788
0.362844 0.0899062 0.0578927
0.544228 0.119203 0.0837262
0.655573 0.142351 0.0952621
0.694087 0.149737 0.0960555
0.698253 0.156451 0.0933394
0.754009 0.170123 0.0956741
0.799619 0.182757 0.0960098
0.836927 0.195163 0.0953689
0.866911 0.207553 0.0948653
0.887129 0.212909 0.0961776
0.901793 0.213809 0.0971695
0.914397 0.214984 0.0982681
0.921874 0.215381 0.0985885
0.929015 0.216052 0.0990768
0.93611 0.216876 0.0996719
0.94342 0.217731 0.100313
0.950683 0.218769 0.101045
0.958038 0.219928 0.101839
0.965438 0.221195 0.102708
0.972885 0.222599 0.103655
0.980362 0.224109 0.104677
0.987869 0.225757 0.10576
0.995422 0.227527 0.106905
1 0.229465 0.108095
1 0.231525 0.109316
1 0.233722 0.110536
0.0188602 0.0750134 0.0556954
0.0382544 0.0718547 0.0500038
0.0556191 0.0706798 0.0503395
0.0698711 0.0711681 0.0513619
0.0851911 0.0719768 0.0514992
0.107683 0.0735027 0.0511025
0.17023 0.0782635 0.0485237
0.338964 0.0950179 0.0516365
0.525521 0.124102 0.0785534
0.64004 0.146883 0.0913252
0.697597 0.15877 0.0949111
0.686091 0.162066 0.0890669
0.74316 0.175738 0.0919051
0.790524 0.188266 0.0927596
0.830381 0.201068 0.0931258
0.861906 0.213519 0.0922713
0.884855 0.221958 0.0941176
0.899763 0.223194 0.0953384
0.912428 0.22472 0.0966049
0.920073 0.225513 0.0971389
0.927291 0.226596 0.0977951
0.934371 0.227848 0.0984817
0.941436 0.229236 0.0990463
0.948562 0.230762 0.0997787
0.955886 0.23241 0.100649
0.963333 0.234195 0.10161
0.970855 0.236103 0.102678
0.978485 0.238148 0.103822
0.98616 0.240284 0.105074
0.993896 0.242496 0.106432
1 0.2448 0.107851
1 0.247166 0.109331
1 0.249607 0.110872
0.0168002 0.0881361 0.0525826
0.0333257 0.0856489 0.0464332
0.0518654 0.082948 0.0417029
0.0702678 0.0810559 0.0408637
0.0872053 0.0807507 0.0428779
0.108156 0.082002 0.0450752
0.160555 0.0867018 0.0455482
0.317983 0.101259 0.0464485
0.506523 0.12961 0.0729992
0.624704 0.152285 0.087068
0.693202 0.166934 0.0920729
0.680491 0.169436 0.0868849
0.738033 0.183291 0.0899519
0.78529 0.195789 0.0908675
0.824445 0.208377 0.0910353
0.856443 0.220813 0.0899825
0.882383 0.2327 0.0919814
0.897658 0.234394 0.0934768
0.910018 0.236164 0.0948959
0.917937 0.2374 0.0957198
0.925521 0.238895 0.0967117
0.933074 0.240574 0.0977951
0.940856 0.242329 0.098909
0.948623 0.244282 0.100145
0.956497 0.246372 0.101442
0.964431 0.248569 0.102815
0.972442 0.250904 0.104265
0.980453 0.253254 0.105791
0.988479 0.255619 0.107408
0.996521 0.25803 0.109056
1 0.260609 0.110842
1 0.263249 0.112703
1 0.265904 0.11458
0.0144961 0.100877 0.0495613
0.0301213 0.0989853 0.0452583
0.0461585 0.0969558 0.0379034
0.0653086 0.0931411 0.0336156
0.0859998 0.0911574 0.0325475
0.110643 0.0914168 0.0353246
0.160128 0.095964 0.0405585
0.309636 0.110002 0.0431373
0.496529 0.137163 0.0695659
0.616526 0.159655 0.0846876
0.691508 0.175799 0.0907301
0.678279 0.178424 0.0857252
0.737102 0.192874 0.0891585
0.784726 0.205661 0.0903334
0.823987 0.218494 0.0906844
0.856382 0.231327 0.0899672
0.883635 0.244694 0.0920424
0.899367 0.24686 0.0938735
0.911131 0.248875 0.0953994
0.919371 0.250553 0.0965438
0.927718 0.252644 0.0979324
0.936233 0.254932 0.0994888
0.945022 0.257267 0.101061
0.95378 0.259754 0.102754
0.962676 0.262348 0.104494
0.971572 0.264927 0.106294
0.980972 0.267597 0.108248
0.990463 0.270314 0.110231
0.999985 0.27306 0.112215
1 0.275822 0.114214
1 0.278569 0.116197
1 0.281315 0.11812
1 0.284077 0.120027
0.0115206 0.115434 0.0464027
0.0264134 0.113802 0.0435492
0.0408789 0.113252 0.0370947
0.0583352 0.11078 0.0302281
0.0799573 0.106737 0.0260319
0.109026 0.104158 0.024506
0.164828 0.106706 0.0319829
0.307454 0.120287 0.0392157
0.492424 0.146639 0.0668193
0.615381 0.169757 0.0832074
0.68893 0.186648 0.0894331
0.680125 0.190158 0.0853437
0.741848 0.205386 0.0890822
0.790768 0.219089 0.0905165
0.831388 0.233234 0.0911116
0.865171 0.247395 0.0903944
0.891478 0.259495 0.0936294
0.909026 0.262455 0.0961471
0.921096 0.264851 0.0979934
0.930617 0.267185 0.0996567
0.940002 0.26978 0.101518
0.949401 0.272511 0.103456
0.958968 0.275257 0.105348
0.968475 0.277989 0.107317
0.977996 0.28069 0.10927
0.987549 0.283406 0.111238
0.997055 0.287373 0.113405
1 0.292912 0.115816
1 0.29839 0.118196
1 0.303838 0.1205
1 0.309224 0.122774
1 0.314763 0.125521
1 0.32047 0.128435
0.00755322 0.136904 0.0438697
0.0209049 0.135668 0.0425574
0.036408 0.134905 0.0386206
0.0513619 0.13576 0.0320134
0.0707103 0.134051 0.0251469
0.100328 0.128878 0.0181888
0.170062 0.126619 0.0148013
0.307897 0.133822 0.0315862
0.490745 0.157916 0.0631418
0.618311 0.182025 0.0815442
0.679927 0.196872 0.0864881
0.689555 0.204974 0.0849165
0.754025 0.221653 0.0892042
0.805508 0.237476 0.090837
0.84863 0.253758 0.0917525
0.88455 0.271656 0.0932937
0.908141 0.278981 0.0968643
0.92546 0.284382 0.0997635
0.93637 0.289021 0.1019
0.946212 0.29395 0.104158
0.955871 0.299413 0.1066
0.965347 0.304952 0.109209
0.97467 0.310979 0.11249
0.983948 0.317189 0.11577
0.99324 0.323278 0.118959
1 0.329366 0.122164
1 0.335454 0.125368
1 0.341405 0.128588
1 0.34728 0.131762
1 0.352941 0.134997
1 0.358755 0.138293
1 0.364477 0.141436
1 0.370336 0.144472
0.0028687 0.169512 0.0441901
0.0158846 0.169116 0.0439612
0.0318914 0.168521 0.0428321
0.0469978 0.170413 0.0415656
0.0645609 0.174578 0.0378882
0.0906081 0.178119 0.0293736
0.137163 0.173846 0.00859083
0.317952 0.167254 0.00114443
0.490089 0.177447 0.0543069
0.620691 0.195956 0.0782025
0.670115 0.211353 0.0823682
0.710445 0.228672 0.0858015
0.779446 0.248432 0.0907607
0.836057 0.270359 0.0933852
0.883726 0.296941 0.0953078
0.913191 0.31397 0.100923
0.928847 0.323415 0.104662
0.940917 0.334386 0.111254
0.951095 0.34023 0.114611
0.960647 0.346075 0.117891
0.969863 0.352239 0.12137
0.978882 0.358373 0.124697
0.98793 0.364263 0.12784
0.996841 0.370169 0.130983
1 0.375875 0.134005
1 0.38143 0.136934
1 0.386938 0.139315
1 0.392432 0.141604
1 0.398093 0.143908
1 0.403922 0.146242
1 0.40972 0.148669
1 0.415808 0.150622
1 0.421927 0.152743
0.000488289 0.217212 0.0509957
0.0137789 0.218326 0.0522011
0.0301518 0.218585 0.0528115
0.0479286 0.220813 0.055314
0.0654612 0.224948 0.0574807
0.090547 0.232074 0.0565347
0.117556 0.243656 0.0427863
0.20502 0.234104 0
0.516197 0.228046 0.00914015
0.665858 0.245609 0.0723735
0.74641 0.267414 0.0859541
0.765011 0.285634 0.0915541
0.834516 0.310765 0.0958724
0.885222 0.3364 0.0970321
0.915434 0.358419 0.102678
0.930129 0.368597 0.108858
0.942657 0.378622 0.115267
0.95404 0.388815 0.121248
0.963928 0.394934 0.124254
0.973114 0.40029 0.126513
0.982101 0.406149 0.128435
0.991028 0.4121 0.130129
1 0.417792 0.131853
1 0.423575 0.133684
1 0.429496 0.135607
1 0.435492 0.136965
1 0.441581 0.138033
1 0.447669 0.139086
1 0.453849 0.140032
1 0.459922 0.140963
1 0.466026 0.141009
1 0.472114 0.140917
1 0.478141 0.140795
0.00721752 0.279179 0.0612192
0.0213779 0.281956 0.0624399
0.0393378 0.283742 0.0634775
0.0580758 0.288045 0.0673228
0.0775006 0.295506 0.0716564
0.0992294 0.303197 0.0757305
0.125887 0.313252 0.0763561
0.148516 0.332784 0.0551308
0.319615 0.314321 0
0.688579 0.315679 0
0.815045 0.334279 0.0428473
0.821363 0.351278 0.0713207
0.875944 0.374792 0.0791791
0.912184 0.394934 0.0826734
0.932311 0.411902 0.0899062
0.948074 0.425452 0.0969863
0.960616 0.435187 0.10248
0.972183 0.445274 0.10724
0.982483 0.452644 0.109667
0.992081 0.457847 0.109621
1 0.463767 0.109331
1 0.469886 0.108949
1 0.475822 0.108659
1 0.482048 0.108095
1 0.487816 0.107225
1 0.49366 0.106294
1 0.499428 0.105394
1 0.505104 0.104601
1 0.510674 0.10399
1 0.516167 0.103609
1 0.521492 0.103288
1 0.526772 0.102937
1 0.531899 0.102632
0.0162661 0.355032 0.0718395
0.0311589 0.35964 0.0733654
0.0495613 0.36318 0.0745861
0.0690166 0.367544 0.0787976
0.0905776 0.376562 0.0853895
0.114076 0.386618 0.0916915
0.139452 0.396307 0.0962997
0.152743 0.416098 0.0836957
0.225971 0.431739 0.057847
0.454292 0.407034 0
0.78497 0.40766 0
0.856153 0.418235 0
0.897124 0.434745 0.0162661
0.938888 0.454688 0.0270695
0.958358 0.469581 0.0357519
0.974533 0.484749 0.0450294
0.986999 0.49366 0.0497597
0.998322 0.502434 0.0529335
1 0.510536 0.0546731
1 0.515709 0.054551
1 0.521279 0.0540932
1 0.527016 0.0534524
1 0.532433 0.0539712
1 0.53785 0.0551614
1 0.54313 0.0563668
1 0.548424 0.0575265
1 0.553628 0.0586862
1 0.558602 0.0604868
1 0.563378 0.0623789
1 0.567956 0.0642557
1 0.572366 0.0661021
1 0.576623 0.0679179
1 0.580606 0.0690166
0.0293278 0.438499 0.0870222
0.0445869 0.443992 0.0892653
0.0630045 0.448539 0.0908522
0.0827344 0.453315 0.0948043
0.104585 0.461021 0.100908
0.129 0.471427 0.108248
0.158358 0.479866 0.114366
0.178515 0.495583 0.107729
0.224384 0.511238 0.101595
0.336599 0.529488 0.0441291
0.563027 0.505989 0
0.796796 0.486305 0
0.883909 0.498177 0
0.938964 0.515084 0
0.967346 0.529274 0
0.982116 0.540703 0
0.994095 0.552316 0
1 0.560464 0.00117494
1 0.567742 0.00689708
1 0.572244 0.009308
1 0.577096 0.0113832
1 0.581994 0.011902
1 0.586709 0.0124819
1 0.591424 0.0130312
1 0.596033 0.013611
1 0.600488 0.0142672
1 0.604883 0.014847
1 0.609049 0.0155642
1 0.613092 0.0162814
1 0.616892 0.0171054
1 0.620615 0.0188144
1 0.623941 0.0210727
1 0.626886 0.0237583
0.0676585 0.510994 0.112383
0.0986954 0.509834 0.117281
0.130022 0.511513 0.12694
0.158785 0.514153 0.136095
0.189532 0.517708 0.145617
0.230777 0.526299 0.154192
0.264897 0.535882 0.158556
0.293416 0.550576 0.150698
0.283146 0.576288 0.125475
0.32842 0.599466 0.0969406
0.473625 0.61796 0.0159304
0.63772 0.589776 0
0.795483 0.559335 0
0.887327 0.570932 0
0.938018 0.582818 0
0.957519 0.59205 0
0.970001 0.601205 0
0.980072 0.61033 0
0.987747 0.619272 0
0.995422 0.626795 0
1 0.633417 0
1 0.637613 0
1 0.641566 0
1 0.64567 0
1 0.64921 0
1 0.652293 0
1 0.655222 0
1 0.658015 0
1 0.660609 0
1 0.66302 0.00134279
1 0.665232 0.00535592
1 0.666819 0.00917067
1 0.668193 0.0127718
0.154101 0.560235 0.15053
0.174929 0.566049 0.155566
0.19559 0.572457 0.159899
0.216144 0.578454 0.164523
0.237629 0.583246 0.168841
0.265919 0.594049 0.172244
0.2963 0.607614 0.171695
0.323049 0.622812 0.165515
0.342458 0.640146 0.148791
0.387579 0.655329 0.113039
0.484291 0.677302 0.0556039
0.608927 0.691493 0.00621042
0.707408 0.664607 0
0.799313 0.632105 0
0.867765 0.63653 0
0.902037 0.642588 0
0.917372 0.649195 0
0.929931 0.65594 0
0.941421 0.661891 0
0.952132 0.667399 0
0.962692 0.672496 0
0.972854 0.677562 0
0.982635 0.682795 0
0.992126 0.687877 0
1 0.690684 0
1 0.692378 0
1 0.693889 0.0037995
1 0.695277 0.00816358
1 0.696437 0.0121462
1 0.697459 0.0158846
1 0.698344 0.0194553
1 0.699077 0.0228122
1 0.699565 0.025864
0.188769 0.627024 0.170642
0.207919 0.631952 0.175189
0.227344 0.63772 0.178836
0.247623 0.643839 0.181308
0.268894 0.649073 0.183902
0.297826 0.660273 0.188434
0.331167 0.673442 0.189014
0.361135 0.686915 0.186572
0.394354 0.699031 0.17644
0.432822 0.710765 0.148638
0.503624 0.727581 0.0978408
0.605142 0.745113 0.045182
0.686564 0.747127 0.00950637
0.750957 0.723415 0
0.808484 0.696071 0.00254826
0.853697 0.689448 0
0.877165 0.691035 0
0.893446 0.694606 0
0.907515 0.698344 0
0.919997 0.702068 0
0.931853 0.705486 0
0.943221 0.708919 0.000488289
0.954604 0.712413 0.00526436
0.965927 0.715541 0.00994888
0.97673 0.719005 0.0156252
0.987396 0.722408 0.0212558
0.996582 0.722927 0.0238193
1 0.723262 0.0261082
1 0.723537 0.0283665
1 0.72369 0.0304265
1 0.72372 0.0323033
1 0.723705 0.034165
1 0.723568 0.0358282
0.228428 0.68751 0.192157
0.248096 0.692058 0.195773
0.267796 0.696971 0.199527
0.288518 0.702174 0.202274
0.309758 0.706615 0.204349
0.333852 0.711589 0.205173
0.359976 0.71754 0.204822
0.384543 0.725567 0.200855
0.415808 0.736965 0.192752
0.451621 0.749493 0.168154
0.516457 0.763821 0.1299
0.600458 0.781033 0.078172
0.67599 0.787549 0.0350805
0.736889 0.778485 0.0132448
0.784451 0.756802 0.0161135
0.821607 0.739116 0.0231937
0.844083 0.732662 0.0279545
0.863767 0.729473 0.0313268
0.881346 0.729915 0.0276951
0.896605 0.730999 0.0259556
0.910216 0.732433 0.0250095
0.922896 0.734157 0.0253605
0.935302 0.735897 0.0262913
0.947082 0.737606 0.0277256
0.958724 0.739254 0.029572
0.969818 0.741466 0.0326696
0.980682 0.743755 0.0360418
0.990265 0.74403 0.0375677
0.999496 0.743862 0.0387274
1 0.743587 0.039704
1 0.743252 0.0406958
1 0.742824 0.0415045
1 0.742336 0.0423133
0.256886 0.721218 0.205615
0.27483 0.72398 0.207889
0.292638 0.726955 0.209995
0.311025 0.729961 0.212085
0.330434 0.73254 0.213993
0.352621 0.737331 0.215106
0.376654 0.742962 0.213474
0.398932 0.750927 0.209735
0.42501 0.762112 0.201328
0.464744 0.773526 0.177478
0.524666 0.786221 0.143542
0.60174 0.803372 0.0961776
0.671107 0.81323 0.0567636
0.729625 0.81178 0.0307927
0.774792 0.796551 0.0244602
0.8065 0.78024 0.0324407
0.827161 0.770077 0.0415656
0.845304 0.763165 0.0509651
0.862333 0.758923 0.0544747
0.878813 0.757076 0.0525826
0.893324 0.756634 0.0510109
0.907256 0.756542 0.0493172
0.92076 0.756924 0.0468147
0.933867 0.757321 0.0440375
0.945602 0.75816 0.0442969
0.957153 0.758938 0.0447395
0.968048 0.760311 0.0464485
0.978775 0.761685 0.0483406
0.988067 0.761135 0.0485084
0.997253 0.76054 0.0486915
1 0.759869 0.0487678
1 0.759167 0.0488746
1 0.758389 0.0489052
0.278492 0.745724 0.215015
0.295659 0.748394 0.21709
0.312657 0.751141 0.219486
0.330098 0.753796 0.221775
0.348562 0.756161 0.223209
0.369207 0.76112 0.223499
0.391196 0.766506 0.222705
0.411307 0.774227 0.219394
0.434241 0.784848 0.2094
0.477104 0.796048 0.187457
0.533669 0.806531 0.155642
0.606088 0.822278 0.108949
0.670329 0.83241 0.0722515
0.725399 0.834943 0.0474708
0.769223 0.82533 0.0353704
0.799542 0.810498 0.0387732
0.819455 0.800214 0.0470893
0.836454 0.791714 0.0558328
0.851713 0.784894 0.063798
0.866438 0.781247 0.0685588
0.880446 0.778515 0.0716869
0.894377 0.777203 0.070985
0.908736 0.775814 0.0675822
0.92282 0.775189 0.0611124
0.935882 0.774853 0.0569924
0.947356 0.77528 0.0567483
0.958572 0.775631 0.0563973
0.969329 0.776333 0.0569162
0.979355 0.776272 0.0569162
0.98851 0.775418 0.0563973
0.997589 0.774533 0.0559243
1 0.773617 0.0555123
1 0.77261 0.054963
0.29752 0.768307 0.224567
0.313863 0.770626 0.226902
0.329976 0.773114 0.22916
0.346426 0.775509 0.230991
0.363836 0.777691 0.232151
0.382681 0.782574 0.232975
0.402838 0.78761 0.232654
0.421073 0.795361 0.229068
0.442893 0.803677 0.215702
0.486412 0.81297 0.193103
0.540597 0.822446 0.163287
0.610895 0.838651 0.119524
0.67129 0.849485 0.0852979
0.723278 0.853132 0.0611582
0.767178 0.846754 0.046067
0.796399 0.834669 0.0456703
0.816297 0.824369 0.0518196
0.832746 0.815854 0.0599222
0.847089 0.808438 0.0680552
0.860883 0.803586 0.074342
0.87396 0.799237 0.0800793
0.887083 0.796735 0.0814374
0.900618 0.794064 0.0815747
0.914229 0.792584 0.0770275
0.927657 0.791135 0.0724193
0.939574 0.790799 0.069688
0.951308 0.790463 0.067155
0.962188 0.790585 0.0661631
0.9729 0.790524 0.0650339
0.982025 0.789487 0.0640879
0.991073 0.788403 0.0630808
1 0.787289 0.0621195
1 0.78616 0.0612345
0.313252 0.788678 0.234806
0.328481 0.790494 0.236454
0.343374 0.792325 0.237949
0.358663 0.794095 0.239414
0.374807 0.796231 0.240421
0.391699 0.799298 0.240177
0.409827 0.802869 0.238209
0.424445 0.808087 0.2309
0.447517 0.814725 0.215824
0.491539 0.82356 0.192645
0.5467 0.833188 0.162921
0.614618 0.848844 0.119493
0.672923 0.85948 0.0858625
0.723201 0.864164 0.0637675
0.766186 0.859953 0.0495613
0.794461 0.850065 0.0483711
0.814145 0.84097 0.0539254
0.830167 0.833097 0.0615091
0.84387 0.826185 0.0697642
0.856916 0.820554 0.0771191
0.869261 0.815412 0.0841077
0.881743 0.812177 0.0872206
0.894484 0.808927 0.090074
0.907622 0.806973 0.0876173
0.920806 0.805051 0.0848096
0.933013 0.804318 0.0810712
0.945052 0.803677 0.0772717
0.956115 0.803571 0.0755016
0.967086 0.80322 0.0733043
0.976562 0.802197 0.0717784
0.985611 0.801007 0.0704356
0.994598 0.799786 0.0691997
1 0.798566 0.0680095
0.320241 0.800153 0.23859
0.334859 0.80174 0.239857
0.349111 0.803296 0.241001
0.363821 0.804807 0.242222
0.379049 0.807095 0.242649
0.395285 0.809766 0.242039
0.412482 0.813184 0.239429
0.425956 0.818265 0.231189
0.451667 0.824552 0.215946
0.495659 0.833021 0.19205
0.552193 0.842847 0.162615
0.617685 0.857908 0.119463
0.674189 0.868177 0.0859693
0.723064 0.872541 0.0636149
0.765148 0.868238 0.0489052
0.792996 0.858381 0.0470741
0.81239 0.849287 0.0519417
0.828214 0.841367 0.0588998
0.841672 0.83444 0.0666209
0.854414 0.828733 0.0735332
0.866575 0.823529 0.0801556
0.878813 0.819944 0.0835584
0.891386 0.816648 0.0861372
0.904265 0.814374 0.0845045
0.917296 0.81239 0.081529
0.92961 0.811307 0.077821
0.941543 0.810605 0.0738842
0.952773 0.8103 0.0714427
0.963577 0.810239 0.0699168
0.973358 0.809705 0.0688487
0.982269 0.808789 0.0681468
0.991135 0.807874 0.0675364
0.999969 0.806958 0.0670481
0.325704 0.81059 0.241657
0.339849 0.811902 0.242557
0.353643 0.813199 0.243427
0.367971 0.814481 0.24445
0.382406 0.816831 0.244388
0.398215 0.819211 0.243473
0.414542 0.822461 0.24033
0.427039 0.827359 0.231327
0.454765 0.833371 0.21561
0.498573 0.841443 0.191592
0.555871 0.851286 0.16257
0.619425 0.865873 0.119631
0.674601 0.875883 0.0861219
0.72253 0.880064 0.0633555
0.763836 0.875807 0.0482032
0.79144 0.865995 0.0456703
0.81059 0.856977 0.0499275
0.826261 0.849042 0.0562905
0.839536 0.842115 0.0636149
0.852049 0.836271 0.0702831
0.864057 0.831052 0.0765545
0.876112 0.827146 0.0803235
0.888579 0.823819 0.0826429
0.901183 0.821302 0.0817731
0.914153 0.819242 0.0786145
0.926543 0.817884 0.0749828
0.938415 0.817166 0.0709544
0.949798 0.816724 0.0679484
0.960555 0.816632 0.0663157
0.970718 0.816266 0.0649882
0.979629 0.815351 0.0641794
0.988525 0.81445 0.0634623
0.997391 0.81355 0.0628519
0.3299 0.820081 0.243885
0.343618 0.821149 0.244495
0.357015 0.822217 0.245167
0.370901 0.82327 0.24593
0.38471 0.825589 0.245472
0.400153 0.82771 0.244297
0.415839 0.830747 0.240757
0.42768 0.835447 0.231281
0.456306 0.841154 0.215259
0.499886 0.848875 0.191379
0.556924 0.858457 0.162844
0.619348 0.872801 0.120134
0.673518 0.882689 0.0862593
0.72079 0.886946 0.0629892
0.761761 0.882994 0.0472572
0.789425 0.873289 0.0438849
0.808438 0.864363 0.0474861
0.824048 0.856428 0.0532845
0.837171 0.849515 0.0602579
0.849485 0.84358 0.0667124
0.861387 0.838346 0.0727398
0.873274 0.834073 0.0769513
0.885649 0.830747 0.079118
0.898054 0.828 0.0791028
0.910979 0.82594 0.0758526
0.923506 0.824323 0.0723735
0.935363 0.823606 0.0682689
0.946944 0.823026 0.0647593
0.957748 0.822965 0.0630503
0.968261 0.822782 0.0615244
0.977218 0.821881 0.0606699
0.98616 0.821012 0.0599069
0.995102 0.820142 0.0592508
0.332433 0.828779 0.24506
0.345769 0.829618 0.245426
0.358801 0.830472 0.245899
0.372168 0.831418 0.246311
0.385657 0.833463 0.245686
0.400748 0.83534 0.244282
0.416068 0.838132 0.240528
0.427649 0.842573 0.23093
0.455955 0.848005 0.214984
0.499123 0.855467 0.19147
0.554818 0.864485 0.163607
0.616907 0.878782 0.12108
0.670619 0.888808 0.0864118
0.717479 0.89337 0.0624399
0.758251 0.890211 0.0459449
0.786603 0.880629 0.0412757
0.8056 0.871839 0.0441138
0.821241 0.863935 0.0492409
0.834287 0.857008 0.0560311
0.846387 0.850996 0.0623331
0.858213 0.845747 0.0681926
0.869963 0.841093 0.0730907
0.882277 0.837797 0.0751202
0.894545 0.834791 0.0762493
0.907439 0.832746 0.0729229
0.920211 0.830839 0.0695811
0.932082 0.830152 0.0654307
0.943938 0.82948 0.0614176
0.954772 0.829435 0.0596933
0.965606 0.829419 0.0580453
0.974655 0.828565 0.057023
0.983612 0.82768 0.0561532
0.992523 0.826795 0.055375
0.333928 0.836667 0.245594
0.346883 0.837293 0.245731
0.359564 0.837934 0.245991
0.372564 0.838712 0.246174
0.385733 0.840513 0.24535
0.40058 0.842191 0.243809
0.415747 0.84477 0.239979
0.427375 0.848981 0.230457
0.454704 0.854185 0.214725
0.49749 0.861479 0.191638
0.551431 0.869825 0.164523
0.613703 0.884184 0.122179
0.667124 0.894423 0.0866407
0.713771 0.899428 0.0619211
0.754559 0.897139 0.0446326
0.783658 0.887755 0.0385901
0.802716 0.879118 0.04065
0.818418 0.871214 0.0452583
0.831418 0.864347 0.0518654
0.843336 0.858305 0.0580758
0.855146 0.853056 0.0638437
0.866804 0.84802 0.0694591
0.879133 0.844739 0.071458
0.891279 0.84152 0.0735637
0.904219 0.83949 0.0702525
0.917144 0.837491 0.0669871
0.929183 0.836728 0.0628977
0.940978 0.836011 0.058732
0.951965 0.835859 0.0565499
0.962753 0.835813 0.0547951
0.972198 0.835142 0.0535897
0.981155 0.834257 0.0526436
0.990082 0.833371 0.0517586
0.334188 0.843854 0.245365
0.346838 0.844282 0.245335
0.359213 0.844739 0.245396
0.372045 0.845319 0.245472
0.385 0.846967 0.244495
0.399649 0.848463 0.242863
0.414878 0.850874 0.239078
0.426734 0.854856 0.229831
0.452506 0.859846 0.214511
0.494865 0.867033 0.191913
0.546517 0.87454 0.16556
0.609491 0.889097 0.123461
0.662974 0.899702 0.0869917
0.709499 0.90515 0.0614481
0.750439 0.904021 0.0433051
0.780468 0.894865 0.0356909
0.79968 0.886412 0.0370031
0.815381 0.878569 0.0414435
0.828489 0.871748 0.0476081
0.840299 0.865675 0.0538033
0.852094 0.860395 0.0595865
0.863752 0.855283 0.0654002
0.876112 0.851759 0.0679484
0.888319 0.848585 0.0700847
0.900984 0.846296 0.0676127
0.913909 0.844266 0.0642405
0.926055 0.843229 0.0602274
0.937896 0.842557 0.0560311
0.949096 0.842283 0.0533455
0.959884 0.842237 0.051545
0.969665 0.841718 0.0501411
0.978637 0.840848 0.0491035
0.987579 0.839963 0.0481422
0.333547 0.850477 0.244602
0.345968 0.850767 0.244419
0.358129 0.851087 0.244343
0.370871 0.851423 0.244388
0.383703 0.852964 0.24329
0.398184 0.854322 0.241596
0.413626 0.85658 0.237964
0.42594 0.860349 0.229145
0.449561 0.865202 0.213886
0.491646 0.872312 0.192233
0.54165 0.879316 0.16611
0.604578 0.89369 0.125032
0.658534 0.904768 0.0874189
0.705058 0.910674 0.0610361
0.746258 0.910872 0.0420233
0.777356 0.90193 0.0328832
0.796719 0.893736 0.0335241
0.812482 0.885908 0.0378119
0.825696 0.879179 0.0435798
0.837568 0.873075 0.0498817
0.849165 0.867781 0.0554971
0.860807 0.862638 0.0612497
0.873014 0.858732 0.0643778
0.88513 0.855543 0.0663462
0.89778 0.853056 0.0649729
0.910658 0.851041 0.0615396
0.922988 0.849744 0.0576333
0.934859 0.849073 0.0533608
0.946212 0.848676 0.0501869
0.957031 0.848646 0.0483101
0.967147 0.848295 0.0467384
0.97612 0.847425 0.0456245
0.985077 0.84654 0.0445716
0.332235 0.856687 0.243412
0.344488 0.85687 0.243137
0.356497 0.857084 0.242939
0.3691 0.857328 0.242893
0.381994 0.85864 0.24181
0.396475 0.859937 0.240116
0.412131 0.862028 0.236698
0.425025 0.865614 0.228397
0.446281 0.87039 0.213169
0.488151 0.877455 0.192538
0.536965 0.884169 0.166384
0.599619 0.898207 0.126574
0.6542 0.909834 0.087953
0.700816 0.916197 0.0606851
0.742351 0.917693 0.0408789
0.774426 0.909056 0.0303044
0.793973 0.901091 0.0304265
0.809674 0.893248 0.0343633
0.82295 0.886534 0.0396735
0.83473 0.880491 0.0457008
0.846235 0.875074 0.0514534
0.857832 0.869978 0.0570535
0.869947 0.86569 0.0608835
0.882048 0.862516 0.0627604
0.894545 0.8598 0.0623789
0.907408 0.857801 0.0588693
0.919936 0.856245 0.0551003
0.931792 0.855589 0.0507362
0.943374 0.855085 0.0470588
0.954162 0.855039 0.0451209
0.964645 0.854856 0.0433509
0.973617 0.853986 0.0421759
0.982574 0.853117 0.041062
0.330419 0.862593 0.241917
0.342611 0.862715 0.241611
0.354513 0.862852 0.241321
0.367041 0.863035 0.241199
0.380041 0.864118 0.240208
0.394568 0.8654 0.238544
0.410529 0.867353 0.235355
0.424048 0.870817 0.227634
0.442939 0.875563 0.212421
