public/sampleLut/6.cube
TITLE "Generated by Resolve"
LUT_3D_SIZE 33
0 0 0
0 0 0
0 0 0
0 0 0
0 0 0
0.0175174 0 0
0.0499428 0 0
0.0826581 0 0
0.116533 0 0
0.152468 0 0
0.19118 0 0
0.232914 0 0
0.277394 0 0
0.32369 0 0
0.370504 0 0
0.417456 0 0
0.464118 0 0
0.510536 0 0
0.555673 0 0
0.59997 0 0
0.642588 0 0
0.683406 0 0
0.722652 0 0
0.760357 0 0
0.797665 0 0
0.834043 0 0
0.870161 0 0
0.906004 0 0
0.941863 0 0
0.977935 0 0
1 0 0
1 0 0
1 0 0
0 0 0
0 0 0
0 0 0
0 0 0
0 0 0
0.0139162 0 0
0.046067 0 0
0.0791028 0 0
0.113695 0 0
0.150637 0 0
0.190738 0 0
0.234043 0 0
0.280232 0 0
0.328237 0 0
0.376654 0 0
0.424491 0 0
0.472496 0 0
0.520027 0 0
0.566445 0 0
0.610742 0 0
0.653941 0 0
0.695186 0 0
0.734798 0 0
0.773159 0 0
0.810636 0 0
0.847303 0 0
0.883833 0 0
0.920211 0 0
0.95671 0 0
0.993164 0 0
1 0 0
1 0 0
1 0 0
0 0 0
0 0 0
0 0 0
0 0 0
0 0 0
0.0201877 0 0
0.0513161 0 0
0.0838788 0 0
0.118624 0 0
0.156344 0 0
0.19762 0 0
0.242527 0 0
0.289937 0 0
0.339529 0 0
0.389242 0 0
0.438453 0 0
0.486763 0 0
0.535149 0 0
0.582193 0 0
0.627466 0 0
0.670771 0 0
0.712077 0 0
0.751797 0 0
0.790295 0 0
0.828046 0 0
0.865141 0 0
0.902235 0 0
0.939376 0 0
0.976822 0 0
1 0 0
1 0 0
1 0 0
1 0 0
0 0 0
0 0 0
0 0 0
0 0 0
0.0208438 0 0
0.0361639 0 0
0.0631571 0 0
0.0962539 0 0
0.131868 0 0
0.170428 0 0
0.213367 0 0
0.260029 0 0
0.309468 0 0
0.359472 0 0
0.409781 0 0
0.459525 0 0
0.50901 0 0
0.557946 0 0
0.605142 0 0
0.650477 0 0
0.693751 0 0
0.735119 0 0
0.77496 0.00169375 0
0.813703 0.0059968 0
0.851911 0.010605 0
0.889738 0.0155642 0
0.927611 0.0205386 0
0.965667 0.0256352 0
1 0.0310369 0
1 0.0365606 0
1 0.042298 0
1 0.048249 0
1 0.0544137 0
0 0.0424506 0
0 0.0372168 0
0 0.0319677 0
0 0.0267185 0
0.0210422 0.0210422 0
0.0688792 0.0145724 0
0.0892653 0.0111543 0
0.113161 0.012253 0
0.148104 0.0150607 0
0.188739 0.0180209 0
0.23418 0.0221256 0
0.283436 0.026276 0
0.335058 0.0303044 0
0.387045 0.0339971 0
0.437751 0.0370336 0
0.488045 0.0394446 0
0.538018 0.0416724 0
0.587091 0.044007 0
0.634592 0.0466926 0
0.680095 0.049897 0
0.723552 0.0537423 0
0.765148 0.0581979 0
0.80528 0.0632029 0
0.84448 0.0686198 0
0.883314 0.0742809 0
0.921889 0.0802472 0
0.960845 0.0863355 0
0.999817 0.0926223 0
1 0.0990005 0
1 0.105547 0
1 0.112245 0
1 0.119097 0
1 0.126055 0
0 0.0892348 0
0 0.08365 0
0 0.0785382 0
0 0.0733806 0
0.00364691 0.0682841 0
0.0630198 0.0630198 0
0.114916 0.0562753 0
0.144442 0.0545205 0
0.171054 0.059556 0
0.20853 0.0667124 0
0.256504 0.073518 0
0.3093 0.0799268 0
0.363897 0.0861067 0
0.418097 0.0918288 0
0.470451 0.0964218 0
0.521935 0.0998703 0
0.572869 0.103243 0
0.622614 0.106798 0
0.670588 0.110796 0
0.716365 0.115404 0
0.760113 0.120684 0
0.802045 0.12665 0
0.84271 0.133196 0
0.882521 0.139971 0
0.922087 0.146929 0
0.961547 0.15404 0
1 0.161181 0
1 0.168383 0.00363165
1 0.175616 0.0105745
1 0.18291 0.0175479
1 0.190265 0.0245518
1 0.197711 0.0315862
1 0.205158 0.0385901
0 0.136507 0
0 0.131289 0
0 0.126055 0
0 0.120562 0
0 0.115465 0
0.0445869 0.110414 0
0.104997 0.104997 0
0.160952 0.0985275 0
0.201144 0.0974441 0
0.235233 0.106584 0
0.279164 0.120058 0
0.332876 0.132677 0
0.392096 0.14345 0
0.449699 0.152758 0
0.504921 0.160021 0
0.55816 0.165423 0
0.610468 0.170718 0
0.661219 0.176226 0
0.709789 0.182193 0
0.756054 0.188739 0
0.800153 0.19585 0
0.84239 0.20351 0.00260929
0.88336 0.21149 0.00999466
0.923674 0.219608 0.0175021
0.963851 0.22771 0.0249485
1 0.235782 0.0323186
1 0.243992 0.0397803
1 0.251896 0.0469215
1 0.259693 0.0539406
1 0.26746 0.0608682
1 0.275242 0.0677958
1 0.283085 0.0747539
1 0.290929 0.0817121
0 0.184543 0
0 0.179339 0
0 0.174121 0
0 0.168933 0
0 0.163775 0
0.02533 0.15877 0
0.0859388 0.153521 0
0.14789 0.14789 0
0.208682 0.140826 0
0.259449 0.140337 0
0.303761 0.15378 0
0.356802 0.17583 0
0.416098 0.196994 0
0.477806 0.214115 0
0.538018 0.22652 0
0.593927 0.235126 0
0.647868 0.243061 0.00424201
0.699657 0.251041 0.0112459
0.748837 0.259266 0.0184634
0.795453 0.267872 0.0260166
0.839719 0.276829 0.0338598
0.882185 0.286061 0.0419318
0.923461 0.295384 0.0500649
0.964172 0.304616 0.0580758
1 0.313603 0.0658274
1 0.322637 0.0736248
1 0.33138 0.081178
1 0.340078 0.0886702
1 0.348653 0.0960708
1 0.357168 0.103395
1 0.365591 0.110674
1 0.374121 0.118013
1 0.382223 0.125017
0 0.234379 0
0 0.229114 0
0 0.223896 0
0 0.218738 0
0 0.213672 0
0.00366217 0.208865 0
0.0647898 0.2038 0
0.126802 0.198672 0
0.192584 0.192584 0
0.25948 0.184726 0
0.320317 0.185153 0
0.375204 0.203296 0
0.436103 0.234684 0
0.500618 0.265553 0
0.563714 0.288991 0.00796521
0.624262 0.304768 0.0228733
0.681514 0.317311 0.0333562
0.734661 0.328328 0.0425879
0.784482 0.338888 0.0514687
0.831434 0.349523 0.0604562
0.876005 0.360174 0.0694591
0.919051 0.370977 0.078645
0.961181 0.381765 0.0878157
1 0.392325 0.0968185
1 0.40267 0.105684
1 0.412726 0.114305
1 0.422385 0.122652
1 0.4318 0.1308
1 0.440909 0.138735
1 0.44976 0.146471
1 0.45832 0.153979
1 0.46659 0.161273
1 0.474571 0.168322
0 0.286076 0
0 0.280919 0
0 0.275868 0
0 0.270939 0
0 0.266133 0
0 0.261585 0
0.041001 0.256992 0
0.103319 0.252399 0
0.168933 0.247181 0
0.240497 0.240497 0
0.313817 0.231922 0
0.383093 0.233585 0
0.446357 0.255756 0
0.513344 0.294347 0
0.581857 0.333196 0
0.645609 0.362722 0.0287022
0.705867 0.385046 0.0531624
0.762982 0.402426 0.0683299
0.815503 0.417365 0.0808576
0.864088 0.430915 0.0924086
0.910094 0.443824 0.103502
0.954528 0.456489 0.114427
0.998093 0.468788 0.125048
1 0.480644 0.135302
1 0.491936 0.145113
1 0.502815 0.154589
1 0.513115 0.163592
1 0.522942 0.172229
1 0.532296 0.180484
1 0.541192 0.188388
1 0.549599 0.195865
1 0.557565 0.203006
1 0.565103 0.209766
0 0.339971 0
0 0.335164 0
0 0.33051 0
0 0.326024 0
0 0.321721 0
0 0.317708 0
0.0149996 0.31371 0
0.0778515 0.309789 0
0.143328 0.305409 0
0.214542 0.299779 0
0.29247 0.292454 0
0.371008 0.283497 0
0.445838 0.286305 0
0.515572 0.309911 0
0.585367 0.350881 0
0.656184 0.395651 0
0.722118 0.433631 0.0406653
0.782544 0.463828 0.0776989
0.838544 0.487846 0.102266
0.891127 0.507515 0.119493
0.940063 0.524483 0.134035
0.986343 0.539528 0.147036
1 0.553292 0.15903
1 0.566155 0.170336
1 0.578271 0.181064
1 0.58967 0.191257
1 0.600229 0.200778
1 0.610132 0.209796
1 0.619394 0.218296
1 0.628077 0.226337
1 0.636271 0.233997
1 0.644038 0.241321
1 0.651408 0.248341
0 0.396201 0
0 0.391974 0
0 0.38793 0
0 0.384085 0
0 0.380438 0
0 0.377111 0
0 0.373846 0
0.0516823 0.370581 0
0.117159 0.367086 0
0.187762 0.362493 0
0.265278 0.356298 0
0.348592 0.348592 0
0.42974 0.339727 0
0.508049 0.342443 0
0.581415 0.364401 0
0.652934 0.404929 0
0.724376 0.453773 0
0.791959 0.50042 0.0419471
0.852461 0.538598 0.0924392
0.907698 0.569177 0.128023
0.95967 0.593622 0.153124
1 0.613596 0.171435
1 0.63061 0.18674
1 0.645228 0.200122
1 0.658122 0.212116
1 0.669779 0.223148
1 0.680537 0.233463
1 0.690608 0.24329
1 0.700008 0.252598
1 0.708766 0.261418
1 0.717037 0.269856
1 0.724819 0.277928
1 0.732158 0.285649
0 0.454795 0
0 0.451225 0
0 0.447868 0
0 0.444724 0
0 0.441794 0
0 0.43917 0
0 0.436545 0
0.0267796 0.434104 0
0.0923781 0.431373 0
0.16231 0.42771 0
0.238849 0.422431 0
0.32192 0.415549 0
0.407813 0.407813 0
0.489677 0.399145 0
0.569314 0.400549 0
0.644846 0.419883 0
0.716197 0.457984 0
0.78616 0.50869 0
0.853391 0.56054 0.0295262
0.914885 0.605692 0.0940719
0.970581 0.641413 0.140719
1 0.670039 0.175555
1 0.692958 0.201312
1 0.711803 0.220768
1 0.727687 0.236576
1 0.741344 0.250523
1 0.753231 0.262959
1 0.763867 0.274327
1 0.773663 0.284977
1 0.782849 0.295125
1 0.791516 0.304875
1 0.799695 0.314183
1 0.80737 0.323018
0 0.51577 0
0 0.512917 0
0 0.510292 0
0 0.507851 0
0 0.505608 0
0 0.503624 0
0 0.501579 0
0.00331121 0.499672 0
0.0691691 0.497429 0
0.138506 0.494377 0
0.213993 0.489738 0
0.296239 0.48333 0
0.3823 0.475898 0
0.468284 0.468284 0
0.550591 0.459648 0
0.629938 0.459327 0
0.70518 0.476143 0
0.775143 0.511482 0
0.842481 0.560586 0
0.907851 0.613657 0.00407416
0.970016 0.662287 0.0804913
1 0.702907 0.139315
1 0.735058 0.184527
1 0.761486 0.220478
1 0.783047 0.248173
1 0.800916 0.269642
1 0.816007 0.286748
1 0.82916 0.3019
1 0.840681 0.315404
1 0.851041 0.327718
1 0.860517 0.339117
1 0.869474 0.34995
1 0.87805 0.360357
0 0.57879 0
0 0.576638 0
0 0.574639 0
0 0.572793 0
0 0.571069 0
0 0.569543 0
0 0.567864 0
0 0.566323 0
0.0471504 0.564279 0
0.115892 0.561547 0
0.190082 0.557336 0
0.271015 0.551247 0
0.356573 0.543862 0
0.442664 0.536248 0
0.528496 0.528481 0
0.610758 0.519814 0
0.688319 0.518517 0
0.761883 0.533455 0
0.829694 0.565148 0
0.894469 0.6103 0
0.957855 0.661219 0
1 0.710857 0.0540322
1 0.754406 0.124163
1 0.790997 0.181567
1 0.820539 0.228031
1 0.84538 0.266072
1 0.866224 0.296422
1 0.883909 0.320302
1 0.899107 0.339162
1 0.912612 0.355688
1 0.924117 0.369924
1 0.934829 0.383139
1 0.944549 0.395102
0 0.643427 0
0 0.641764 0
0 0.640208 0
0 0.638727 0
0 0.637293 0
0 0.635996 0
0 0.634485 0
0 0.632914 0
0.025864 0.630991 0
0.0939651 0.628321 0
0.166705 0.624338 0
0.246036 0.618585 0
0.330739 0.611383 0
0.416922 0.603815 0
0.502754 0.596399 0
0.588739 0.588739 0
0.669581 0.580728 0
0.744045 0.578882 0
0.814893 0.591699 0
0.880461 0.619013 0
0.943175 0.658488 0
1 0.704997 0
1 0.752956 0.0154269
1 0.797848 0.0957961
1 0.837705 0.16463
1 0.871794 0.223346
1 0.900221 0.272236
1 0.924956 0.312963
1 0.946273 0.345754
1 0.964157 0.37116
1 0.979934 0.391409
1 0.993805 0.408347
1 1 0.423621
0 0.708431 0
0 0.707057 0
0 0.705715 0
0 0.704372 0
0 0.703014 0
0 0.701701 0
0 0.700114 0
0 0.698497 0
0.00616464 0.696574 0
0.0738994 0.693996 0
0.14548 0.690425 0
0.223301 0.685222 0
0.30695 0.678492 0
0.392996 0.671122 0
0.478614 0.663859 0
0.564858 0.656428 0
0.64918 0.64918 0
0.726864 0.642084 0
0.797238 0.639689 0
0.864836 0.65005 0
0.928435 0.672511 0
0.989746 0.705608 0
1 0.746471 0
1 0.791119 0
1 0.835828 0.058381
1 0.877729 0.136095
1 0.915785 0.205966
1 0.949401 0.267155
1 0.977478 0.317525
1 1 0.359518
1 1 0.3935
1 1 0.419989
1 1 0.440848
0 0.772778 0
0 0.77145 0
0 0.770077 0
0 0.768658 0
0 0.767239 0
0 0.765911 0
0 0.764401 0
0 0.762905 0
0 0.761212 0
0.0571298 0.758816 0
0.127871 0.755596 0
0.204181 0.750896 0
0.286427 0.744549 0
0.371923 0.737316 0
0.457252 0.730053 0
0.543191 0.722576 0
0.627924 0.715312 0
0.708736 0.708736 0
0.782147 0.702556 0
0.848096 0.69955 0
0.912444 0.707256 0
0.974594 0.724941 0
1 0.75198 0
1 0.787045 0
1 0.827573 0
1 0.8701 0.0123903
1 0.913588 0.100313
1 0.954696 0.178927
1 0.991943 0.249607
1 1 0.311894
1 1 0.362737
1 1 0.404807
1 1 0.438621
0 0.83563 0
0 0.834241 0
0 0.832853 0
0 0.831525 0
0 0.830243 0
0 0.829068 0
0 0.827726 0
0 0.826337 0
0 0.824643 0
0.0438697 0.8224 0
0.113909 0.819333 0
0.188739 0.814908 0
0.269413 0.808865 0
0.353979 0.801663 0
0.438972 0.794247 0
0.524315 0.786618 0
0.608927 0.779034 0
0.690303 0.772183 0
0.766308 0.766308 0
0.835111 0.760861 0
0.8972 0.757137 0
0.958846 0.762173 0
1 0.775647 0
1 0.797482 0
1 0.827192 0
1 0.863249 0
1 0.90396 0
1 0.94699 0.060914
1 0.989715 0.145434
1 1 0.224491
1 1 0.29575
1 1 0.356832
1 1 0.407095
0 0.897368 0
0 0.896101 0
0 0.894865 0
0 0.89366 0
0 0.892439 0
0 0.89131 0
0 0.889952 0
0 0.888518 0
0 0.886748 0
0.033341 0.884413 0
0.102831 0.881254 0
0.176349 0.876905 0
0.25539 0.870954 0
0.338796 0.863676 0
0.423362 0.855955 0
0.507958 0.848035 0
0.592187 0.84004 0
0.673625 0.832593 0
0.750103 0.826276 0
0.820951 0.820951 0
0.885664 0.815854 0
0.944778 0.811383 0
1 0.814084 0
1 0.824033 0
1 0.841627 0
1 0.866789 0
1 0.899168 0
1 0.937331 0
1 0.979294 0.0189364
1 1 0.111284
1 1 0.19472
1 1 0.273411
1 1 0.343572
0 0.958755 0
0 0.957519 0
0 0.956283 0
0 0.955032 0
0 0.953735 0
0 0.952468 0
0 0.950942 0
0 0.94931 0
0 0.947295 0
0.0242466 0.944701 0
0.0932937 0.941238 0
0.165652 0.936751 0
0.243107 0.930709 0
0.32517 0.923232 0
0.409064 0.915084 0
0.492973 0.906722 0
0.576684 0.898192 0
0.65803 0.890105 0
0.734707 0.88307 0
0.806012 0.877287 0
0.872312 0.872312 0
0.933974 0.867292 0
0.991547 0.862165 0
1 0.862684 0
1 0.869917 0
1 0.884199 0
1 0.906004 0
1 0.935195 0
1 0.971054 0
1 1 0
1 1 0.0752728
1 1 0.16347
1 1 0.247684
0 1 0
0 1 0
0 1 0
0 1 0
0 1 0
0 1 0
0 1 0
0 1 0
0 1 0
0.0152438 1 0
0.0839094 0.999237 0
0.155245 0.994385 0
0.231159 0.988098 0
0.311788 0.980346 0
0.394888 0.97171 0
0.478233 0.962829 0
0.56141 0.95378 0
0.642618 0.945068 0
0.719524 0.937331 0
0.791058 0.930831 0
0.857679 0.925475 0
0.920577 0.920577 0
0.980499 0.915297 0
1 0.909682 0
1 0.908309 0
1 0.913527 0
1 0.92549 0
1 0.944732 0
1 0.971496 0
1 1 0
1 1 0
1 1 0.039826
1 1 0.133608
0 1 0
0 1 0
0 1 0
0 1 0
0 1 0
0 1 0
0 1 0
0 1 0
0 1 0
0.00610361 1 0
0.0738384 1 0
0.144228 1 0
0.218647 1 0
0.29778 1 0
0.37998 1 0
0.462882 1 0
0.54519 1 0
0.626261 0.998016 0
0.703426 0.989563 0
0.775296 0.982361 0
0.84213 0.976364 0
0.905211 0.971237 0
0.966171 0.966171 0
1 0.960555 0
1 0.954406 0
1 0.951782 0
1 0.955535 0
1 0.965835 0
1 0.983246 0
1 1 0
1 1 0
1 1 0
1 1 0.00585946
0 1 0
0 1 0
0 1 0
0 1 0
0 1 0
0 1 0
0 1 0
0 1 0
0 1 0
0 1 0
0.0621195 1 0
0.131701 1 0
0.204715 1 0
0.282261 1 0
0.363409 1 0
0.445899 1 0
0.527855 1 0
0.608698 1 0
0.686091 1 0
0.758389 1 0
0.825635 1 0
0.888823 1 0
0.949889 1 0
1 1 0
1 1 0
1 0.997635 0
1 0.993973 0
1 0.996735 0
1 1 0
1 1 0
1 1 0
1 1 0
1 1 0
0 1 0
0 1 0
0 1 0
0 1 0
0 1 0
0 1 0
0 1 0
0 1 0
0 1 0
0 1 0
0.0485695 1 0
0.11751 1 0
0.189197 1 0
0.265156 1 0
0.345113 1 0
0.427161 1 0
0.508629 1 0
0.589273 1 0
0.666926 1 0
0.739803 1 0
0.807614 1 0
0.871122 1 0
0.932189 1 0
0.992569 1 0
1 1 0
1 1 0
1 1 0
1 1 0
1 1 0
1 1 0
1 1 0
1 1 0
1 1 0
0 1 0
0 1 0
0 1 0
0 1 0
0 1 0
0 1 0
0 1 0
0 1 0
0 1 0
0 1 0
0.0336156 1 0
0.102129 1 0
0.172732 1 0
0.247196 1 0
0.325902 1 0
0.407462 1 0
0.48864 1 0
0.5691 1 0
0.647028 1 0
0.720546 1 0
0.789059 1 0
0.853101 1 0
0.914366 1 0
0.97464 1 0
1 1 0
1 1 0
1 1 0
1 1 0
1 1 0
1 1 0
1 1 0
1 1 0
1 1 0
0 1 0
0 1 0
0 1 0
0 1 0
0 1 0
0 1 0
0 1 0
0 1 0
0 1 0
0 1 0
0.0173495 1 0
0.0851911 1 0
0.154986 1 0
0.228046 1 0
0.30544 1 0
0.386419 1 0
0.467506 1 0
0.547768 1 0
0.625986 1 0
0.700221 1 0
0.769558 1 0
0.834333 1 0
0.895994 1 0
0.956359 1 0
1 1 0
1 1 0
1 1 0
1 1 0
1 1 0
1 1 0
1 1 0
1 1 0
1 1 0
0 1 0
0 1 0
0 1 0
0 1 0
0 1 0
0 1 0
0 1 0
0 1 0
0 1 0
