public/sampleLut/6.cube
TITLE "Generated by Resolve"
LUT_3D_SIZE 9
0 0 0
0 0 0
0.116533 0 0
0.277394 0 0
0.464118 0 0
0.642588 0 0
0.797665 0 0
0.941863 0 0
1 0 0
0 0.0424506 0
0.0210422 0.0210422 0
0.148104 0.0150607 0
0.335058 0.0303044 0
0.538018 0.0416724 0
0.723552 0.0537423 0
0.883314 0.0742809 0
1 0.0990005 0
1 0.126055 0
0 0.234379 0
0 0.213672 0
0.192584 0.192584 0
0.436103 0.234684 0
0.681514 0.317311 0.0333562
0.876005 0.360174 0.0694591
1 0.40267 0.105684
1 0.440909 0.138735
1 0.474571 0.168322
0 0.454795 0
0 0.441794 0
0.0923781 0.431373 0
0.407813 0.407813 0
0.716197 0.457984 0
0.970581 0.641413 0.140719
1 0.727687 0.236576
1 0.773663 0.284977
1 0.80737 0.323018
0 0.708431 0
0 0.703014 0
0.00616464 0.696574 0
0.30695 0.678492 0
0.64918 0.64918 0
0.928435 0.672511 0
1 0.835828 0.058381
1 0.977478 0.317525
1 1 0.440848
0 0.958755 0
0 0.953735 0
0 0.947295 0
0.243107 0.930709 0
0.576684 0.898192 0
0.872312 0.872312 0
1 0.869917 0
1 0.971054 0
1 1 0.247684
0 1 0
0 1 0
0 1 0
0.189197 1 0
0.508629 1 0
0.807614 1 0
1 1 0
1 1 0
1 1 0
0 1 0
0 1 0
0 1 0
0.118273 1 0
0.424659 1 0
0.729442 1 0
0.980179 1 0
1 1 0
1 1 0
0 1 0
0 1 0
0 1 0
0.0451209 1 0
0.339239 1 0
0.64863 1 0
0.90837 1 0
1 1 0
1 1 0
0 0 0.107393
0 0 0
0.131441 0 0
0.295308 0 0
0.476204 0 0
0.649119 0 0
0.799237 0 0
0.939803 0 0
1 0 0.00898756
0 0.035935 0.035935
0.0148165 0.0148165 0.0148165
0.153704 0.0203861 0.0203861
0.325628 0.0226596 0.0226596
0.516274 0.0240635 0.0240635
0.695659 0.0288396 0.0288396
0.852399 0.0435645 0.0435645
1 0.0642252 0.0642252
1 0.0883192 0.0883192
0 0.227787 0
0 0.207324 0
0.186954 0.186954 0
0.426841 0.248875 0.106157
0.683803 0.319615 0.168139
0.861936 0.342992 0.189441
1 0.367834 0.212497
1 0.393011 0.236072
1 0.418204 0.259907
0 0.450446 0
0 0.438315 0
0.0906691 0.428565 0
0.405875 0.405875 0
0.754986 0.549172 0.168475
1 0.698665 0.361288
1 0.743969 0.41033
1 0.77261 0.442222
1 0.793072 0.465537
0 0.707027 0
0 0.701488 0
0.00512703 0.694911 0
0.305425 0.677241 0
0.648096 0.648096 0
0.944228 0.718746 0
1 0.925307 0.397452
1 1 0.569665
1 1 0.630198
0 0.957473 0
0 0.952239 0
0 0.945342 0
0.239933 0.928237 0
0.572427 0.895033 0
0.868193 0.868193 0
1 0.882628 0
1 1 0.227283
1 1 0.590387
0 1 0
0 1 0
0 1 0
0.183459 1 0
0.501595 1 0
0.801144 1 0
1 1 0
1 1 0
1 1 0.0618448
0 1 0
0 1 0
0 1 0
0.111727 1 0
0.417136 1 0
0.72256 1 0
0.974014 1 0
1 1 0
1 1 0
0 1 0
0 1 0
0 1 0
0.0387427 1 0
0.331807 1 0
0.641367 1 0
0.902159 1 0
1 1 0
1 1 0
0 0 0.397925
0.0467384 0 0.275944
0.136156 0 0.136156
0.298772 0 0.132952
0.479484 0 0.126604
0.651759 0 0.123079
0.801465 0 0.126757
0.940795 0 0.133745
1 0 0.142275
0 0.0274357 0.312016
0.00675975 0.00675975 0.287083
0.157473 0.0224613 0.157473
0.324132 0.0213779 0.155062
0.507103 0.0166476 0.150423
0.681559 0.0164797 0.150561
0.83537 0.0268406 0.161654
0.984619 0.0440223 0.179904
1 0.0654154 0.202762
0 0.220386 0.220386
0 0.200595 0.200595
0.181231 0.181231 0.181231
0.365911 0.192447 0.192447
0.579324 0.216205 0.216205
0.773526 0.242557 0.242557
0.934539 0.27013 0.270146
1 0.299046 0.299062
1 0.328084 0.328084
0 0.446174 0.102663
0 0.435004 0.0948501
0.0889296 0.425696 0.0889143
0.403128 0.403128 0.07187
0.756451 0.578012 0.398413
1 0.698482 0.522087
1 0.7149 0.53959
1 0.721782 0.546975
1 0.727642 0.553323
0 0.705364 0.0124361
0 0.699474 0.00833143
0.0034638 0.692531 0.0034638
0.30251 0.674601 0
0.645609 0.645609 0
0.997436 0.81857 0.387427
1 1 0.694896
1 1 0.75494
1 1 0.780575
0 0.955901 0
0 0.950317 0
0 0.942824 0
0.236011 0.925048 0
0.567376 0.891218 0
0.863569 0.863569 0
1 0.917357 0.116655
1 1 0.64268
1 1 0.85594
0 1 0
0 1 0
0 1 0
0.177218 1 0
0.494057 1 0
0.794293 1 0
1 1 0
1 1 0
1 1 0.474083
0 1 0
0 1 0
0 1 0
0.104921 1 0
0.409339 1 0
0.715358 1 0
0.967605 1 0
1 1 0
1 1 0
0 1 0
0 1 0
0 1 0
0.0320592 1 0
0.324086 1 0
0.633768 1 0
0.895659 1 0
1 1 0
1 1 0
0 0 0.734493
0.0620584 0 0.704479
0.163943 0 0.363958
0.302464 0 0.302464
0.481498 0 0.293797
0.652796 0 0.290196
0.801984 0 0.294774
0.941421 0 0.303075
1 0 0.313252
0 0.0135195 0.653742
0 0 0.629328
0.21738 0 0.520775
0.327276 0.0205386 0.327276
0.508721 0.0170596 0.32108
0.683207 0.0176852 0.322286
0.836194 0.0276036 0.33402
0.983597 0.0429999 0.351614
1 0.0613565 0.372473
0 0.207126 0.562493
0 0.188159 0.54136
0.170123 0.170123 0.520562
0.362066 0.187137 0.362066
0.553506 0.192386 0.366079
0.735637 0.203418 0.378073
0.893202 0.223056 0.398947
1 0.246479 0.42356
1 0.271931 0.449973
0 0.436561 0.436545
0 0.426734 0.426734
0.082948 0.418219 0.418219
0.395926 0.395926 0.395926
0.610574 0.423636 0.423636
0.821759 0.474998 0.474998
0.992905 0.519265 0.519265
1 0.5467 0.5467
1 0.571694 0.571694
0 0.699123 0.330541
0 0.693156 0.323125
0 0.686229 0.314946
0.295659 0.668055 0.295659
0.638254 0.638254 0.266529
1 0.871763 0.708278
1 1 0.859922
1 1 0.870985
1 1 0.860151
0 0.950896 0.269215
0 0.945022 0.26067
0 0.936904 0.249989
0.227924 0.918029 0.227924
0.55726 0.883116 0.190402
0.855024 0.855024 0.162585
1 1 0.613413
1 1 0.984329
1 1 1
0 1 0.227359
0 1 0.212345
0 1 0.194614
0.168292 1 0.168292
0.483406 1 0.128389
0.784772 1 0.0921492
1 1 0.0727245
1 1 0.362097
1 1 0.932784
0 1 0.163867
0 1 0.143877
0 1 0.122972
0.0958724 1 0.0958724
0.397971 1 0.0585946
0.705623 1 0.0210117
0.959014 1 0
1 1 0
1 1 0.171145
0 1 0.0903334
0 1 0.0699626
0 1 0.0497444
0.0235142 1 0.0235142
0.313771 1 0
0.623545 1 0
0.886931 1 0
1 1 0
1 1 0
0 0 1
0.0525673 0 1
0.260273 0 0.864652
0.311788 0 0.507652
0.484215 0 0.484215
0.654231 0 0.478386
0.80209 0 0.482033
0.941375 0 0.490425
1 0 0.50135
0 0.00251774 0.965866
0 0 0.944533
0.229953 0 0.917388
0.35787 0.00421149 0.574502
0.512184 0.015259 0.512184
0.685634 0.0176394 0.511803
0.838468 0.0290684 0.523919
0.986618 0.0457008 0.542489
1 0.0649271 0.564141
0 0.195209 0.889525
0 0.176791 0.873106
0.159716 0.159716 0.857374
0.434897 0.14966 0.73666
0.559792 0.194369 0.559792
0.740215 0.207004 0.570047
0.897124 0.227176 0.590707
1 0.248722 0.613016
1 0.269917 0.634775
0 0.426291 0.784115
0 0.41738 0.777844
0.075761 0.409384 0.772274
0.387259 0.387259 0.753216
0.597833 0.408637 0.597833
0.776425 0.423011 0.610056
0.930968 0.444022 0.630838
1 0.465507 0.652064
1 0.486748 0.672862
0 0.689616 0.689601
0 0.683436 0.683421
0 0.676555 0.676555
0.285756 0.658351 0.658351
0.62707 0.62707 0.62707
0.824323 0.664118 0.664134
1 0.724071 0.724071
1 0.766522 0.766537
1 0.781888 0.781888
0 0.941253 0.630732
0 0.934813 0.621302
0 0.925856 0.608957
0.214847 0.905989 0.583886
0.541497 0.869642 0.541497
0.839643 0.839643 0.507378
1 1 0.946319
1 1 1
1 1 1
0 1 0.583459
0 1 0.56556
0 1 0.544396
0.154253 1 0.5131
0.466835 1 0.466835
0.768856 1 0.424216
1 1 0.400565
1 1 0.904021
1 1 1
0 1 0.508537
0 1 0.484581
0 1 0.459525
0.0830091 1 0.426932
0.383764 1 0.383749
0.692134 1 0.340291
0.947372 1 0.313146
1 1 0.292134
1 1 0.65832
0 1 0.421088
0 1 0.396246
0 1 0.371557
0.0120241 1 0.339391
0.301076 1 0.30106
0.611139 1 0.25861
0.876493 1 0.229786
1 1 0.207477
1 1 0.187991
0 0 1
0.0436255 0 1
0.289906 0 1
0.402136 0 0.859342
0.486732 0 0.664576
0.657679 0 0.657679
0.804868 0 0.659678
0.943679 0 0.66688
1 0 0.677516
0 0 1
0 0 1
0.221118 0 1
0.46389 0 1
0.520485 0.0128939 0.698421
0.69131 0.0181277 0.69131
0.843931 0.031281 0.702007
0.99173 0.0495918 0.7196
1 0.0697337 0.74023
0 0.186938 1
0 0.169436 1
0.153643 0.153643 1
0.465171 0.12604 1
0.587579 0.188495 0.772137
0.748699 0.210971 0.748699
0.903868 0.232074 0.765942
1 0.253986 0.785641
1 0.275608 0.805783
0 0.421088 1
0 0.41297 1
0.0733196 0.405509 1
0.383566 0.383566 1
0.670817 0.379675 0.91342
0.784298 0.427787 0.784298
0.936782 0.449592 0.801373
1 0.471 0.820188
1 0.490455 0.837507
0 0.685054 0.984695
0 0.678721 0.980835
0 0.671962 0.976394
0.281132 0.653788 0.962112
0.621576 0.621576 0.934859
0.807721 0.643351 0.807721
0.954604 0.65951 0.820722
1 0.673259 0.833082
1 0.684382 0.843046
0 0.935866 0.935851
0 0.928557 0.928557
0 0.918456 0.918456
0.205798 0.897688 0.897688
0.530175 0.860029 0.860029
0.82742 0.82742 0.82742
0.992111 0.859434 0.859434
1 0.915785 0.915785
1 0.960906 0.960922
0 1 0.896971
0 1 0.881666
0 1 0.863371
0.14197 1 0.836271
0.451942 1 0.794232
0.753277 1 0.753277
1 1 0.729519
1 1 1
1 1 1
0 1 0.832227
0 1 0.811185
0 1 0.78883
0.0700694 1 0.759396
0.368414 1 0.719005
0.675914 1 0.675914
0.931533 1 0.648051
1 1 0.626917
1 1 1
0 1 0.753307
0 1 0.731243
0 1 0.70808
0 1 0.677119
0.286259 1 0.639368
0.596033 1 0.596033
0.862516 1 0.564996
1 1 0.540978
1 1 0.519677
0 0 1
0.0364691 0 1
0.291112 0 1
0.500923 0 1
0.531136 0 0.874632
0.662638 0 0.809018
0.810193 0 0.810193
0.949477 0 0.816419
1 0 0.826185
0 0 1
0 0 1
0.213596 0 1
0.504952 0 1
0.595163 0 0.963546
0.698848 0.0213474 0.842451
0.852659 0.0357824 0.852659
1 0.0553445 0.868879
1 0.0764935 0.8878
0 0.180743 1
0 0.164218 1
0.14963 0.14963 1
0.463935 0.121691 1
0.694133 0.144274 1
0.760098 0.216785 0.900633
0.913924 0.23856 0.913924
1 0.260853 0.930953
1 0.283146 0.949203
0 0.418189 1
0 0.410727 1
0.0723735 0.403494 1
0.38175 0.38175 1
0.716274 0.35494 1
0.807263 0.428702 0.952377
0.946578 0.456367 0.946593
1 0.477882 0.962219
1 0.497017 0.977417
0 0.682918 1
0 0.676722 1
0 0.669902 1
0.279316 0.651987 1
0.619348 0.619348 1
0.867338 0.621546 1
0.961761 0.664195 0.961761
1 0.677714 0.970993
1 0.688228 0.979614
0 0.933562 1
0 0.925566 1
0 0.914534 1
0.200931 0.893309 1
0.524239 0.855268 1
0.82153 0.82153 1
0.97261 0.838041 0.97261
1 0.845243 0.97818
1 0.851469 0.984237
0 1 1
0 1 1
0 1 1
0.134768 1 1
0.443549 1 1
0.745022 1 1
0.99234 0.99234 0.99234
1 1 1
1 1 1
0 1 1
0 1 1
0 1 1
0.061677 1 1
0.358999 1 0.986709
0.665827 1 0.946868
0.921035 1 0.921019
1 1 0.901198
1 1 1
0 1 1
0 1 0.998077
0 1 0.977615
0 1 0.950835
0.276265 1 0.918502
0.584802 1 0.879606
0.851072 1 0.851072
1 1 0.829602
1 1 0.811032
0 0 1
0.0294347 0 1
0.284779 0 1
0.551431 0 1
0.627894 0 1
0.681132 0 0.967269
0.816159 0 0.950317
0.956573 0 0.956573
1 0 0.966354
0 0 1
0 0 1
0.206363 0 1
0.512642 0 1
0.69926 0 1
0.735042 0.013138 1
0.861952 0.0413977 0.995453
1 0.0617533 1
1 0.0834363 1
0 0.174975 1
0 0.159503 1
0.14612 0.146136 1
0.460716 0.119478 1
0.757824 0.110826 1
0.823896 0.198108 1
0.923796 0.245441 1
1 0.267781 1
1 0.29041 1
0 0.415702 1
0 0.408743 1
0.071519 0.401556 1
0.379934 0.37995 1
0.72015 0.34995 1
0.904723 0.388968 1
0.957687 0.462486 1
1 0.484108 1
1 0.5028 1
0 0.680934 1
0 0.674861 1
0 0.667887 1
0.277165 0.649805 1
0.6168 0.6168 1
0.908293 0.595605 1
0.984054 0.661433 1
1 0.681163 1
1 0.691478 1
0 0.931151 1
0 0.922377 1
0 0.91046 1
0.195666 0.888502 1
0.518074 0.850278 1
0.815778 0.815778 1
1 0.81268 1
1 0.847303 1
1 0.854063 1
0 1 1
0 1 1
0 1 1
0.127703 1 1
0.435721 1 1
0.738094 1 1
0.985168 0.985168 1
1 1 1
1 1 1
0 1 1
0 1 1
0 1 1
0.0546426 1 1
0.35079 1 1
0.658061 1 1
0.913909 1 1
1 1 1
1 1 1
0 1 1
0 1 1
0 1 1
0 1 1
0.268147 1 1
0.57612 1 1
0.842847 1 1
1 1 1
1 1 1
0 0 1
0.0223697 0 1
0.27686 0 1
0.569345 0 1
0.726604 0 1
0.745876 0 1
0.825925 0 1
0.963684 0 1
1 0 1
0 0 1
0 0 1
0.199329 0 1
0.509987 0 1
0.764019 0 1
0.820096 0 1
0.882551 0.0421302 1
1 0.0682841 1
1 0.0901503 1
0 0.169497 1
0 0.155138 1
0.142977 0.142977 1
0.45771 0.117479 1
0.778103 0.0966354 1
0.923858 0.154391 1
0.959792 0.239918 1
1 0.274739 1
1 0.297307 1
0 0.413397 1
0 0.406775 1
0.0705272 0.399512 1
0.378103 0.378119 1
0.718898 0.34815 1
0.973327 0.352972 1
1 0.441825 1
1 0.490028 1
1 0.50779 1
0 0.679011 1
0 0.672969 1
0 0.665751 1
0.274784 0.647364 1
0.613672 0.613672 1
0.909667 0.588495 1
1 0.617044 1
1 0.683085 1
1 0.693828 1
0 0.928512 1
0 0.918898 1
0 0.906081 1
0.190127 0.883375 1
0.511254 0.844694 1
0.809689 0.809689 1
1 0.789014 1
1 0.841108 1
1 0.855848 1
0 1 1
0 1 1
0 1 1
0.120653 1 1
0.427558 1 1
0.731197 1 1
0.978973 0.978973 1
1 0.975311 1
1 1 1
0 1 1
0 1 1
0 1 1
0.0476692 1 1
0.342489 1 1
0.650614 1 1
0.907698 1 1
1 1 1
1 1 1
0 1 1
0 1 1
0 1 1
0 1 1
0.260075 1 1
0.567788 1 1
0.835752 1 1
1 1 1
1 1 1
