public/sampleLut/6.cube
TITLE "Generated by Resolve"
LUT_3D_SIZE 5
0 0 0
0.116533 0 0
0.464118 0 0
0.797665 0 0
1 0 0
0 0.234379 0
0.192584 0.192584 0
0.681514 0.317311 0.0333562
1 0.40267 0.105684
1 0.474571 0.168322
0 0.708431 0
0.00616464 0.696574 0
0.64918 0.64918 0
1 0.835828 0.058381
1 1 0.440848
0 1 0
0 1 0
0.508629 1 0
1 1 0
1 1 0
0 1 0
0 1 0
0.339239 1 0
0.90837 1 0
1 1 0
0 0 0.397925
0.136156 0 0.136156
0.479484 0 0.126604
0.801465 0 0.126757
1 0 0.142275
0 0.220386 0.220386
0.181231 0.181231 0.181231
0.579324 0.216205 0.216205
0.934539 0.27013 0.270146
1 0.328084 0.328084
0 0.705364 0.0124361
0.0034638 0.692531 0.0034638
0.645609 0.645609 0
1 1 0.694896
1 1 0.780575
0 1 0
0 1 0
0.494057 1 0
1 1 0
1 1 0.474083
0 1 0
0 1 0
0.324086 1 0
0.895659 1 0
1 1 0
0 0 1
0.260273 0 0.864652
0.484215 0 0.484215
0.80209 0 0.482033
1 0 0.50135
0 0.195209 0.889525
0.159716 0.159716 0.857374
0.559792 0.194369 0.559792
0.897124 0.227176 0.590707
1 0.269917 0.634775
0 0.689616 0.689601
0 0.676555 0.676555
0.62707 0.62707 0.62707
1 0.724071 0.724071
1 0.781888 0.781888
0 1 0.583459
0 1 0.544396
0.466835 1 0.466835
1 1 0.400565
1 1 1
0 1 0.421088
0 1 0.371557
0.301076 1 0.30106
0.876493 1 0.229786
1 1 0.187991
0 0 1
0.291112 0 1
0.531136 0 0.874632
0.810193 0 0.810193
1 0 0.826185
0 0.180743 1
0.14963 0.14963 1
0.694133 0.144274 1
0.913924 0.23856 0.913924
1 0.283146 0.949203
0 0.682918 1
0 0.669902 1
0.619348 0.619348 1
0.961761 0.664195 0.961761
1 0.688228 0.979614
0 1 1
0 1 1
0.443549 1 1
0.99234 0.99234 0.99234
1 1 1
0 1 1
0 1 0.977615
0.276265 1 0.918502
0.851072 1 0.851072
1 1 0.811032
0 0 1
0.27686 0 1
0.726604 0 1
0.825925 0 1
1 0 1
0 0.169497 1
0.142977 0.142977 1
0.778103 0.0966354 1
0.959792 0.239918 1
1 0.297307 1
0 0.679011 1
0 0.665751 1
0.613672 0.613672 1
1 0.617044 1
1 0.693828 1
0 1 1
0 1 1
0.427558 1 1
0.978973 0.978973 1
1 1 1
0 1 1
0 1 1
0.260075 1 1
0.835752 1 1
1 1 1
