public/sampleLut/7.cube
TITLE "Generated by Resolve"
LUT_3D_SIZE 9
0.0386969 0.0386969 0.0386969
0.0388342 0.0386969 0.0387579
0.0990311 0.044831 0.0508583
0.271138 0.0489662 0.0653391
0.479149 0.0452735 0.061799
0.66212 0.0389258 0.0454414
0.794781 0.0341192 0.0394903
0.794781 0.0341192 0.0394903
0.794781 0.0341192 0.0394903
0.0386969 0.0386969 0.0386969
0.0386969 0.0386969 0.0386969
0.093843 0.0494392 0.0521553
0.226993 0.0483101 0.0645457
0.433219 0.0466468 0.0652781
0.623896 0.040238 0.0514382
0.793927 0.0341497 0.0395209
0.794781 0.0341192 0.0394903
0.794781 0.0341192 0.0394903
0.0547036 0.108659 0.0694591
0.0557717 0.103288 0.0692912
0.11783 0.114946 0.0706493
0.254215 0.0759594 0.0735637
0.384268 0.047837 0.0672465
0.582528 0.0416571 0.0516518
0.752514 0.0354162 0.0404822
0.791028 0.0341955 0.0395361
0.79202 0.0341955 0.0395514
0.0328222 0.28835 0.0440528
0.0337835 0.273655 0.0478065
0.0346075 0.264607 0.0509041
0.282765 0.260761 0.0219577
0.4607 0.214252 0.0676738
0.597162 0.123781 0.0509651
0.723049 0.0486152 0.0384222
0.808499 0.0537728 0.0414282
0.803372 0.0488746 0.0400244
0.0486 0.483574 0.0488441
0.0469825 0.467735 0.0482948
0.0460365 0.458152 0.0445716
0.219608 0.456367 0.0498817
0.42533 0.420325 0.0169375
0.607217 0.394003 0.0330053
0.71751 0.351064 0.0922866
0.784161 0.36495 0.108354
0.77937 0.356222 0.110018
0.0635386 0.631189 0.0615244
0.0624247 0.622568 0.0604257
0.0616617 0.614282 0.0596933
0.061677 0.601831 0.0589914
0.441245 0.604456 0.078172
0.544961 0.547723 0.0245518
0.659556 0.543359 0.0316014
0.766125 0.560723 0.0558328
0.76733 0.551888 0.051545
0.0827344 0.737377 0.0862135
0.0793622 0.728267 0.0776379
0.0776684 0.721645 0.0788891
0.0742504 0.708614 0.0719921
0.423011 0.708995 0.122591
0.60061 0.698283 0.163668
0.650034 0.66569 0.103868
0.712337 0.647898 0.0743725
0.713298 0.643259 0.070634
0.138598 0.791943 0.318853
0.138598 0.791943 0.318853
0.138598 0.791943 0.318853
0.264027 0.791089 0.355245
0.525719 0.785336 0.455268
0.666346 0.78732 0.541543
0.757549 0.800397 0.605371
0.781018 0.783505 0.57911
0.783352 0.779873 0.572549
0.138598 0.791943 0.318853
0.138598 0.791943 0.318853
0.138598 0.791943 0.318853
0.183093 0.793713 0.334051
0.493385 0.783047 0.436576
0.646464 0.78587 0.528374
0.745785 0.797757 0.595346
0.788312 0.796338 0.607431
0.783352 0.779873 0.572549
0.0364385 0.0369116 0.0374151
0.0386969 0.0386969 0.0386969
0.0969406 0.0447395 0.0505226
0.265644 0.0489052 0.064744
0.474723 0.0454108 0.0622416
0.657771 0.0390478 0.0465553
0.794781 0.0341192 0.0394903
0.794781 0.0341192 0.0394903
0.794781 0.0341192 0.0394903
0.0386969 0.0386969 0.0386969
0.0386969 0.0386969 0.0386969
0.0924239 0.0498054 0.0522316
0.221546 0.0481575 0.0644388
0.426291 0.0467994 0.0652781
0.618235 0.0404364 0.052018
0.789105 0.0342565 0.0395819
0.794781 0.0341192 0.0394903
0.794781 0.0341192 0.0394903
0.0550546 0.106279 0.0693523
0.0560616 0.100893 0.0689708
0.113024 0.110979 0.0703288
0.246113 0.0751659 0.0729686
0.377569 0.0479744 0.0677043
0.578103 0.0418402 0.0529335
0.747768 0.035584 0.0406043
0.791821 0.0341955 0.0395361
0.792828 0.0341802 0.0395361
0.0333867 0.281819 0.0457923
0.0343023 0.26804 0.0494392
0.0352941 0.257679 0.0548104
0.27628 0.254612 0.0232853
0.452293 0.208103 0.0690318
0.593805 0.113924 0.0496071
0.702571 0.0371252 0.041825
0.804807 0.0501717 0.0403296
0.799451 0.0453498 0.0392309
0.0479896 0.476783 0.0488899
0.0463264 0.461311 0.0470283
0.0452125 0.451637 0.0437629
0.211765 0.452537 0.0494392
0.419348 0.414557 0.0172274
0.60502 0.386603 0.0336309
0.71133 0.34403 0.0933242
0.780835 0.35874 0.109606
0.775692 0.349752 0.11104
0.0630198 0.627619 0.0610208
0.0622416 0.619135 0.0602579
0.061387 0.610117 0.0594339
0.0602884 0.598215 0.0583047
0.433906 0.599649 0.0786908
0.540993 0.54342 0.0238804
0.657694 0.538689 0.0320592
0.766934 0.554528 0.0527352
0.769436 0.545205 0.0496834
0.0811322 0.73344 0.0808881
0.0785992 0.725093 0.078172
0.0764935 0.717678 0.0788586
0.0735485 0.704417 0.0712902
0.410712 0.705074 0.116258
0.596323 0.695857 0.159747
0.645518 0.660883 0.0973373
0.712856 0.644587 0.0714885
0.714244 0.640314 0.0687572
0.138598 0.791943 0.318853
0.138598 0.791943 0.318853
0.138598 0.791943 0.318853
0.250324 0.791852 0.351949
0.521828 0.786038 0.455482
0.662669 0.787015 0.539117
0.754604 0.799756 0.603037
0.781735 0.785626 0.583703
0.779614 0.775601 0.555169
0.138598 0.791943 0.318853
0.138598 0.791943 0.318853
0.138598 0.791943 0.318853
0.165225 0.794125 0.329198
0.486717 0.782727 0.432609
0.641978 0.785641 0.525246
0.743297 0.797436 0.593683
0.790387 0.799207 0.613764
0.783352 0.779873 0.572549
0.038407 0.0517891 0.0803388
0.03682 0.0485542 0.073228
0.123003 0.0756695 0.114061
0.258427 0.0492256 0.121828
0.482292 0.0446479 0.116808
0.658228 0.0383154 0.0978408
0.792523 0.0340581 0.0733043
0.793103 0.0340734 0.0699931
0.793683 0.0340887 0.0667124
0.034699 0.0444038 0.0636912
0.0344854 0.0440833 0.0620737
0.100099 0.0688487 0.0950179
0.233616 0.051133 0.107546
0.428183 0.0465553 0.104402
0.61915 0.0398718 0.0892042
0.78558 0.0345006 0.0579385
0.795911 0.0342565 0.0532082
0.794446 0.0344244 0.0495613
0.0492561 0.111009 0.109178
0.0497597 0.101732 0.100877
0.108202 0.112886 0.107958
0.252842 0.0850233 0.103639
0.379187 0.0478676 0.092134
0.578531 0.0415198 0.0774395
0.73962 0.0361486 0.0449989
0.791516 0.0341955 0.0395361
0.792767 0.0341802 0.0395361
0.0331731 0.277165 0.108293
0.0343328 0.261662 0.106676
0.0355383 0.255421 0.0948806
0.269963 0.255161 0.071809
0.434058 0.204959 0.0957046
0.592691 0.111467 0.0551461
0.705104 0.0370489 0.0417639
0.794903 0.0405127 0.0399481
0.791974 0.0387884 0.0387884
0.0467842 0.465797 0.0474098
0.0450446 0.449607 0.0441444
0.0440681 0.439658 0.0426642
0.19559 0.444617 0.0486
0.41767 0.40676 0.0177157
0.604562 0.379705 0.0372168
0.701701 0.334936 0.0936904
0.778531 0.35668 0.110643
0.772183 0.346502 0.111345
0.0620584 0.617426 0.06009
0.0605478 0.603357 0.0586252
0.0598611 0.595819 0.0579538
0.0602731 0.599634 0.0607156
0.431006 0.593927 0.0748913
0.540902 0.54432 0.0246433
0.654612 0.536202 0.0316167
0.767712 0.548684 0.0503853
0.772946 0.538506 0.0486763
0.0800031 0.730037 0.0776989
0.0794995 0.722225 0.0762646
0.0788891 0.714183 0.076051
0.0775311 0.703105 0.0719615
0.400488 0.70399 0.113558
0.592004 0.693324 0.155734
0.64242 0.65771 0.0936751
0.711803 0.641154 0.0682536
0.715358 0.637644 0.0673686
0.14287 0.794629 0.327703
0.140795 0.793317 0.323308
0.138811 0.79205 0.31928
0.236789 0.792401 0.348455
0.515846 0.785428 0.451408
0.659205 0.78674 0.536767
0.752651 0.799329 0.601343
0.781659 0.786618 0.584787
0.774258 0.769223 0.527398
0.138888 0.792096 0.319417
0.138598 0.791943 0.318853
0.138598 0.791943 0.318853
0.156283 0.793988 0.327489
0.479774 0.783291 0.428672
0.637797 0.785504 0.522408
0.740597 0.79733 0.592309
0.791669 0.801038 0.617777
0.783352 0.779873 0.572549
0.0491188 0.0916152 0.278004
0.0489357 0.0896162 0.26215
0.0491035 0.0940108 0.260746
0.339406 0.0970321 0.339971
0.55491 0.0400854 0.324224
0.669551 0.0360571 0.321019
0.787533 0.0333562 0.24744
0.788098 0.0334173 0.235019
0.7888 0.0334325 0.222507
0.0485695 0.0856336 0.23299
0.0483101 0.083711 0.220462
0.0482338 0.0840009 0.210819
0.286839 0.0954757 0.282567
0.508934 0.0422065 0.275593
0.629953 0.0379187 0.269322
0.777783 0.0339361 0.181949
0.792737 0.0336919 0.168933
0.792065 0.0337224 0.162631
0.0469215 0.140719 0.279316
0.0480507 0.130892 0.256046
0.0488441 0.12401 0.238117
0.277516 0.139757 0.267033
0.471489 0.0623026 0.245975
0.59707 0.0395972 0.210636
0.751629 0.0348363 0.152819
0.804913 0.0335546 0.142412
0.803464 0.0335699 0.13817
0.0323186 0.282841 0.309163
0.0327611 0.265705 0.287343
0.0339208 0.260105 0.27158
0.262867 0.272145 0.263798
0.4757 0.218265 0.220493
0.619547 0.104356 0.173068
0.710903 0.0362554 0.131151
0.794278 0.0354009 0.106508
0.793256 0.0362402 0.102556
0.0484932 0.457969 0.29218
0.0467994 0.442908 0.274647
0.0461585 0.437491 0.261189
0.103868 0.443076 0.236652
0.434302 0.43328 0.19826
0.601373 0.369574 0.169772
0.679927 0.322347 0.14052
0.763363 0.334264 0.116091
0.757946 0.323949 0.115511
0.0639811 0.615213 0.282261
0.0628519 0.605646 0.262852
0.0616922 0.595712 0.244511
0.0614481 0.597894 0.205402
0.401221 0.602502 0.192264
0.540902 0.547204 0.100298
0.653101 0.534447 0.0314794
0.774487 0.543084 0.0498207
0.780224 0.5337 0.0487221
0.0884871 0.73135 0.290486
0.0834974 0.721874 0.267308
0.0797894 0.71339 0.241245
0.0794842 0.710201 0.232303
0.378592 0.705837 0.24892
0.589014 0.700252 0.268223
0.643717 0.659251 0.136904
0.712139 0.642435 0.0711376
0.716701 0.638514 0.0690013
0.149569 0.791272 0.415595
0.150271 0.792615 0.407691
0.150912 0.793896 0.400015
0.161944 0.795483 0.402304
0.50631 0.785245 0.494865
0.661433 0.789761 0.576928
0.75584 0.804944 0.632624
0.782834 0.788281 0.602777
0.772366 0.766003 0.53669
0.150927 0.793927 0.399802
0.148486 0.79292 0.391165
0.146059 0.791684 0.38294
0.154253 0.796841 0.386343
0.466331 0.784955 0.464134
0.639414 0.788083 0.55494
0.742382 0.800397 0.618708
0.800855 0.810437 0.649836
0.787213 0.784924 0.596582
0.0453498 0.131655 0.513817
0.0459144 0.127428 0.496223
0.0461433 0.126238 0.487343
0.220691 0.146166 0.563088
0.558129 0.143435 0.573419
0.73753 0.213077 0.555779
0.808148 0.236805 0.546807
0.807065 0.227207 0.538705
0.806088 0.217731 0.530831
0.047013 0.120378 0.463996
0.0471199 0.120104 0.455695
0.0474861 0.11754 0.443778
0.107958 0.134966 0.482307
0.51426 0.113085 0.530129
0.711559 0.151553 0.509346
0.790753 0.160769 0.498222
0.79884 0.153857 0.494774
0.796262 0.138781 0.485527
0.0399786 0.171176 0.513726
0.0415351 0.162173 0.492805
0.0427558 0.155016 0.476799
0.0725109 0.161593 0.474968
0.479576 0.156558 0.500984
0.691234 0.165972 0.481865
0.767727 0.14696 0.460975
0.807645 0.106676 0.453513
0.807202 0.0692912 0.436759
0.0365454 0.313588 0.541619
0.0345312 0.296269 0.525643
0.0333562 0.284062 0.514229
0.0568856 0.28748 0.501091
0.456001 0.305348 0.480079
0.652049 0.291279 0.45687
0.744625 0.156054 0.383703
0.807157 0.0328832 0.304799
0.804135 0.0329137 0.290288
0.052903 0.478874 0.522545
0.051667 0.468681 0.512627
0.0504463 0.457496 0.497612
0.0501869 0.449241 0.4869
0.421241 0.463554 0.4757
0.615793 0.400366 0.391638
0.742657 0.297902 0.291493
0.833005 0.265232 0.245228
0.831495 0.253956 0.236683
0.0675669 0.625162 0.504524
0.0656748 0.610697 0.485435
0.0643168 0.599298 0.466697
0.0636912 0.596384 0.453132
0.330159 0.60238 0.441138
0.577829 0.589166 0.40705
0.688502 0.537316 0.277409
0.813428 0.507958 0.215946
0.81474 0.499718 0.208865
0.10164 0.735744 0.4795
0.094255 0.725231 0.465202
0.0886244 0.715862 0.450019
0.0862593 0.710872 0.440543
0.275303 0.704128 0.436622
0.569039 0.703563 0.45568
0.664179 0.67686 0.391562
0.738369 0.658808 0.278065
0.749371 0.659236 0.266423
0.169955 0.795651 0.52546
0.167559 0.794461 0.520348
0.165713 0.793439 0.515969
0.167147 0.793759 0.524376
0.437934 0.787823 0.561685
0.64831 0.791379 0.636179
0.75288 0.808408 0.682933
0.792752 0.797482 0.661891
0.77641 0.770596 0.59794
0.165591 0.793347 0.515587
0.165118 0.793286 0.512734
0.164752 0.793301 0.509941
0.165087 0.794003 0.50573
0.394644 0.786465 0.53434
0.625895 0.788647 0.612726
0.740826 0.805707 0.668284
0.815442 0.823789 0.710307
0.795285 0.792905 0.645731
0.0401007 0.15494 0.665965
0.0403601 0.154345 0.658656
0.0392157 0.161486 0.66746
0.0345159 0.210422 0.699611
0.497093 0.249805 0.717494
0.691707 0.328618 0.71043
0.813046 0.434852 0.704341
0.816159 0.433082 0.699763
0.819013 0.431403 0.695018
0.041001 0.151308 0.640803
0.0411536 0.150866 0.633555
0.0405432 0.155642 0.638651
0.0354772 0.192203 0.668116
0.439399 0.215076 0.692546
0.666499 0.277913 0.68275
0.80856 0.399985 0.676356
0.828901 0.422126 0.676173
0.829572 0.416464 0.671092
0.0350652 0.195514 0.676326
0.0362249 0.18677 0.660456
0.0368353 0.181521 0.648173
0.0358129 0.191318 0.644373
0.394034 0.232258 0.673228
0.643458 0.279957 0.664683
0.791821 0.379721 0.654078
0.82797 0.40087 0.64892
0.827741 0.392737 0.643732
0.0399023 0.331136 0.694026
0.0378424 0.314092 0.681895
0.0370336 0.305776 0.677653
0.0370184 0.306554 0.663874
0.366354 0.344701 0.661768
0.613382 0.374151 0.64683
0.767025 0.431815 0.638865
0.818112 0.422553 0.628946
0.81883 0.409094 0.62153
0.0550393 0.485664 0.677607
0.0534829 0.470634 0.668193
0.0521706 0.459464 0.660075
0.0529641 0.456535 0.653758
0.295689 0.475074 0.650065
0.584085 0.495888 0.637476
0.729686 0.492027 0.614893
0.807065 0.440742 0.593149
0.809644 0.428962 0.586069
0.069337 0.622507 0.661341
0.0679484 0.613382 0.651133
0.0669413 0.605722 0.644602
0.0674754 0.602823 0.636713
0.11194 0.59556 0.625254
0.547997 0.608179 0.623896
0.695796 0.543938 0.549432
0.833707 0.474693 0.458259
0.832563 0.462882 0.442069
0.118288 0.740139 0.641581
0.10898 0.730327 0.631388
0.101671 0.721553 0.620645
0.0971084 0.715846 0.610437
0.0937667 0.707912 0.594034
0.518563 0.70489 0.614816
0.68394 0.704982 0.615702
0.773739 0.680201 0.526284
0.787274 0.670283 0.507057
0.200595 0.802228 0.6262
0.197589 0.802014 0.615702
0.195804 0.802152 0.606577
0.198611 0.804288 0.597421
0.194202 0.80087 0.60087
0.611627 0.791897 0.688807
0.747204 0.811429 0.732372
0.823804 0.828946 0.757488
0.798871 0.792813 0.696406
0.195727 0.802167 0.606165
0.193591 0.802319 0.595178
0.19173 0.802563 0.583398
0.192386 0.80354 0.577707
0.185962 0.7991 0.589288
0.582544 0.789609 0.669139
0.737682 0.811673 0.725689
0.825971 0.838071 0.767971
0.817884 0.816281 0.729152
0.0395361 0.152682 0.731746
0.0395361 0.152682 0.731746
0.0374456 0.166949 0.754559
0.0332189 0.252689 0.811719
0.46978 0.383169 0.828183
0.668772 0.495583 0.830106
0.78233 0.574395 0.812421
0.78233 0.574395 0.812421
0.78233 0.574395 0.812421
0.0395361 0.152682 0.731746
0.0395361 0.152682 0.731746
0.0377966 0.164477 0.751141
0.0326238 0.213916 0.798077
0.39411 0.368566 0.829114
0.633005 0.469657 0.825925
0.766842 0.546532 0.807538
0.787305 0.551308 0.804837
0.789746 0.541314 0.801297
0.0356298 0.179568 0.772625
0.0360723 0.176867 0.766537
0.0353246 0.182696 0.768109
0.032578 0.215396 0.78558
0.29572 0.339422 0.804852
0.598749 0.416983 0.80531
0.747494 0.502113 0.788083
0.803372 0.529046 0.785199
0.804318 0.518776 0.779538
0.0344701 0.26775 0.805463
0.0343481 0.267704 0.797482
0.0344854 0.26978 0.791272
0.0365759 0.289738 0.783536
0.136599 0.375082 0.779782
0.568551 0.460731 0.78677
0.723857 0.519951 0.769207
0.799268 0.548791 0.764752
0.799558 0.541817 0.757168
0.0500191 0.424125 0.800122
0.0496071 0.421347 0.790524
0.0485695 0.411124 0.780209
0.0485847 0.409949 0.775982
0.0567636 0.451408 0.771771
0.54081 0.544106 0.768948
0.696452 0.571771 0.748226
0.786938 0.601709 0.738903
0.788678 0.59617 0.733074
0.0688029 0.605432 0.791852
0.067277 0.594293 0.780331
0.0662089 0.587259 0.772076
0.0660258 0.58584 0.765866
0.0657969 0.584451 0.760082
0.465492 0.609766 0.754467
0.672923 0.640909 0.734295
0.782589 0.660578 0.727794
0.782284 0.650202 0.722362
0.118532 0.728222 0.762036
0.107652 0.716793 0.750118
0.101274 0.709026 0.739986
0.10071 0.708263 0.739254
0.0963607 0.701946 0.732799
0.35433 0.696696 0.722179
0.658152 0.71133 0.722011
0.771481 0.660395 0.671717
0.788632 0.646891 0.65745
0.240772 0.802289 0.758831
0.234745 0.801587 0.749279
0.229267 0.800885 0.741009
0.228519 0.801465 0.73283
0.230274 0.803296 0.719707
0.214374 0.798886 0.701122
0.707469 0.801907 0.760006
0.818906 0.830671 0.794873
0.823957 0.820951 0.781064
0.229038 0.800855 0.740627
0.224216 0.800137 0.731929
0.223423 0.800809 0.722805
0.224201 0.802182 0.711589
0.215656 0.800839 0.697246
0.212222 0.800855 0.684916
0.710369 0.811978 0.76408
0.83032 0.849699 0.813733
0.854978 0.855451 0.818555
0.0395361 0.152682 0.731746
0.0395361 0.152682 0.731746
0.0374456 0.166949 0.754803
0.0329747 0.249409 0.810819
0.46569 0.382071 0.829206
0.665705 0.493339 0.830198
0.78233 0.574395 0.812421
0.78233 0.574395 0.812421
0.78233 0.574395 0.812421
0.0395361 0.152682 0.731746
0.0395361 0.152682 0.731746
0.0378729 0.16408 0.75021
0.0327611 0.211398 0.796902
0.385443 0.366537 0.82884
0.629831 0.470665 0.827649
0.760067 0.556023 0.809461
0.78233 0.574395 0.812421
0.78233 0.574395 0.812421
0.0357366 0.178576 0.77145
0.0362554 0.175189 0.766323
0.0356909 0.178927 0.771862
0.0327306 0.21146 0.799466
0.293065 0.37055 0.83093
0.590356 0.46334 0.834546
0.731106 0.557183 0.819333
0.781735 0.58616 0.81384
0.781796 0.585092 0.813245
0.0331884 0.251148 0.819303
0.0326543 0.245396 0.818631
0.0327153 0.242176 0.818082
0.0343175 0.264424 0.821286
0.0728466 0.384894 0.82649
0.556848 0.516152 0.837812
0.70724 0.586923 0.817166
0.780011 0.619165 0.80972
0.781292 0.619471 0.810269
0.0441596 0.361334 0.827543
0.0423896 0.344793 0.825833
0.041474 0.334508 0.828214
0.0426947 0.339849 0.829358
0.0490883 0.410529 0.831388
0.529335 0.584283 0.832639
0.686854 0.632013 0.814481
0.776211 0.668406 0.803525
0.776242 0.665248 0.80354
0.064622 0.564462 0.847349
0.0628519 0.548898 0.84564
0.0616922 0.534585 0.844526
0.059678 0.517235 0.841413
0.0573892 0.494072 0.844907
0.200504 0.57467 0.838651
0.674342 0.684916 0.809873
0.781537 0.724849 0.802014
0.780529 0.722515 0.801297
0.123262 0.725155 0.840314
0.1131 0.714076 0.842878
0.105318 0.704234 0.845899
0.09897 0.694804 0.847623
0.0931563 0.684703 0.849195
0.090425 0.675837 0.849195
0.608301 0.717739 0.813321
0.794751 0.783047 0.819669
0.806531 0.786023 0.822522
0.242039 0.796002 0.82446
0.242039 0.796002 0.82446
0.242039 0.796002 0.82446
0.236622 0.794507 0.825086
0.249271 0.798108 0.823301
0.262501 0.801328 0.822553
0.579293 0.794186 0.806882
0.840482 0.854231 0.858412
0.853803 0.855558 0.858778
0.242039 0.796002 0.82446
0.242039 0.796002 0.82446
0.241489 0.795926 0.824002
0.230671 0.793454 0.818433
0.238773 0.796262 0.813138
0.236912 0.796597 0.804837
0.554696 0.796979 0.801053
0.830152 0.855924 0.854353
0.87097 0.87451 0.871946
0.0395361 0.152682 0.731746
0.0395361 0.152682 0.731746
0.0374456 0.166949 0.755077
0.032639 0.246326 0.809689
0.461357 0.380835 0.82977
0.662882 0.491493 0.830381
0.78233 0.574395 0.812421
0.78233 0.574395 0.812421
0.78233 0.574395 0.812421
0.0395361 0.152682 0.731746
0.0395361 0.152682 0.731746
0.0378729 0.163729 0.749249
0.0330358 0.209766 0.79646
0.377005 0.364538 0.828779
0.626673 0.468589 0.828565
0.758022 0.555306 0.810224
0.78233 0.574395 0.812421
0.78233 0.574395 0.812421
0.0359197 0.177676 0.770489
0.0363622 0.174426 0.765026
0.035874 0.177996 0.770901
0.0330205 0.21001 0.798383
0.281239 0.368612 0.830915
0.586908 0.460487 0.834714
0.728817 0.555032 0.819669
0.781765 0.585687 0.813565
0.781811 0.584619 0.812955
0.0330663 0.24947 0.819394
0.032578 0.244129 0.818341
0.032639 0.240467 0.817624
0.0340887 0.26154 0.821073
0.063508 0.37908 0.825864
0.553079 0.513283 0.838651
0.704616 0.584695 0.817166
0.780636 0.619287 0.809918
0.781888 0.619593 0.810544
0.0436866 0.356786 0.8271
0.0420386 0.341268 0.825483
0.0409094 0.33048 0.827665
0.0423896 0.337499 0.828214
0.0485695 0.406897 0.831312
0.52604 0.581308 0.832868
0.683986 0.629831 0.814908
0.776242 0.66714 0.803677
0.776318 0.66392 0.803494
0.0640879 0.560403 0.846845
0.0626841 0.545052 0.845487
0.0611124 0.530419 0.843961
0.0594186 0.513146 0.841245
0.0571908 0.489784 0.845853
0.191043 0.572183 0.838849
0.671351 0.682719 0.810681
0.781094 0.723827 0.801694
0.780087 0.721218 0.801007
0.120241 0.72221 0.840757
0.11107 0.711467 0.843809
0.103777 0.701671 0.846891
0.0972915 0.691875 0.84863
0.0913863 0.681224 0.849088
0.0891432 0.671839 0.850019
0.602167 0.714916 0.814969
0.79266 0.781216 0.818998
0.806317 0.784665 0.82211
0.242039 0.796002 0.82446
0.242039 0.796002 0.82446
0.242039 0.796002 0.82446
0.235752 0.794247 0.825208
0.24831 0.797848 0.823392
0.254932 0.799466 0.823621
0.497551 0.789868 0.807965
0.844175 0.859007 0.863462
0.86276 0.866957 0.871702
0.242039 0.796002 0.82446
0.242039 0.796002 0.82446
0.242039 0.796002 0.82446
0.234958 0.794003 0.82533
0.241337 0.796063 0.82211
0.256077 0.799817 0.822538
0.260578 0.80116 0.819715
0.839628 0.863584 0.867414
0.880522 0.885679 0.887556
