public/sampleLut/7.cube
TITLE "Generated by Resolve"
LUT_3D_SIZE 33
0.0386969 0.0386969 0.0386969
0.0386969 0.0386969 0.0386969
0.0386969 0.0386969 0.0386969
0.0386969 0.0386969 0.0386969
0.0388342 0.0386969 0.0387579
0.0511482 0.0438697 0.0440833
0.0638132 0.0459144 0.0466468
0.0869154 0.049424 0.0518044
0.0990311 0.044831 0.0508583
0.115999 0.0412451 0.0514534
0.160922 0.0453803 0.0582284
0.214466 0.0479896 0.0643015
0.271138 0.0489662 0.0653391
0.324239 0.0488594 0.0654765
0.376333 0.0479896 0.066865
0.427955 0.0467689 0.0652781
0.479149 0.0452735 0.061799
0.527718 0.0436713 0.0588235
0.575708 0.0419013 0.0574197
0.619043 0.0404212 0.0519112
0.66212 0.0389258 0.0454414
0.707637 0.0369421 0.0416876
0.74725 0.0355993 0.0406195
0.791608 0.0341955 0.0395361
0.794781 0.0341192 0.0394903
0.794781 0.0341192 0.0394903
0.794781 0.0341192 0.0394903
0.794781 0.0341192 0.0394903
0.794781 0.0341192 0.0394903
0.794781 0.0341192 0.0394903
0.794781 0.0341192 0.0394903
0.794781 0.0341192 0.0394903
0.794781 0.0341192 0.0394903
0.0386969 0.0386969 0.0386969
0.0386969 0.0386969 0.0386969
0.0386969 0.0386969 0.0386969
0.0386969 0.0386969 0.0386969
0.0386969 0.0386969 0.0386969
0.0482338 0.0422675 0.0429847
0.0583352 0.0435187 0.043946
0.0829175 0.049134 0.0514076
0.0954604 0.0446937 0.0502937
0.112764 0.0416876 0.0513008
0.153643 0.044892 0.0573434
0.206729 0.0477913 0.0641184
0.262425 0.0488746 0.0646983
0.317449 0.0489204 0.0662852
0.368978 0.0481117 0.0673075
0.419028 0.0469825 0.0652628
0.471092 0.0454871 0.0625315
0.518074 0.0439612 0.0589609
0.567758 0.0421912 0.0579385
0.610193 0.0406958 0.0529488
0.654444 0.0391546 0.0471656
0.698299 0.0372473 0.0419165
0.737865 0.0358587 0.0408179
0.78349 0.0344244 0.039704
0.794781 0.0341192 0.0394903
0.794781 0.0341192 0.0394903
0.794781 0.0341192 0.0394903
0.794781 0.0341192 0.0394903
0.794781 0.0341192 0.0394903
0.794781 0.0341192 0.0394903
0.794781 0.0341192 0.0394903
0.794781 0.0341192 0.0394903
0.794781 0.0341192 0.0394903
0.0386969 0.0386969 0.0386969
0.0386969 0.0386969 0.0386969
0.0386969 0.0386969 0.0386969
0.0386969 0.0386969 0.0386969
0.0386969 0.0386969 0.0386969
0.0450904 0.0404364 0.0415198
0.0533913 0.0413062 0.0414435
0.0791943 0.0488289 0.0509804
0.0949111 0.0459754 0.0507668
0.111437 0.0426795 0.0515755
0.147723 0.0444648 0.0565805
0.199924 0.0475166 0.063859
0.253483 0.0487373 0.064683
0.309102 0.0489357 0.0672007
0.358694 0.0483864 0.0667124
0.40734 0.0472419 0.0652476
0.460395 0.0457923 0.063447
0.507057 0.0442969 0.0591135
0.557748 0.0425269 0.0581216
0.600275 0.041001 0.0540932
0.645853 0.0394141 0.0483864
0.687907 0.037583 0.0421759
0.730175 0.0361028 0.041001
0.774609 0.0346532 0.0398718
0.794781 0.0341192 0.0394903
0.794781 0.0341192 0.0394903
0.794781 0.0341192 0.0394903
0.794781 0.0341192 0.0394903
0.794781 0.0341192 0.0394903
0.794781 0.0341192 0.0394903
0.794781 0.0341192 0.0394903
0.794781 0.0341192 0.0394903
0.794781 0.0341192 0.0394903
0.0386969 0.0386969 0.0386969
0.0386969 0.0386969 0.0386969
0.0386969 0.0386969 0.0386969
0.0386969 0.0386969 0.0386969
0.0386969 0.0386969 0.0386969
0.0421759 0.0387121 0.0401007
0.0516213 0.041001 0.0410773
0.0762646 0.0486152 0.0504311
0.0945907 0.0473335 0.0513619
0.109728 0.0439002 0.0518807
0.139223 0.0437018 0.055314
0.188708 0.0469825 0.0623331
0.241779 0.048661 0.0647746
0.298177 0.0489662 0.0679484
0.345434 0.0485695 0.0656901
0.395377 0.0476539 0.0657664
0.448493 0.0462348 0.0646067
0.495598 0.0446479 0.0599985
0.54609 0.0429236 0.0583352
0.590311 0.0412909 0.055375
0.636027 0.0396887 0.0497292
0.676799 0.0381323 0.042649
0.721675 0.036347 0.0411841
0.763882 0.0349279 0.0400854
0.794781 0.0341192 0.0394903
0.794781 0.0341192 0.0394903
0.794781 0.0341192 0.0394903
0.794781 0.0341192 0.0394903
0.794781 0.0341192 0.0394903
0.794781 0.0341192 0.0394903
0.794781 0.0341192 0.0394903
0.794781 0.0341192 0.0394903
0.794781 0.0341192 0.0394903
0.0386969 0.0386969 0.0386969
0.0386969 0.0386969 0.0386969
0.0386969 0.0386969 0.0386969
0.0386969 0.0386969 0.0386969
0.0386969 0.0386969 0.0386969
0.0409705 0.0387121 0.0396124
0.0519112 0.0425116 0.0425727
0.0720073 0.048249 0.0496223
0.093843 0.0494392 0.0521553
0.106294 0.0450599 0.0519112
0.128511 0.0426184 0.0535897
0.175357 0.0463417 0.0604257
0.226993 0.0483101 0.0645457
0.283726 0.0490425 0.0666056
0.329992 0.0487068 0.0647135
0.381582 0.0478981 0.0665446
0.433219 0.0466468 0.0652781
0.483177 0.0451667 0.0614328
0.532052 0.0435187 0.058732
0.578714 0.0416876 0.0568856
0.623896 0.040238 0.0514382
0.665492 0.0388495 0.0446174
0.711147 0.0368658 0.0416266
0.75053 0.0354925 0.0405432
0.793927 0.0341497 0.0395209
0.794781 0.0341192 0.0394903
0.794781 0.0341192 0.0394903
0.794781 0.0341192 0.0394903
0.794781 0.0341192 0.0394903
0.794781 0.0341192 0.0394903
0.794781 0.0341192 0.0394903
0.794781 0.0341192 0.0394903
0.794781 0.0341192 0.0394903
0.0446784 0.0502174 0.0483558
0.044358 0.0494545 0.0477607
0.0439612 0.0485695 0.047013
0.0434424 0.0475013 0.0461128
0.0428016 0.0461433 0.0450446
0.043473 0.0449836 0.0441444
0.0564279 0.0499733 0.0487373
0.0725414 0.0522774 0.0520485
0.0941939 0.0530098 0.0546273
0.105409 0.0468299 0.0530556
0.122301 0.0423438 0.0530404
0.164965 0.0456855 0.0590829
0.215976 0.0479744 0.064332
0.271138 0.0489662 0.0653391
0.319722 0.0489204 0.066041
0.369894 0.0480964 0.0672465
0.419303 0.0469825 0.0652781
0.471901 0.0454719 0.0624704
0.518898 0.043946 0.0589609
0.569024 0.0421454 0.057908
0.612451 0.0406195 0.0526894
0.655894 0.0391089 0.0469673
0.69955 0.0372015 0.0418708
0.738842 0.0358434 0.0408026
0.784024 0.0344091 0.0396887
0.794781 0.0341192 0.0394903
0.794781 0.0341192 0.0394903
0.794781 0.0341192 0.0394903
0.794781 0.0341192 0.0394903
0.794781 0.0341192 0.0394903
0.794781 0.0341192 0.0394903
0.794781 0.0341192 0.0394903
0.794781 0.0341192 0.0394903
0.049073 0.0602274 0.052369
0.0489509 0.0597696 0.0522316
0.0488289 0.0592966 0.052079
0.0486763 0.0587167 0.0518959
0.0484932 0.0580301 0.0516823
0.0484016 0.057496 0.0515145
0.0665599 0.0662394 0.0579385
0.0830701 0.0701457 0.0621195
0.101549 0.0674754 0.0621347
0.12987 0.0656596 0.063859
0.141192 0.0521401 0.0612802
0.163607 0.0460517 0.0605173
0.207935 0.0478523 0.06598
0.255894 0.0487984 0.0658274
0.309606 0.0489357 0.0681621
0.361318 0.0483558 0.0693828
0.410666 0.0471504 0.067277
0.461387 0.0457618 0.0640421
0.506615 0.0443122 0.0591135
0.557122 0.0425574 0.0581369
0.600931 0.0410315 0.0514534
0.646693 0.0393835 0.048249
0.688487 0.0375677 0.0421607
0.730434 0.0360876 0.0409857
0.771572 0.0347143 0.0399176
0.794781 0.0341192 0.0394903
0.794781 0.0341192 0.0394903
0.794781 0.0341192 0.0394903
0.794781 0.0341192 0.0394903
0.794781 0.0341192 0.0394903
0.794781 0.0341192 0.0394903
0.794781 0.0341192 0.0394903
0.794781 0.0341192 0.0394903
0.0571603 0.0870375 0.0659648
0.0571756 0.0859388 0.0656138
0.0571756 0.0847944 0.0652476
0.0572519 0.0835889 0.0649119
0.0568856 0.0815442 0.0639963
0.056199 0.0794232 0.0628519
0.0686656 0.0812848 0.0636606
0.0856184 0.0852522 0.0651408
0.118624 0.0919509 0.0736095
0.143755 0.0908064 0.0756085
0.170474 0.0791943 0.0696269
0.188479 0.0627451 0.0662547
0.203357 0.0495766 0.0632944
0.246372 0.0487373 0.0655375
0.295811 0.0489662 0.068574
0.350622 0.0484932 0.0693675
0.400275 0.0475319 0.0681621
0.450477 0.0460975 0.0651255
0.500816 0.0444953 0.0606241
0.54786 0.0428931 0.0559091
0.592874 0.0412909 0.0523842
0.637263 0.0397345 0.0473182
0.67866 0.0379492 0.0424811
0.720088 0.036408 0.0412299
0.761196 0.0350042 0.0401312
0.794781 0.0341192 0.0394903
0.794781 0.0341192 0.0394903
0.794781 0.0341192 0.0394903
0.794781 0.0341192 0.0394903
0.794781 0.0341192 0.0394903
0.794781 0.0341192 0.0394903
0.794781 0.0341192 0.0394903
0.794781 0.0341192 0.0394903
0.0547036 0.108659 0.0694591
0.0548562 0.107469 0.069398
0.0550546 0.106218 0.0693523
0.0554513 0.105043 0.0694438
0.0557717 0.103288 0.0692912
0.0559243 0.101915 0.0690776
0.0683146 0.10341 0.0702373
0.0899672 0.111513 0.0716869
0.11783 0.114946 0.0706493
0.16141 0.116594 0.0757305
0.185199 0.110231 0.0818952
0.226001 0.102693 0.0795758
0.254215 0.0759594 0.0735637
0.259236 0.0558938 0.0685435
0.284504 0.0499123 0.068574
0.328084 0.0487221 0.0639811
0.384268 0.047837 0.0672465
0.438468 0.0465248 0.0654459
0.489998 0.0449531 0.0609598
0.534371 0.0434882 0.0537881
0.582528 0.0416571 0.0516518
0.628183 0.0401007 0.0467689
0.669581 0.038468 0.0429236
0.711711 0.0368353 0.0415961
0.752514 0.0354162 0.0404822
0.790433 0.0342107 0.0395514
0.790478 0.0342107 0.0395514
0.790753 0.0341955 0.0395514
0.791028 0.0341955 0.0395361
0.791318 0.0341802 0.0395361
0.791547 0.0341955 0.0395361
0.791775 0.0341955 0.0395361
0.79202 0.0341955 0.0395514
0.0489052 0.147189 0.0783551
0.0492866 0.144656 0.0781872
0.0496681 0.142016 0.0779736
0.0501106 0.139406 0.0778058
0.0505531 0.135805 0.0774395
0.0508888 0.132891 0.0771191
0.0611124 0.129183 0.0748913
0.0855421 0.13846 0.0746014
0.122927 0.143603 0.0756237
0.157565 0.147967 0.0680705
0.215503 0.147768 0.0686351
0.241978 0.137713 0.0827802
0.268559 0.129229 0.082948
0.308522 0.106325 0.0762036
0.334554 0.0789502 0.0684367
0.344991 0.0584115 0.0669261
0.364126 0.0488594 0.0631418
0.423377 0.046891 0.0648051
0.476967 0.0453498 0.0615702
0.522133 0.0439002 0.054551
0.574411 0.0420844 0.0515908
0.617929 0.040589 0.0453803
0.660517 0.0386511 0.0430457
0.701732 0.0371557 0.0418555
0.739696 0.0358129 0.0407874
0.784115 0.0343938 0.0396887
0.790433 0.0342107 0.0395514
0.790433 0.0342107 0.0395514
0.790433 0.0342107 0.0395514
0.790433 0.0342107 0.0395514
0.790433 0.0342107 0.0395514
0.790433 0.0342107 0.0395514
0.790433 0.0342107 0.0395514
0.0433967 0.191226 0.0753643
0.0436561 0.188266 0.0758526
0.0441596 0.185641 0.0764935
0.0445411 0.182574 0.0768597
0.044892 0.178851 0.0771649
0.0453346 0.175814 0.0775769
0.0463264 0.171954 0.0762493
0.0639506 0.17348 0.0734264
0.107958 0.179599 0.0726635
0.161196 0.18323 0.068574
0.201022 0.183795 0.0614328
0.259724 0.185428 0.0560922
0.299977 0.170764 0.072282
0.321157 0.156451 0.0894331
0.354101 0.138613 0.0800793
0.395789 0.11545 0.0683452
0.41799 0.0831159 0.0607767
0.426535 0.0578012 0.0578012
0.461692 0.0463264 0.0586557
0.507713 0.0444038 0.0524147
0.559228 0.042649 0.0484321
0.605417 0.0406806 0.0446632
0.651118 0.0389715 0.0432898
0.691249 0.0374914 0.0421149
0.731502 0.0360571 0.0409552
0.775036 0.034638 0.0398718
0.790433 0.0342107 0.0395514
0.790433 0.0342107 0.0395514
0.790433 0.0342107 0.0395514
0.790433 0.0342107 0.0395514
0.790433 0.0342107 0.0395514
0.790433 0.0342107 0.0395514
0.790433 0.0342107 0.0395514
0.0371405 0.240345 0.0591897
0.0373541 0.2374 0.060441
0.0378882 0.23444 0.0621347
0.0382849 0.23093 0.0637217
0.0387274 0.226535 0.0656443
0.0393072 0.223255 0.0672007
0.0396124 0.220005 0.0696117
0.0414282 0.207355 0.0697642
0.0754406 0.218524 0.0643473
0.137987 0.224155 0.0576791
0.202075 0.221759 0.0588846
0.239445 0.221408 0.0433661
0.305669 0.226902 0.0342565
0.364782 0.204318 0.0460059
0.386419 0.191592 0.0719921
0.398535 0.173495 0.0795148
0.434028 0.156909 0.0747082
0.481117 0.128939 0.059266
0.515816 0.0880598 0.05037
0.518547 0.0541543 0.0475929
0.553719 0.0425879 0.0462043
0.593347 0.0410925 0.0449836
0.6365 0.0396735 0.0438849
0.681743 0.0377966 0.0423438
0.721141 0.0363775 0.0411994
0.767865 0.0350805 0.0402533
0.788693 0.0366217 0.0366217
0.788663 0.0364691 0.0364691
0.788632 0.0363165 0.0363165
0.788602 0.0361639 0.0361639
0.788571 0.0360113 0.0360113
0.78854 0.0358587 0.0358587
0.788525 0.0356909 0.0356909
0.0328222 0.28835 0.0440528
0.0330205 0.284504 0.0448615
0.033402 0.281437 0.0458991
0.0334783 0.278035 0.0466468
0.0337835 0.273655 0.0478065
0.0340887 0.270512 0.0487831
0.0343786 0.267155 0.049897
0.0345617 0.263203 0.0544289
0.0346075 0.264607 0.0509041
0.103944 0.266102 0.045182
0.182742 0.265538 0.0438849
0.241382 0.264897 0.0423285
0.282765 0.260761 0.0219577
0.354086 0.277241 0.0255589
0.400107 0.255161 0.024033
0.439231 0.229633 0.058793
0.4607 0.214252 0.0676738
0.476982 0.199847 0.0724956
0.501305 0.179873 0.0694591
0.547784 0.152468 0.0585489
0.597162 0.123781 0.0509651
0.639979 0.0885634 0.0440375
0.655436 0.0606546 0.0398871
0.689403 0.0546273 0.0392157
0.723049 0.0486152 0.0384222
0.763363 0.0449836 0.0376745
0.811475 0.0575723 0.0421759
0.809598 0.0550393 0.0417639
0.808499 0.0537728 0.0414282
0.807507 0.0525826 0.0411536
0.806256 0.0513466 0.0408026
0.8047 0.0500954 0.0402838
0.803372 0.0488746 0.0400244
0.0358892 0.343206 0.0362554
0.0352789 0.339651 0.0366217
0.034638 0.33608 0.0368505
0.0338445 0.331991 0.0371099
0.0331426 0.327077 0.0377356
0.0328374 0.322698 0.0381781
0.0325017 0.318883 0.0385595
0.0325475 0.318944 0.0339971
0.0326543 0.316396 0.0387274
0.0442206 0.315923 0.0337835
0.144503 0.320012 0.0373693
0.226429 0.317128 0.0386511
0.288304 0.310643 0.0365606
0.319783 0.304967 0.0157931
0.37644 0.315206 0.0169528
0.433097 0.30927 0.0217136
0.488884 0.273304 0.0374762
0.515618 0.261112 0.0611276
0.525734 0.244556 0.0726635
0.5402 0.225757 0.0826734
0.570306 0.212116 0.0812238
0.605707 0.201099 0.0772106
0.646189 0.179492 0.0675822
0.685466 0.17586 0.0657511
0.71339 0.175799 0.0655222
0.752361 0.17467 0.0649271
0.772839 0.198306 0.0751659
0.774914 0.194263 0.0738537
0.776745 0.18996 0.0722972
0.778286 0.185748 0.0707103
0.780392 0.181689 0.0694743
0.781918 0.177707 0.0679942
0.78381 0.173373 0.0665293
0.0400092 0.394324 0.0385138
0.0398566 0.390372 0.0380407
0.0397192 0.386236 0.037583
0.0397498 0.382071 0.0372473
0.0396582 0.376577 0.0367285
0.0395819 0.372137 0.0363012
0.0396124 0.36791 0.0359808
0.0389258 0.367086 0.0358129
0.0363928 0.363729 0.0352331
0.0366674 0.366339 0.0354925
0.0855573 0.368719 0.0375677
0.198581 0.364675 0.0407111
0.276661 0.357702 0.0423438
0.33492 0.356252 0.0394446
0.355276 0.342977 0.0158694
0.416098 0.349981 0.0167086
0.470924 0.348379 0.0241093
0.519905 0.324926 0.0302739
0.558465 0.298451 0.0521248
0.575113 0.284718 0.0749828
0.586664 0.270665 0.0841382
0.605005 0.263874 0.0920729
0.629679 0.255833 0.0945144
0.657694 0.247944 0.0948043
0.684718 0.251789 0.0967117
0.720287 0.253895 0.0981765
0.747982 0.272221 0.104631
0.749783 0.2701 0.103868
0.750607 0.266453 0.102708
0.75111 0.262608 0.101137
0.751949 0.258656 0.0996109
0.752804 0.254948 0.0981308
0.753857 0.251011 0.0965744
0.0440681 0.438682 0.0426642
0.0437324 0.435615 0.0423285
0.0433661 0.432074 0.0419928
0.0428931 0.428428 0.0415198
0.0426337 0.424186 0.0412757
0.0420996 0.420432 0.0407568
0.0417487 0.416876 0.0404059
0.0431678 0.412711 0.0402228
0.0410773 0.409567 0.039765
0.0418555 0.415061 0.0438392
0.0430152 0.407416 0.0397192
0.156191 0.409476 0.0434577
0.254063 0.412482 0.047425
0.333074 0.405081 0.0487831
0.375814 0.399969 0.0439002
0.391684 0.378576 0.0146639
0.442603 0.385 0.0135805
0.500648 0.394156 0.0262455
0.540246 0.375097 0.0270695
0.596963 0.349111 0.042771
0.620783 0.324529 0.0645914
0.639475 0.315526 0.0833753
0.648859 0.303746 0.0890059
0.672847 0.302373 0.096788
0.699199 0.30753 0.102632
0.72282 0.310063 0.107881
0.75552 0.322942 0.112978
0.762036 0.32491 0.114214
0.760525 0.322255 0.114061
0.759335 0.319814 0.114168
0.75819 0.317372 0.114214
0.756924 0.314839 0.113924
0.755764 0.312245 0.113741
0.0486 0.483574 0.0488441
0.0483406 0.480262 0.0489204
0.0479438 0.476326 0.0488899
0.047364 0.472145 0.0487068
0.0469825 0.467735 0.0482948
0.0466011 0.463905 0.0475471
0.0462196 0.460212 0.0467994
0.0460822 0.458457 0.0446174
0.0460365 0.458152 0.0445716
0.0458076 0.456016 0.044358
0.0456397 0.454353 0.0441901
0.0741588 0.45687 0.0453956
0.219608 0.456367 0.0498817
0.307668 0.45565 0.0527657
0.381125 0.448051 0.0544289
0.415579 0.439612 0.0451057
0.42533 0.420325 0.0169375
0.469291 0.418769 0.00828565
0.524224 0.428641 0.0232853
0.567422 0.422461 0.0303044
0.607217 0.394003 0.0330053
0.65333 0.370291 0.0478828
0.678569 0.359136 0.0665751
0.694102 0.35053 0.0829786
0.71751 0.351064 0.0922866
0.744091 0.357 0.0993668
0.771435 0.362646 0.105043
0.78526 0.367376 0.107866
0.784161 0.36495 0.108354
0.783017 0.362707 0.108629
0.781735 0.360449 0.109071
0.780697 0.358419 0.109758
0.77937 0.356222 0.110018
0.0529183 0.527916 0.0512245
0.0527352 0.525109 0.0510414
0.0525673 0.522103 0.0508888
0.0520638 0.518761 0.0504005
0.0516518 0.514626 0.0500038
0.0513924 0.511421 0.0497597
0.0510719 0.508263 0.0494545
0.0505684 0.504723 0.0489509
0.0504616 0.501579 0.0488594
0.0500038 0.498619 0.0484016
0.0499123 0.497673 0.0483101
0.0515755 0.499413 0.0487373
0.165789 0.50277 0.0525673
0.285664 0.501198 0.0608988
0.360678 0.493935 0.0594186
0.423911 0.488579 0.0624704
0.454551 0.478614 0.0510414
0.459785 0.452811 0.0184329
0.495872 0.451621 0.0139773
0.53901 0.452903 0.0183413
0.588006 0.454749 0.0337987
0.62324 0.43856 0.0353857
0.662791 0.424506 0.036759
0.703151 0.403754 0.0495308
0.730297 0.395193 0.0644083
0.757198 0.397116 0.0794232
0.788113 0.408316 0.085481
0.804456 0.410468 0.0950332
0.803571 0.408408 0.096849
0.802335 0.405982 0.0982834
0.801175 0.403723 0.0994736
0.800046 0.401434 0.10074
0.798993 0.399268 0.102052
0.057023 0.568032 0.0552071
0.0567941 0.565103 0.0549935
0.0564736 0.561944 0.0546731
0.0559854 0.558602 0.0541848
0.0558175 0.554726 0.0540475
0.0552987 0.551263 0.0535439
0.0549783 0.547982 0.0532235
0.0548714 0.545235 0.0531319
0.0545052 0.542657 0.0527657
0.054551 0.543069 0.0528115
0.0542763 0.540459 0.0525521
0.0542763 0.540459 0.0525521
0.0926528 0.541054 0.0539406
0.262181 0.536736 0.0628672
0.337606 0.536263 0.0631571
0.405783 0.529732 0.0632792
0.463828 0.524361 0.0639658
0.48539 0.512139 0.0497902
0.489311 0.488304 0.0202945
0.519356 0.48246 0.0102083
0.55555 0.481483 0.014313
0.601968 0.487694 0.028275
0.635843 0.479225 0.0330968
0.670756 0.467857 0.0335088
0.707301 0.456931 0.0386816
0.746578 0.446189 0.0475776
0.781903 0.452094 0.0544594
0.814618 0.459846 0.061738
0.815 0.456855 0.0629435
0.815518 0.453941 0.064622
0.815885 0.451255 0.0663157
0.815808 0.448554 0.0675975
0.815732 0.44564 0.069337
0.0602579 0.59997 0.0583352
0.060029 0.597589 0.0581216
0.0597543 0.594827 0.057847
0.0593729 0.591791 0.0574807
0.0591897 0.588754 0.0573129
0.0589303 0.586038 0.0570535
0.0586557 0.583612 0.0567788
0.05832 0.581537 0.0564584
0.0582742 0.581048 0.0564126
0.0581064 0.577173 0.05626
0.0577401 0.575158 0.0558938
0.057557 0.57322 0.0557259
0.0580911 0.576638 0.0567788
0.222904 0.575936 0.0627451
0.319249 0.571206 0.0654612
0.394736 0.565316 0.0661479
0.451469 0.56321 0.0679942
0.502358 0.5617 0.0699474
0.516258 0.545357 0.0542763
0.517952 0.52076 0.0224765
0.542092 0.512306 0.0104982
0.567315 0.507652 0.00823987
0.609705 0.51107 0.021561
0.652674 0.513848 0.0349279
0.683314 0.512612 0.0378271
0.719188 0.509438 0.0428779
0.747845 0.510964 0.041062
0.790143 0.511269 0.051545
0.792218 0.508232 0.0522621
0.79382 0.505821 0.0526589
0.794949 0.503395 0.0525978
0.796338 0.500755 0.0527504
0.79765 0.498253 0.0528878
0.0635386 0.631189 0.0615244
0.0632029 0.629358 0.0611887
0.0629892 0.627314 0.0609903
0.0627756 0.625193 0.0607767
0.0624247 0.622568 0.0604257
0.0623789 0.620569 0.0603952
0.0621653 0.618524 0.0601968
0.0619669 0.616495 0.0599985
0.0616617 0.614282 0.0596933
0.0614176 0.61149 0.0594644
0.0612955 0.609186 0.0593423
0.0609598 0.606775 0.0590219
0.061677 0.601831 0.0589914
0.185946 0.610529 0.0648356
0.303075 0.607584 0.0691691
0.375387 0.607828 0.0712596
0.441245 0.604456 0.078172
0.498329 0.598535 0.0774853
0.538018 0.59173 0.0777447
0.542611 0.569711 0.0543526
0.544961 0.547723 0.0245518
0.566644 0.54435 0.014023
0.588281 0.535973 0.00944533
0.62063 0.53344 0.0167697
0.659556 0.543359 0.0316014
0.698863 0.552071 0.0470893
0.728206 0.557824 0.0498054
0.762448 0.56257 0.0564279
0.766125 0.560723 0.0558328
0.7664 0.558709 0.0548562
0.76669 0.556359 0.0536507
0.766995 0.554131 0.0525521
0.76733 0.551888 0.051545
0.0667887 0.661646 0.064683
0.0663615 0.659449 0.0642557
0.0660868 0.657023 0.0639811
0.0659495 0.654551 0.0638437
0.0655222 0.651514 0.0634318
0.0652171 0.648783 0.0631418
0.0649577 0.646326 0.0628824
0.0645609 0.644022 0.0624857
0.0646067 0.644251 0.0630961
0.0642863 0.639155 0.0622416
0.064332 0.638041 0.0621805
0.0637675 0.635645 0.061738
0.0636912 0.634318 0.0622263
0.153765 0.633707 0.0661326
0.282185 0.637308 0.0711223
0.365332 0.639475 0.0773938
0.435004 0.632853 0.0854963
0.48806 0.628779 0.0859541
0.534066 0.62446 0.0901198
0.567514 0.617029 0.0888228
0.575158 0.602121 0.0631723
0.573297 0.581933 0.0352636
0.590982 0.57435 0.0211337
0.606394 0.559991 0.0128634
0.629953 0.556878 0.014725
0.669963 0.567514 0.0298466
0.709834 0.58172 0.049836
0.747021 0.594308 0.0710155
0.758633 0.596811 0.0773327
0.759014 0.595392 0.0764324
0.759426 0.593881 0.0754711
0.759945 0.59234 0.0746166
0.760418 0.590845 0.0737621
0.0700389 0.686366 0.0678416
0.0700694 0.685405 0.0678874
0.0698405 0.684276 0.0676585
0.0695659 0.683009 0.0673838
0.069337 0.681437 0.067155
0.0690929 0.679789 0.0669261
0.0687419 0.677378 0.0665751
0.0684367 0.675288 0.0662852
0.0682383 0.67306 0.0668193
0.0673075 0.667475 0.0651713
0.0692454 0.668284 0.0654307
0.0671397 0.666209 0.0650034
0.0665293 0.660456 0.0649271
0.13228 0.664088 0.0681315
0.278553 0.666041 0.0771344
0.359167 0.663081 0.0840925
0.427222 0.657465 0.090135
0.481788 0.657359 0.0987259
0.523659 0.649897 0.101854
0.569085 0.649744 0.110674
0.596765 0.643977 0.109194
0.599329 0.629282 0.08336
0.599725 0.610941 0.0493935
0.613001 0.60444 0.0353857
0.627192 0.592126 0.0235752
0.64625 0.585855 0.0207828
0.678767 0.592798 0.0319524
0.719097 0.607996 0.0585641
0.739971 0.615808 0.0758373
0.740917 0.615183 0.0756847
0.741909 0.614557 0.0759442
0.743099 0.613855 0.0764324
0.744091 0.613153 0.0766766
0.0751507 0.711818 0.0786755
0.0746319 0.709636 0.0774853
0.0741283 0.707317 0.0762646
0.0736706 0.705043 0.0751507
0.0730144 0.701976 0.0736553
0.0724651 0.699245 0.0722667
0.0720073 0.697063 0.0710765
0.0716716 0.694774 0.0700236
0.0712596 0.692546 0.0690471
0.0713054 0.692927 0.0690929
0.0716259 0.694759 0.0694133
0.0729076 0.689082 0.0684977
0.0706188 0.685725 0.0691234
0.0980087 0.68806 0.0700084
0.263508 0.690364 0.0839094
0.34995 0.689616 0.0961166
0.419211 0.685588 0.106126
0.473701 0.683162 0.114305
0.526482 0.680613 0.124834
0.565026 0.675669 0.130755
0.602182 0.673701 0.139162
0.6224 0.667185 0.13431
0.628824 0.658259 0.112184
0.623911 0.638163 0.0717327
0.635813 0.630045 0.0529488
0.646235 0.619135 0.040238
0.666926 0.613565 0.0361791
0.693614 0.618753 0.0461128
0.721431 0.627817 0.0689097
0.722286 0.627131 0.0699474
0.722957 0.6262 0.0704204
0.72372 0.625391 0.0710765
0.72459 0.624567 0.0719921
0.0827344 0.737377 0.0862135
0.0820172 0.735409 0.0835584
0.0810407 0.733196 0.0805676
0.0801404 0.730663 0.077821
0.0793622 0.728267 0.0776379
0.0789654 0.726436 0.0780499
0.0784161 0.724453 0.0782483
0.0779278 0.722622 0.0784466
0.0776684 0.721645 0.0788891
0.0777295 0.718334 0.0743877
0.0786145 0.717632 0.0742962
0.0763409 0.717098 0.0740673
0.0742504 0.708614 0.0719921
0.115129 0.713436 0.0761578
0.270558 0.714717 0.0961471
0.354421 0.710719 0.107927
0.423011 0.708995 0.122591
0.477363 0.708522 0.136522
0.52668 0.705684 0.150118
0.565011 0.702251 0.157687
0.60061 0.698283 0.163668
0.632013 0.697154 0.172564
0.648875 0.692042 0.167514
0.651682 0.681117 0.141161
0.650034 0.66569 0.103868
0.65713 0.655741 0.0811933
0.670741 0.64535 0.0653544
0.686793 0.640879 0.061387
0.712337 0.647898 0.0743725
0.712444 0.646693 0.0731975
0.712627 0.645487 0.0721447
0.712917 0.644327 0.0713054
0.713298 0.643259 0.070634
0.101793 0.764645 0.192859
0.0995956 0.762692 0.180163
0.0972915 0.760708 0.166659
0.0954604 0.758679 0.15285
0.0927596 0.755901 0.135073
0.0908675 0.753582 0.120562
0.0893111 0.751431 0.10721
0.0880293 0.749325 0.10309
0.0875257 0.748379 0.102312
0.0881208 0.748653 0.111635
0.0874495 0.742153 0.113695
0.0857862 0.743404 0.104967
0.0851759 0.738445 0.0932937
0.170535 0.736675 0.108156
0.300191 0.735958 0.132815
0.370916 0.732845 0.139345
0.43061 0.730709 0.150805
0.483635 0.728954 0.162203
0.52311 0.730617 0.173663
