public/sampleLut/7.cube
TITLE "Generated by Resolve"
LUT_3D_SIZE 5
0.0386969 0.0386969 0.0386969
0.0990311 0.044831 0.0508583
0.479149 0.0452735 0.061799
0.794781 0.0341192 0.0394903
0.794781 0.0341192 0.0394903
0.0547036 0.108659 0.0694591
0.11783 0.114946 0.0706493
0.384268 0.047837 0.0672465
0.752514 0.0354162 0.0404822
0.79202 0.0341955 0.0395514
0.0486 0.483574 0.0488441
0.0460365 0.458152 0.0445716
0.42533 0.420325 0.0169375
0.71751 0.351064 0.0922866
0.77937 0.356222 0.110018
0.0827344 0.737377 0.0862135
0.0776684 0.721645 0.0788891
0.423011 0.708995 0.122591
0.650034 0.66569 0.103868
0.713298 0.643259 0.070634
0.138598 0.791943 0.318853
0.138598 0.791943 0.318853
0.493385 0.783047 0.436576
0.745785 0.797757 0.595346
0.783352 0.779873 0.572549
0.038407 0.0517891 0.0803388
0.123003 0.0756695 0.114061
0.482292 0.0446479 0.116808
0.792523 0.0340581 0.0733043
0.793683 0.0340887 0.0667124
0.0492561 0.111009 0.109178
0.108202 0.112886 0.107958
0.379187 0.0478676 0.092134
0.73962 0.0361486 0.0449989
0.792767 0.0341802 0.0395361
0.0467842 0.465797 0.0474098
0.0440681 0.439658 0.0426642
0.41767 0.40676 0.0177157
0.701701 0.334936 0.0936904
0.772183 0.346502 0.111345
0.0800031 0.730037 0.0776989
0.0788891 0.714183 0.076051
0.400488 0.70399 0.113558
0.64242 0.65771 0.0936751
0.715358 0.637644 0.0673686
0.138888 0.792096 0.319417
0.138598 0.791943 0.318853
0.479774 0.783291 0.428672
0.740597 0.79733 0.592309
0.783352 0.779873 0.572549
0.0453498 0.131655 0.513817
0.0461433 0.126238 0.487343
0.558129 0.143435 0.573419
0.808148 0.236805 0.546807
0.806088 0.217731 0.530831
0.0399786 0.171176 0.513726
0.0427558 0.155016 0.476799
0.479576 0.156558 0.500984
0.767727 0.14696 0.460975
0.807202 0.0692912 0.436759
0.052903 0.478874 0.522545
0.0504463 0.457496 0.497612
0.421241 0.463554 0.4757
0.742657 0.297902 0.291493
0.831495 0.253956 0.236683
0.10164 0.735744 0.4795
0.0886244 0.715862 0.450019
0.275303 0.704128 0.436622
0.664179 0.67686 0.391562
0.749371 0.659236 0.266423
0.165591 0.793347 0.515587
0.164752 0.793301 0.509941
0.394644 0.786465 0.53434
0.740826 0.805707 0.668284
0.795285 0.792905 0.645731
0.0395361 0.152682 0.731746
0.0374456 0.166949 0.754559
0.46978 0.383169 0.828183
0.78233 0.574395 0.812421
0.78233 0.574395 0.812421
0.0356298 0.179568 0.772625
0.0353246 0.182696 0.768109
0.29572 0.339422 0.804852
0.747494 0.502113 0.788083
0.804318 0.518776 0.779538
0.0500191 0.424125 0.800122
0.0485695 0.411124 0.780209
0.0567636 0.451408 0.771771
0.696452 0.571771 0.748226
0.788678 0.59617 0.733074
0.118532 0.728222 0.762036
0.101274 0.709026 0.739986
0.0963607 0.701946 0.732799
0.658152 0.71133 0.722011
0.788632 0.646891 0.65745
0.229038 0.800855 0.740627
0.223423 0.800809 0.722805
0.215656 0.800839 0.697246
0.710369 0.811978 0.76408
0.854978 0.855451 0.818555
0.0395361 0.152682 0.731746
0.0374456 0.166949 0.755077
0.461357 0.380835 0.82977
0.78233 0.574395 0.812421
0.78233 0.574395 0.812421
0.0359197 0.177676 0.770489
0.035874 0.177996 0.770901
0.281239 0.368612 0.830915
0.728817 0.555032 0.819669
0.781811 0.584619 0.812955
0.0436866 0.356786 0.8271
0.0409094 0.33048 0.827665
0.0485695 0.406897 0.831312
0.683986 0.629831 0.814908
0.776318 0.66392 0.803494
0.120241 0.72221 0.840757
0.103777 0.701671 0.846891
0.0913863 0.681224 0.849088
0.602167 0.714916 0.814969
0.806317 0.784665 0.82211
0.242039 0.796002 0.82446
0.242039 0.796002 0.82446
0.241337 0.796063 0.82211
0.260578 0.80116 0.819715
0.880522 0.885679 0.887556
