public/sampleLut/8.cube
TITLE "KORNEV_FILMS (S-Log 2)"
LUT_3D_SIZE 5
DOMAIN_MIN 0.000000 0.000000 0.000000
DOMAIN_MAX 0.903226 0.903226 0.903226
0.0000 0.0000 0.0000
0.0510 0.0039 0.0039
0.1569 0.0078 0.0000
0.3373 0.0196 0.0000
0.5098 0.0118 0.0000
0.0078 0.0314 0.0235
0.0078 0.0235 0.0078
0.1569 0.0039 0.0000
0.3373 0.0196 0.0000
0.5098 0.0118 0.0000
0.0196 0.1725 0.1216
0.0196 0.1725 0.1216
0.1882 0.2392 0.0510
0.4627 0.2627 0.0196
0.6039 0.2039 0.0000
0.0353 0.3255 0.2275
0.0353 0.3333 0.2314
0.1765 0.4000 0.2235
0.4627 0.5059 0.0745
0.6431 0.5294 0.0549
0.0627 0.5333 0.3765
0.0667 0.5412 0.3843
0.1765 0.5373 0.4039
0.2510 0.5765 0.2157
0.5059 0.6549 0.1333
0.0078 0.0118 0.0667
0.0510 0.0157 0.0471
0.1725 0.0000 0.0353
0.3451 0.0196 0.0000
0.5098 0.0118 0.0000
0.0078 0.0431 0.0314
0.0039 0.0157 0.0118
0.1569 0.0078 0.0000
0.3412 0.0196 0.0000
0.5098 0.0118 0.0000
0.0196 0.1725 0.1216
0.0196 0.1725 0.1216
0.1765 0.2314 0.0510
0.4588 0.2667 0.0196
0.6039 0.2000 0.0000
0.0353 0.3255 0.2275
0.0353 0.3255 0.2275
0.1804 0.4000 0.2353
0.4627 0.5059 0.0745
0.6431 0.5294 0.0549
0.0627 0.5333 0.3765
0.0627 0.5333 0.3765
0.1647 0.5333 0.4078
0.2471 0.5765 0.2157
0.5059 0.6549 0.1333
0.0000 0.0275 0.2549
0.0392 0.0157 0.2392
0.2392 0.0471 0.1725
0.4627 0.0000 0.1725
0.5686 0.0000 0.1608
0.0039 0.0706 0.2471
0.0000 0.0275 0.2588
0.2392 0.0471 0.1725
0.4588 0.0000 0.1686
0.5647 0.0000 0.1529
0.0275 0.2745 0.1961
0.0275 0.2706 0.1961
0.2902 0.2941 0.2745
0.4941 0.1412 0.1647
0.6078 0.0627 0.0745
0.0392 0.4353 0.2980
0.0392 0.4275 0.2941
0.1255 0.3922 0.3020
0.4627 0.5059 0.0745
0.6431 0.5098 0.0471
0.0706 0.5843 0.4118
0.0706 0.5765 0.4078
0.0667 0.5569 0.3922
0.2392 0.5804 0.2314
0.6000 0.6902 0.3137
0.0000 0.0549 0.5373
0.0118 0.0549 0.5333
0.2510 0.0588 0.4627
0.4588 0.1020 0.4431
0.5725 0.1216 0.4471
0.0000 0.0549 0.5373
0.0000 0.0549 0.5412
0.2471 0.0588 0.4745
0.4588 0.1020 0.4471
0.5725 0.1216 0.4471
0.0196 0.4039 0.5294
0.0196 0.4000 0.5373
0.2471 0.3294 0.6431
0.5020 0.3412 0.5176
0.6157 0.2941 0.5059
0.0471 0.5608 0.4588
0.0471 0.5608 0.4627
0.2078 0.5922 0.5412
0.5882 0.6118 0.6039
0.6941 0.5490 0.5569
0.0667 0.7059 0.4980
0.0667 0.7059 0.4980
0.0863 0.7137 0.5020
0.5373 0.7098 0.6549
0.6353 0.7255 0.6118
0.0000 0.0745 0.7529
0.0000 0.0745 0.7569
0.2784 0.0510 0.7608
0.4314 0.1137 0.6549
0.5176 0.1373 0.5843
0.0000 0.0745 0.7569
0.0000 0.0745 0.7569
0.2784 0.0510 0.7647
0.4235 0.1098 0.6588
0.5176 0.1373 0.5843
0.0118 0.4588 0.7882
0.0118 0.4549 0.7922
0.2980 0.4000 0.7765
0.4980 0.3686 0.7333
0.6000 0.3961 0.6471
0.0471 0.6706 0.7451
0.0471 0.6667 0.7451
0.2039 0.6510 0.7725
0.5725 0.6431 0.7843
0.7059 0.6275 0.7333
0.0784 0.7412 0.6353
0.0784 0.7412 0.6353
0.1529 0.7529 0.6706
0.5490 0.7843 0.7490
0.7373 0.7882 0.7686
