public/sampleLut/9.cube
TITLE "Generated by Resolve"
LUT_3D_SIZE 9
0 0 0
0.0302281 0 0
0.304921 0 0
0.528237 0.00672923 0.0151827
0.790204 0.0370642 0.0368048
0.945113 0.0263981 0.0293278
1 0.00732433 0.0174258
1 0 0.00381476
1 0.170184 0
0 0.0207523 0
0.00149538 0.00775158 0
0.225132 0 0
0.432776 0 0.00410468
0.703151 0.0315557 0.0322271
0.911955 0.0303655 0.0320439
1 0.00810254 0.0178378
1 0 0.00424201
1 0.137835 0
0 0.102312 0
0 0.0849622 0
0.0818799 0.0686351 0
0.408637 0.0444343 0.00410468
0.731762 0.0875563 0.0331121
1 0.0632181 0.011902
1 0.0679942 0
1 0.0849317 0
1 0.233524 0
0 0.381277 0.0195163
0 0.355612 0.0157931
0.00706493 0.386923 0.0197452
0.35877 0.348821 0.01149
0.588174 0.33518 0.0156863
0.911879 0.304158 0.000656138
1 0.289586 0
1 0.260914 0
1 0.243305 0
0 0.581155 0.0341192
0 0.562692 0.0341039
0 0.565988 0.0338598
0.299336 0.527672 0.0205692
0.525597 0.506691 0.0208743
0.786435 0.475227 0.0162051
1 0.442222 0
1 0.431434 0
1 0.419333 0
0 0.762142 0.0317998
0 0.742031 0.0332036
0 0.733654 0.0339666
0.169299 0.710323 0.0247196
0.448966 0.674418 0.0256504
0.688746 0.647852 0.0288701
0.989654 0.605982 0.00830091
1 0.595621 0
1 0.584649 0
0 0.954742 0
0 0.93576 0
0 0.92192 0
0 0.924712 0
0.319203 0.864469 0
0.557885 0.838254 0.015671
0.853208 0.797421 0.0254978
1 0.786145 0.0151064
1 0.781994 0.0146334
0 1 0
0 1 0
0 1 0
0 1 0
0.233249 1 0
0.47599 1 0
0.769802 0.9953 0.0180209
1 0.982513 0.0247349
1 0.980316 0.0335699
0 1 0
0 1 0
0 1 0
0 1 0
0.0569467 1 0
0.400107 1 0
0.673838 1 0
0.936751 1 0
1 1 0
0 0.000381476 0.0347906
0.0304723 0 0.0288396
0.295018 0 0
0.504982 0.00375372 0.0128023
0.76907 0.0364385 0.0358892
0.93727 0.0273594 0.0300145
1 0.00706493 0.0172885
1 0 0.00328069
1 0.174273 0
0 0.0182803 0.0151675
0 0.00375372 0.00148013
0.215 0 0
0.425895 0 0.00325017
0.695216 0.0307317 0.0315862
0.907439 0.030869 0.0324102
1 0.00920119 0.0184482
1 0 0.00476081
1 0.124773 0
0 0.0966659 0
0 0.0798505 0
0.076585 0.0648051 0
0.407187 0.0389258 0.00376898
0.722194 0.0771649 0.0332036
1 0.0541085 0.0143893
1 0.0611887 0
1 0.0708171 0
1 0.225483 0
0 0.374624 0.0188754
0 0.343923 0.0142061
0 0.375814 0.0189212
0.349966 0.340612 0.0105135
0.581277 0.328267 0.0156252
0.902647 0.298543 0.00210575
1 0.281697 0
1 0.273335 0
1 0.234638 0
0 0.574807 0.0339971
0 0.555825 0.0332799
0 0.558602 0.0333715
0.291051 0.522042 0.0201724
0.519295 0.500908 0.0203403
0.776333 0.470359 0.0165103
1 0.436057 0
1 0.425452 0
1 0.412985 0
0 0.755367 0.0325933
0 0.735241 0.0338903
0 0.726177 0.0344091
0.156191 0.706081 0.0256657
0.444282 0.667903 0.0254673
0.682155 0.642115 0.0281834
0.985595 0.598993 0.00782788
1 0.588724 0
1 0.577798 0
0 0.948333 0
0 0.92903 0
0 0.914763 0
0 0.918517 0
0.315587 0.857145 0
0.553292 0.831312 0.0174411
0.847044 0.790631 0.0267033
1 0.777905 0.0153658
1 0.773083 0.0137331
0 1 0
0 1 0
0 1 0
0 1 0
0.224292 1 0
0.466926 1 0
0.756848 0.989197 0.0166934
0.99443 0.975525 0.0229343
1 0.974945 0.0318303
0 1 0
0 1 0
0 1 0
0 1 0
0.0498665 1 0
0.397665 1 0
0.668055 1 0.00115969
0.936797 1 0
1 1 0
0.0226596 0 0.300221
0.0355993 0 0.285725
0.281468 0 0.231617
0.488197 0.0019379 0.194751
0.746624 0.0349279 0.146899
0.91931 0.0288548 0.0941024
1 0.00564584 0.0728008
1 0 0.089662
1 0.197116 0.106401
0.0148165 0 0.238621
0.0117189 0 0.20557
0.193103 0 0.129274
0.406043 0 0.0538033
0.668208 0.027451 0.0292973
0.902403 0.0314183 0.0327001
1 0.00788891 0.0177462
1 0 0.00712596
1 0.143877 0.0324865
0 0.0901961 0.0581369
0 0.0746777 0.0494545
0.0757153 0.0681163 0.0496529
0.419715 0.051194 0.0362097
0.733593 0.0921035 0.0777142
1 0.0619211 0.0656291
1 0.0643778 0.0795605
1 0.0834363 0.0901961
1 0.229541 0.0870375
0 0.386908 0.0199588
0 0.358053 0.0163119
0.0117037 0.384741 0.027039
0.354849 0.34548 0.0110018
0.598321 0.341665 0.0161593
0.90782 0.298497 0.00137331
1 0.280201 0
1 0.247822 0.00996414
1 0.228016 0.035111
0 0.578225 0.0341039
0 0.558389 0.0333562
0 0.558923 0.0333715
0.289143 0.522332 0.0202335
0.517403 0.499519 0.020264
0.771679 0.46865 0.0166781
1 0.432166 0
1 0.420951 0
1 0.408392 0
0 0.754314 0.0328679
0 0.733318 0.0339818
0 0.722866 0.0347753
0.146807 0.704463 0.0263066
0.441489 0.663722 0.0247654
0.676829 0.637629 0.0278782
0.983001 0.593423 0.00784314
1 0.582605 0
1 0.571527 0
0 0.94493 0
0 0.924956 0
0 0.908995 0
0 0.91313 0
0.312428 0.850263 0
0.549111 0.824262 0.0194553
0.840284 0.784283 0.0282597
1 0.769757 0.0160525
1 0.764157 0.0130007
0 1 0
0 1 0
0 1 0
0 1 0
0.215534 1 0
0.458579 1 0
0.744228 0.983322 0.0144656
0.987701 0.968887 0.0209659
1 0.969284 0.0298924
0 1 0
0 1 0
0 1 0
0 1 0
0.0430457 1 0
0.395422 1 0
0.662562 1 0.00520333
0.936706 1 0.00015259
1 1 0
0.0456855 0 0.460838
0.0495155 0 0.449027
0.283238 0 0.407324
0.485054 0.00477607 0.4
0.72842 0.035462 0.386145
0.903014 0.0300755 0.364965
1 0.00399786 0.365545
1 0 0.38587
1 0.219471 0.398062
0.0387274 0 0.413413
0.0359503 0 0.39353
0.18175 0 0.353643
0.398886 0 0.329076
0.652003 0.027985 0.33492
0.883726 0.0318914 0.323629
1 0.00663767 0.324208
1 0 0.334157
1 0.159518 0.336858
0.00271611 0.0722972 0.330739
0.00694286 0.0562753 0.331136
0.082063 0.0559701 0.342763
0.415793 0.0384985 0.356374
0.703975 0.0784314 0.402579
1 0.0471809 0.372045
1 0.0463722 0.359258
1 0.0858015 0.343252
1 0.229084 0.319249
0 0.38088 0.347616
0 0.351949 0.319677
0.00363165 0.375418 0.344717
0.343511 0.335058 0.305882
0.587366 0.330846 0.293309
0.897154 0.289189 0.252613
1 0.270024 0.233829
1 0.238605 0.220478
1 0.220539 0.211902
0 0.566873 0.317556
0 0.548547 0.294774
0 0.549096 0.286427
0.277302 0.515877 0.239124
0.51191 0.494652 0.197024
0.79205 0.478035 0.143877
1 0.429557 0.104295
1 0.419135 0.0952926
1 0.406821 0.0924849
0 0.747448 0.206043
0 0.728771 0.172824
0 0.719936 0.152041
0.140932 0.705013 0.130068
0.442695 0.664775 0.0849622
0.678645 0.639994 0.0593423
0.992798 0.594034 0.0209354
1 0.582574 0.0316014
1 0.57052 0.0449226
0 0.947051 0.0412451
0 0.928786 0.0134585
0 0.912535 0
0 0.917159 0
0.311131 0.854215 0
0.548623 0.827176 0.0186007
0.842405 0.784802 0.0280156
1 0.767636 0.0159304
1 0.759976 0.0123751
0 1 0.014435
0 1 0
0 1 0
0 1 0
0.209064 1 0
0.452232 1 0
0.733593 0.979904 0.0131991
0.981659 0.962936 0.0194858
1 0.963073 0.0286107
0 1 0
0 1 0
0 1 0
0 1 0
0.0314183 1 0
0.393896 1 0
0.658152 1 0.0107424
0.936446 1 0.00624094
1 1 0
0.0589456 0 0.702419
0.0588235 0 0.678004
0.2963 0 0.613062
0.497932 0.00889601 0.596582
0.719951 0.0357824 0.578378
0.900786 0.0299077 0.564385
1 0.00196841 0.56878
1 0.0730755 0.588281
1 0.251438 0.595346
0.0581826 0 0.608865
0.0567941 0 0.578775
0.184375 0 0.530617
0.411337 0 0.508354
0.652979 0.0311437 0.523033
0.885954 0.0319371 0.515404
1 0.00613413 0.517266
1 0 0.526375
1 0.196689 0.529976
0.0412604 0.0610666 0.51104
0.0433661 0.0440681 0.506249
0.117281 0.0522011 0.522087
0.45034 0.0513466 0.551278
0.711681 0.0824598 0.589685
1 0.0458839 0.561593
1 0.0429847 0.549722
1 0.122698 0.53518
1 0.248585 0.518074
0.0161135 0.384176 0.53666
0.013901 0.357 0.512016
0.0263066 0.374701 0.532174
0.346426 0.332921 0.498863
0.572534 0.316182 0.491814
0.866148 0.275975 0.465263
1 0.246036 0.451331
1 0.229221 0.453498
1 0.238483 0.456428
0 0.563241 0.512764
0 0.544366 0.496345
0 0.543191 0.497093
0.266667 0.510079 0.466758
0.502205 0.48632 0.446235
0.752377 0.456352 0.420249
1 0.417792 0.387137
1 0.406668 0.380835
1 0.394476 0.374365
0 0.738689 0.443748
0 0.718471 0.433204
0 0.707057 0.429953
0.116732 0.693523 0.423407
0.42887 0.650431 0.390951
0.662104 0.625376 0.373053
0.974029 0.580087 0.334401
1 0.569329 0.328603
1 0.558663 0.322316
0 0.931838 0.33109
0 0.912322 0.317143
0 0.894026 0.308171
0 0.900069 0.306081
0.302037 0.837186 0.283848
0.539193 0.811688 0.277043
0.827176 0.772244 0.253208
1 0.755566 0.236133
1 0.750195 0.227146
0 1 0.28806
0 1 0.269551
0 1 0.250843
0 1 0.236957
0.197192 1 0.205341
0.444938 1 0.185901
0.723705 0.975967 0.157488
0.975448 0.957214 0.12517
1 0.956313 0.105531
0 1 0.177264
0 1 0.164309
0 1 0.149859
0 1 0.129335
0.0137331 1 0.117021
0.391836 1 0.112367
0.653696 1 0.0840314
0.935699 1 0.0256504
1 1 0
0.160296 0 0.994705
0.142901 0 0.989944
0.312917 0 0.90811
0.515175 0.00819409 0.831495
0.722484 0.0278935 0.779538
0.908568 0.0199893 0.787655
1 0 0.839368
1 0.18526 0.910536
1 0.314 0.94493
0.0712902 0 0.940658
0.0673838 0 0.90959
0.188525 0 0.8327
0.441871 0 0.76257
0.664256 0.0265049 0.750149
0.890929 0.0246281 0.749355
1 0 0.769253
1 0.101625 0.795972
1 0.253574 0.819348
0.0968795 0.0559396 0.841688
0.0887007 0.0343175 0.833906
0.168444 0.0558785 0.886229
0.493874 0.0546731 0.870481
0.726757 0.0652781 0.865538
1 0.0303655 0.823438
1 0.0527199 0.816785
1 0.184802 0.802792
1 0.286381 0.783413
0.121874 0.375784 0.782925
0.114061 0.353643 0.750713
0.123354 0.365637 0.768093
0.369116 0.324926 0.722271
0.580499 0.307225 0.710536
0.863493 0.268055 0.684962
1 0.23592 0.670878
1 0.218524 0.673136
1 0.272465 0.676814
0.0285649 0.555322 0.739086
0.026215 0.53756 0.714916
0.0249943 0.535714 0.708949
0.267659 0.50515 0.67364
0.500771 0.480171 0.646006
0.746822 0.451896 0.61706
1 0.412375 0.579934
1 0.401541 0.571466
1 0.389075 0.563638
0 0.732967 0.651545
0 0.713191 0.634882
0 0.701747 0.626291
0.108766 0.69044 0.61857
0.425223 0.645685 0.580346
0.657221 0.621378 0.561227
0.971069 0.575799 0.521737
1 0.56466 0.515557
1 0.553994 0.509606
0 0.927855 0.519417
0 0.908125 0.504662
0 0.889036 0.494987
0 0.894789 0.493843
0.298955 0.832502 0.474952
0.535988 0.806226 0.471794
0.820325 0.767773 0.452964
1 0.749676 0.441199
1 0.74435 0.443107
0 1 0.470741
0 1 0.452445
0 1 0.435157
0 1 0.425345
0.190738 1 0.404974
0.441917 0.99559 0.401602
0.71516 0.969024 0.39733
0.963699 0.946365 0.380545
1 0.940673 0.373175
0 1 0.37969
0 1 0.374777
0 1 0.370687
0 1 0.366995
0.0131075 1 0.369985
0.396201 1 0.380056
0.652125 1 0.374487
0.929976 1 0.339422
1 1 0.306249
0.355032 0 1
0.34197 0 1
0.311849 0 1
0.5131 0.00564584 0.978103
0.731273 0.017319 0.9131
0.938827 0.000534066 0.936538
1 0.0902419 1
1 0.252415 1
1 0.36199 1
0.265354 0 1
0.237766 0 1
0.196963 0 1
0.452125 0.000579843 0.945541
0.675486 0.0160372 0.912825
0.912413 0.00663767 0.916365
1 0.0290227 0.972305
1 0.195102 1
1 0.318013 1
0.161089 0.0714275 1
0.196719 0.0415045 1
0.29575 0.0585794 1
0.495796 0.0623331 1
0.727352 0.0562142 1
1 0.0531472 1
1 0.175204 1
1 0.26714 1
1 0.351736 1
0.175784 0.368093 1
0.172702 0.346349 1
0.182239 0.352621 1
0.397223 0.309804 1
0.599786 0.287968 0.996277
0.873579 0.245533 0.975143
1 0.209644 0.993149
1 0.240787 1
1 0.346197 1
0.157229 0.540978 1
0.156527 0.522362 0.992752
0.161334 0.517494 1
0.316152 0.487724 0.976364
0.52137 0.461784 0.945052
0.748821 0.435004 0.915465
1 0.395636 0.887526
1 0.383673 0.898329
1 0.371313 0.902937
0.046479 0.717937 0.950973
0.0507668 0.697734 0.936324
0.0546883 0.685512 0.931991
0.154971 0.675517 0.933761
0.429496 0.631968 0.868162
0.651865 0.609766 0.836683
0.96202 0.565545 0.78555
1 0.553933 0.780911
1 0.543145 0.774945
0 0.915373 0.815488
0 0.895766 0.786908
0 0.876814 0.764508
0 0.882841 0.763439
0.295125 0.822766 0.722881
0.531472 0.798154 0.709209
0.811536 0.761852 0.68127
1 0.744076 0.664149
1 0.739864 0.661311
0 1 0.767102
0 1 0.72398
0 1 0.685481
0 1 0.661921
0.184695 1 0.627878
0.439857 0.992065 0.614496
0.710063 0.966094 0.60116
0.960357 0.940871 0.578454
1 0.933654 0.565301
0 1 0.629801
0 1 0.606836
0 1 0.589426
0 1 0.575387
0 1 0.567971
0.393561 1 0.569177
0.645594 1 0.558663
0.921141 1 0.52462
1 1 0.491081
0.499474 0 1
0.480446 0 1
0.437736 0 1
0.504707 0.00360113 1
0.7346 0.0080415 1
0.963714 0.000167849 1
1 0.182635 1
1 0.304814 1
1 0.402945 1
0.423301 0 1
0.405386 0 1
0.378332 0 1
0.451423 0.000762951 1
0.679301 0.00859083 1
0.936873 0 1
1 0.12874 1
1 0.255451 1
1 0.361166 1
0.393332 0.0394751 1
0.40557 0.0106508 1
0.477165 0.0254673 1
0.57734 0.0399481 1
0.721141 0.0610971 1
1 0.141283 1
1 0.230182 1
1 0.308949 1
1 0.386435 1
0.166766 0.369177 1
0.165774 0.347738 1
0.176257 0.35201 1
0.397101 0.309361 1
0.603571 0.285832 1
0.891218 0.23856 1
1 0.199298 1
1 0.293294 1
1 0.390387 1
0.189075 0.540154 1
0.187289 0.521355 1
0.187533 0.515114 1
0.332265 0.486336 1
0.538247 0.458366 1
0.76257 0.430289 1
1 0.386435 1
1 0.373571 1
1 0.360113 1
0.128954 0.715999 1
0.136172 0.694942 1
0.144198 0.680659 1
0.219501 0.670909 1
0.458595 0.624247 1
0.667567 0.600809 1
0.96936 0.55407 1
1 0.540261 1
1 0.527932 1
0 0.912657 1
0 0.891417 0.992874
0 0.869596 0.988159
0 0.872419 1
0.30425 0.812726 0.974609
0.532784 0.786603 0.968414
0.80618 0.751736 0.945052
1 0.731975 0.952789
1 0.727031 0.974502
0 1 1
0 1 1
0 1 0.988663
0 1 0.981918
0.17641 0.999771 0.946014
0.432578 0.980804 0.924575
0.701686 0.955657 0.888792
0.94995 0.928496 0.856062
1 0.919158 0.838941
0 1 0.960418
0 1 0.956847
0 1 0.951431
0 1 0.941833
0 1 0.92575
0.382239 1 0.88893
0.633005 1 0.837003
0.904768 1 0.781003
1 1 0.73991
0.588495 0 1
0.576593 0 1
0.558083 0 1
0.576242 0 1
0.733104 0.00216678 1
0.938918 0.127474 1
1 0.258701 1
1 0.356863 1
1 0.444999 1
0.552972 0 1
0.538537 0 1
0.518593 0 1
0.547341 0 1
0.676951 0.00363165 1
0.915831 0.0848096 1
1 0.209033 1
1 0.312062 1
1 0.405341 1
0.560143 0 1
0.562051 0 1
0.626993 0 1
0.688807 0.00784314 1
0.757717 0.102113 1
0.964797 0.213977 1
1 0.284733 1
1 0.353231 1
1 0.423239 1
0.244175 0.365103 1
0.254154 0.343374 1
0.318456 0.341085 1
0.417365 0.30602 1
0.600061 0.284688 1
0.901167 0.233936 1
1 0.253819 1
1 0.344091 1
1 0.432639 1
0.1832 0.540169 1
0.182406 0.521492 1
0.18294 0.513878 1
0.327886 0.486625 1
0.542504 0.45684 1
0.77026 0.427649 1
1 0.380652 1
1 0.367498 1
1 0.381353 1
0.18497 0.71397 1
0.188373 0.693172 1
0.192264 0.678065 1
0.254749 0.669154 1
0.479744 0.622263 1
0.683375 0.598505 1
0.986511 0.549722 1
1 0.535882 1
1 0.523659 1
0 0.914076 1
0 0.892989 1
0.013077 0.870161 1
0.0398871 0.871946 1
0.328618 0.813169 1
0.547921 0.786755 1
0.817441 0.75108 1
1 0.730694 1
1 0.726284 1
0 1 1
0 1 1
0 1 1
0 1 1
0.183444 1 1
0.435386 0.984543 1
0.699489 0.956985 1
0.949752 0.924483 1
1 0.913054 1
0 1 1
0 1 1
0 1 1
0 1 1
0 1 1
0.36907 1 1
0.619425 1 1
0.890349 1 0.979202
1 0.998474 0.947829
