public/sampleLut/9.cube
TITLE "Generated by Resolve"
LUT_3D_SIZE 33
0 0 0
0 0 0
0 0 0
0.00624094 0.000595102 0
0.0302281 0 0
0.0767529 0 0
0.16347 0 0
0.248249 0 0
0.304921 0 0
0.356756 0 0
0.408957 0 0.00125124
0.466514 0 0.0081178
0.528237 0.00672923 0.0151827
0.594339 0.0165103 0.0220493
0.665782 0.0273899 0.0291752
0.731975 0.033875 0.0340887
0.790204 0.0370642 0.0368048
0.84155 0.0359045 0.0360571
0.879866 0.0334783 0.0344091
0.912062 0.0303655 0.0320439
0.945113 0.0263981 0.0293278
0.979873 0.0224155 0.0261387
1 0.0178836 0.023682
1 0.0126802 0.0207218
1 0.00732433 0.0174258
1 0.00192264 0.0143893
1 0 0.0107729
1 0 0.00721752
1 0 0.00381476
1 0 0
1 0.0454719 0
1 0.115267 0
1 0.170184 0
0 0 0
0 0 0
0 0 0
0 0.000747692 0
0.0223087 0 0
0.0576028 0 0
0.136385 0 0
0.226703 0 0
0.289189 0 0
0.341955 0 0
0.393408 0 0
0.449012 0 0.0059205
0.510414 0.00445563 0.0134585
0.574609 0.0132296 0.0198215
0.644938 0.0242313 0.0270848
0.713207 0.0327153 0.0331121
0.773724 0.0365759 0.0360723
0.827634 0.036759 0.0366674
0.870237 0.0340887 0.0348058
0.902174 0.0314336 0.0327001
0.935012 0.0276036 0.0301823
0.969818 0.0231479 0.0270848
1 0.0193027 0.0241703
1 0.014374 0.0216831
1 0.00910964 0.0185092
1 0.00317388 0.0150454
1 0 0.01178
1 0 0.00833143
1 0 0.00456245
1 0 0.00108339
1 0.0241093 0
1 0.0968338 0
1 0.155825 0
0 0 0
0 0 0
0 0 0
0 0 0
0.0150454 0.00030518 0
0.0431678 0 0
0.110246 0 0
0.203555 0 0
0.272877 0 0
0.326818 0 0
0.377005 0 0
0.428855 0 0.00360113
0.484688 0.00148013 0.0102693
0.548577 0.00981155 0.0174258
0.619089 0.0204166 0.0244297
0.690715 0.0302739 0.0312505
0.754711 0.0355688 0.0354314
0.810712 0.0367742 0.0366522
0.858656 0.0352026 0.0355535
0.893584 0.032105 0.0333562
0.925246 0.0288396 0.0308232
0.959396 0.0247044 0.0280461
0.994461 0.0202182 0.0252232
1 0.0157168 0.0224155
1 0.0106966 0.0195773
1 0.00515755 0.0160678
1 0 0.0128481
1 0 0.00918593
1 0 0.00575265
1 0 0.00218204
1 0.00296025 0
1 0.0746014 0
1 0.140291 0
0 0 0
0 0 0
0 0 0
0 0 0
0.00810254 0.000503548 0
0.0326696 0 0
0.0855726 0 0
0.173602 0 0
0.251438 0 0
0.304891 0 0
0.354147 0 0
0.40415 0 0.0009308
0.458259 0 0.00706493
0.518532 0.00541695 0.0140993
0.587625 0.0157473 0.0214694
0.660639 0.0265965 0.0286259
0.727169 0.0334325 0.0337377
0.785687 0.0367285 0.0366827
0.836591 0.0361944 0.036286
0.87602 0.0341497 0.0346532
0.910079 0.0305791 0.0321965
0.947265 0.0260624 0.0290684
0.988327 0.0208896 0.0256199
1 0.0158236 0.0226291
1 0.0111696 0.019501
1 0.00576791 0.0167391
1 7.62951e-05 0.0133364
1 0 0.010193
1 0 0.00682078
1 0 0.00335698
1 0 0
1 0.0533455 0
1 0.122774 0
0 0.0207523 0
0 0.0184634 0
0 0.0157321 0
0 0.0124056 0
0.00149538 0.00775158 0
0.021561 0.0049897 0
0.057847 0 0
0.139376 0 0
0.225132 0 0
0.2822 0 0
0.332097 0 0
0.38056 0 0
0.432776 0 0.00410468
0.490929 0.00221256 0.0111238
0.557076 0.0107424 0.0180972
0.631586 0.0221714 0.0259251
0.703151 0.0315557 0.0322271
0.764797 0.0362554 0.0357214
0.820661 0.0370489 0.0368963
0.869093 0.0340887 0.0348821
0.911955 0.0303655 0.0320439
0.95494 0.0252537 0.0282902
1 0.01944 0.0246891
1 0.0140078 0.021561
1 0.00810254 0.0178378
1 0.00164797 0.0145571
1 0 0.0108339
1 0 0.00756847
1 0 0.00424201
1 0 0.000701915
1 0.0211032 0
1 0.0835737 0
1 0.137835 0
0 0.0354162 0
0 0.0341039 0
0 0.0304723 0
0 0.0255131 0
0 0.0205386 0
0.0121614 0.0181125 0
0.0387121 0.0132601 0
0.109957 0 0
0.203616 0 0
0.267033 0 0
0.317571 0 0
0.366354 0 0
0.41709 0 0.00224308
0.473426 0.000289921 0.0089723
0.538674 0.00799573 0.0164034
0.613352 0.0193942 0.0238651
0.690394 0.0302434 0.0312352
0.759075 0.0354162 0.0354314
0.821973 0.0372015 0.0368658
0.880751 0.033402 0.0343481
0.933211 0.0278782 0.0303502
0.98529 0.0216983 0.0258335
1 0.0159457 0.0222477
1 0.00901808 0.0187533
1 0.00254826 0.0149538
1 0 0.0111086
1 0 0.00770581
1 0 0.00430304
1 0 0.000991836
1 0.0133822 0
1 0.0720836 0
1 0.127108 0
1 0.170016 0
0 0.0508736 0
0 0.0486915 0
0 0.0460517 0
0 0.0403601 0
0 0.0349126 0
0.00106813 0.0318608 0
0.0240482 0.0281071 0
0.0786603 0.0164187 0
0.173602 0 0
0.251621 0 0
0.306935 0 0
0.358038 0 0
0.411429 0 0.00154116
0.472618 0.000213626 0.00888075
0.5411 0.00833143 0.0166476
0.618647 0.0203403 0.0243839
0.699672 0.0312352 0.0319677
0.775235 0.0363775 0.0360266
0.852201 0.0355535 0.0358129
0.928023 0.0288396 0.0307164
0.98883 0.0208286 0.0255741
1 0.0152743 0.0218357
1 0.00888075 0.0181735
1 0.00163272 0.0145724
1 0 0.0107729
1 0 0.00766003
1 0 0.00477607
1 0 0.000366217
1 0.0030518 0
1 0.0546273 0
1 0.106996 0
1 0.150896 0
1 0.188861 0
0 0.0710155 0
0 0.0684215 0
0 0.0661173 0
0 0.0611124 0
0 0.0563211 0
0 0.0532235 0
0 0.0509194 0
0.0455329 0.0418097 0
0.134936 0.0233463 0
0.230915 0.00335698 0
0.294224 0 0
0.35613 0 0
0.415442 0 0.00199893
0.481331 0.0010071 0.00976577
0.555673 0.0106813 0.0180514
0.636378 0.0226749 0.0262303
0.720699 0.0330663 0.0333562
0.803265 0.0370794 0.0367132
0.897826 0.0320439 0.0328679
0.990417 0.0206149 0.0254368
1 0.0132143 0.0211032
1 0.0132753 0.0169985
1 0.0171664 0.0123445
1 0.022034 0.00794995
1 0.0255283 0.00328069
1 0.0276188 0
1 0.0300603 0
1 0.0310063 0
1 0.0477607 0
1 0.0982376 0
1 0.141421 0
1 0.178225 0
1 0.21181 0
0 0.102312 0
0 0.098436 0
0 0.0944076 0
0 0.0895399 0
0 0.0849622 0
0 0.0825666 0
0 0.0836194 0
0.00630198 0.082002 0
0.0818799 0.0686351 0
0.192828 0.0499123 0
0.270939 0.0403601 0
0.334936 0.0369726 0
0.408637 0.0444343 0.00410468
0.487388 0.0555734 0.0128328
0.566476 0.0686503 0.0204623
0.648768 0.0819104 0.0282292
0.731762 0.0875563 0.0331121
0.820874 0.0869154 0.0340734
0.92639 0.0764782 0.0268101
1 0.0663462 0.0179446
1 0.0632181 0.011902
1 0.0647135 0.00650034
1 0.0664073 0.00172427
1 0.0675822 0
1 0.0679942 0
1 0.0687419 0
1 0.0692149 0
1 0.0687572 0
1 0.0849317 0
1 0.130495 0
1 0.167941 0
1 0.202243 0
1 0.233524 0
0 0.149874 0
0 0.143771 0
0 0.138354 0
0 0.133867 0
0 0.132967 0
0 0.132387 0
0 0.136385 0
0 0.141131 0
0.027924 0.137362 0
0.140749 0.121752 0
0.236378 0.113176 0
0.310658 0.114748 0
0.385641 0.122255 0.00350958
0.466316 0.13962 0.0102541
0.551949 0.160006 0.0169985
0.628199 0.165286 0.021973
0.706752 0.164874 0.0250553
0.792584 0.160281 0.0256352
0.896254 0.147021 0.0187686
0.996597 0.131533 0.00888075
1 0.123171 0.00247196
1 0.119921 0
1 0.118013 0
1 0.117388 0
1 0.116335 0
1 0.115206 0
1 0.114427 0
1 0.112215 0
1 0.110872 0
1 0.144686 0
1 0.183032 0
1 0.216785 0
1 0.248615 0
0 0.211002 0
0 0.202884 0
0 0.194949 0
0 0.188388 0
0 0.192737 0
0 0.197131 0
0 0.205356 0
0 0.215305 0
0 0.219379 0
0.0984817 0.211048 0
0.216541 0.2056 0
0.297856 0.210452 0.000122072
0.372107 0.217151 0.00404364
0.441291 0.223087 0.00805676
0.510384 0.228916 0.012192
0.585336 0.23888 0.0158541
0.659327 0.23801 0.0178988
0.736492 0.230396 0.0184482
0.822156 0.219486 0.0160525
0.924117 0.202289 0.00610361
1 0.189593 0
1 0.183688 0
1 0.180941 0
1 0.178332 0
1 0.176394 0
1 0.173678 0
1 0.171145 0
1 0.167773 0
1 0.164965 0
1 0.162219 0
1 0.171145 0
1 0.21471 0
1 0.248096 0
0 0.296208 0.00704967
0 0.285847 0.0056611
0 0.275883 0.00425727
0 0.265827 0.00300603
0 0.270787 0.00364691
0 0.279622 0.004654
0 0.291035 0.00613413
0 0.305089 0.00846876
0 0.313146 0.00952163
0.0952316 0.304845 0.00642405
0.218082 0.292622 0.00407416
0.300679 0.291951 0.0056611
0.368811 0.293309 0.00808728
0.429587 0.293187 0.0100099
0.488594 0.292073 0.0123598
0.547265 0.289799 0.0141451
0.614893 0.290288 0.0157473
0.693645 0.288228 0.0161288
0.769863 0.279927 0.0149844
0.856886 0.266636 0.00830091
0.946441 0.252476 0
1 0.245579 0
1 0.24213 0
1 0.240269 0
1 0.238041 0
1 0.235874 0
1 0.232654 0
1 0.229938 0
1 0.226749 0
1 0.223026 0
1 0.19353 0
1 0.193378 0
1 0.230213 0
0 0.381277 0.0195163
0 0.373419 0.018677
0 0.365164 0.017319
0 0.356527 0.0159304
0 0.355612 0.0157931
0 0.363745 0.0171359
0 0.370184 0.0178836
0 0.37998 0.0192416
0.00706493 0.386923 0.0197452
0.0891737 0.379355 0.0162814
0.209583 0.361791 0.0111696
0.294194 0.352544 0.0103304
0.35877 0.348821 0.01149
0.417426 0.34551 0.0123445
0.473716 0.343008 0.0136263
0.529839 0.339681 0.0150149
0.588174 0.33518 0.0156863
0.655131 0.330877 0.0161135
0.7364 0.327245 0.0150301
0.822507 0.318502 0.0103151
0.911879 0.304158 0.000656138
0.979553 0.295827 0
1 0.292927 0
1 0.291417 0
1 0.289586 0
1 0.287709 0
1 0.28571 0
1 0.28304 0
1 0.260914 0
1 0.256504 0
1 0.252338 0
1 0.248005 0
1 0.243305 0
0.00062562 0.444831 0.0265049
0 0.438163 0.0258335
0 0.432197 0.025452
0 0.425467 0.024567
0 0.421012 0.0239567
0 0.426169 0.0246433
0 0.429557 0.0249943
0 0.435126 0.025742
0.00679026 0.439216 0.0258183
0.0690013 0.434363 0.0225528
0.185595 0.416464 0.0165866
0.280995 0.402808 0.0140993
0.346242 0.397131 0.0141909
0.404715 0.392905 0.0148623
0.4598 0.389364 0.0153048
0.514824 0.385458 0.0161898
0.571237 0.38088 0.0166934
0.632288 0.374945 0.0167849
0.700832 0.366766 0.0158083
0.782971 0.36083 0.0130617
0.882048 0.351202 0.00392157
0.960983 0.341238 0
1 0.337789 0
1 0.336034 0
1 0.334478 0
1 0.332586 0
1 0.33048 0
1 0.310658 0
1 0.307652 0
1 0.304433 0
1 0.301167 0
1 0.297642 0
1 0.294057 0
0.000427253 0.493263 0.0303807
0.000595102 0.488411 0.0301061
0.000350958 0.483421 0.0295262
0.000350958 0.478233 0.0290532
0.000793469 0.473121 0.0289769
0.000595102 0.474525 0.0288853
0.000320439 0.476463 0.0288853
0.000427253 0.479973 0.0292973
0.00292973 0.48426 0.029572
0.0527352 0.482002 0.0272831
0.155306 0.466636 0.0213169
0.262562 0.44947 0.0174411
0.332189 0.4421 0.0167239
0.391058 0.436896 0.0168002
0.446555 0.432715 0.0169528
0.500786 0.428946 0.017731
0.555581 0.423987 0.0179141
0.614557 0.418372 0.0180514
0.680079 0.410574 0.0173495
0.751598 0.400946 0.0151217
0.838834 0.390463 0.00880446
0.9364 0.382239 0
0.998672 0.380316 0
1 0.378439 0
1 0.37673 0
1 0.358724 0
1 0.356313 0
1 0.353277 0
1 0.350484 0
1 0.347066 0
1 0.34403 0
1 0.34049 0
1 0.337148 0
0 0.537881 0.0329137
0 0.533211 0.0324712
0 0.528435 0.0320897
0 0.523751 0.0322118
0 0.51873 0.0320592
0 0.51809 0.0320287
0 0.5196 0.0319524
0 0.521813 0.0320134
0 0.525811 0.0321813
0.0365911 0.525917 0.0300908
0.125887 0.514061 0.0254826
0.240223 0.495171 0.0201419
0.316808 0.485283 0.0184939
0.377111 0.479408 0.018616
0.432837 0.474693 0.0185245
0.486091 0.470283 0.0188449
0.54052 0.465675 0.0192874
0.597757 0.460227 0.0193484
0.661112 0.45275 0.0186618
0.731106 0.443626 0.0174716
0.808743 0.432471 0.0128634
0.900328 0.418677 0.0033875
0.977829 0.415091 0
1 0.417868 0
1 0.402228 0
1 0.399649 0
1 0.396902 0
1 0.394125 0
1 0.391089 0
1 0.388251 0
1 0.385107 0
1 0.381888 0
1 0.378607 0
0 0.581155 0.0341192
0 0.576501 0.0340581
0 0.571908 0.0340429
0 0.566964 0.0339971
0 0.562692 0.0341039
0 0.559915 0.0334478
0 0.561303 0.0338445
0 0.562722 0.0341039
0 0.565988 0.0338598
0.0238956 0.567742 0.032578
0.0952468 0.559472 0.028275
0.212222 0.540307 0.0222782
0.299336 0.527672 0.0205692
0.361944 0.521263 0.0201419
0.418112 0.515862 0.0199741
0.471931 0.511269 0.0204013
0.525597 0.506691 0.0208743
0.581552 0.501411 0.0207218
0.643 0.494438 0.0204013
0.711086 0.48574 0.0191806
0.786435 0.475227 0.0162051
0.87483 0.461326 0.00794995
0.955337 0.449241 0
1 0.444495 0
1 0.442222 0
1 0.439872 0
1 0.437064 0
1 0.434348 0
1 0.431434 0
1 0.428305 0
1 0.425498 0
1 0.422599 0
1 0.419333 0
0 0.624613 0.035172
0 0.620081 0.0352026
0 0.615106 0.0348974
0 0.610636 0.0346075
0 0.605615 0.0347143
0 0.601144 0.0347143
0 0.602289 0.0347448
0 0.603479 0.0347601
0 0.605875 0.0347295
0.0124514 0.608545 0.0336614
0.0658122 0.603693 0.0307012
0.177508 0.586252 0.0250248
0.278706 0.569848 0.0218967
0.344701 0.562463 0.0211337
0.40238 0.556924 0.021622
0.456504 0.552056 0.0217136
0.509941 0.547356 0.0223545
0.565118 0.542214 0.0223239
0.624613 0.535882 0.0225071
0.691524 0.527687 0.0220645
0.763928 0.517815 0.0200046
0.849592 0.504753 0.0129702
0.936141 0.49102 0.00364691
0.995163 0.484611 0
1 0.481575 0
1 0.479774 0
1 0.476753 0
1 0.474083 0
1 0.471366 0
1 0.468391 0
1 0.465537 0
1 0.462547 0
1 0.459678 0
0 0.669856 0.0357519
0 0.664958 0.0354009
0 0.660075 0.0352789
0 0.655009 0.0352789
0 0.650004 0.0354467
0 0.645106 0.035462
0 0.644572 0.0355688
0 0.645182 0.0354467
0 0.646647 0.0353552
0 0.649714 0.0348211
0.0404669 0.647852 0.0323796
0.137957 0.633433 0.0271458
0.251286 0.614069 0.0229953
0.324422 0.604242 0.0223087
0.383917 0.598245 0.0225834
0.439521 0.593225 0.0230411
0.49337 0.588418 0.0238346
0.54757 0.583291 0.0240482
0.605356 0.577432 0.0246128
0.67039 0.569696 0.0240787
0.741543 0.560464 0.0230106
0.822568 0.548348 0.0184024
0.9122 0.533639 0.00921645
0.979446 0.525093 0.00262455
1 0.521904 0
1 0.519402 0
1 0.517037 0
1 0.514229 0
1 0.511543 0
1 0.508965 0
1 0.505943 0
1 0.503258 0
1 0.500328 0
0 0.716075 0.0345769
0 0.710658 0.0346227
0 0.706096 0.0350958
0 0.700648 0.0350805
0 0.696025 0.0356603
0 0.690684 0.0348974
0 0.688289 0.0348211
0 0.688807 0.0348058
0 0.689097 0.0348669
0 0.692546 0.0348974
0.0154269 0.693095 0.0337224
0.0956741 0.681758 0.0293889
0.215885 0.660822 0.024445
0.300084 0.648463 0.0233463
0.362249 0.641428 0.0234073
0.418845 0.635798 0.0238193
0.473716 0.630869 0.0252384
0.527779 0.625589 0.0256809
0.584436 0.619913 0.026688
0.647425 0.612543 0.0265202
0.716976 0.603555 0.0260777
0.794125 0.592645 0.0231937
0.88307 0.578164 0.0152285
0.959854 0.56701 0.00727855
1 0.56289 0.0031281
1 0.560403 0
1 0.558175 0
1 0.555459 0
1 0.552972 0
1 0.550179 0
1 0.547402 0
1 0.544625 0
1 0.541848 0
0 0.762142 0.0317998
0 0.757305 0.032517
0 0.752026 0.0331121
0 0.747097 0.0335699
0 0.742031 0.0332036
0 0.73695 0.0337377
0 0.732845 0.0339971
0 0.733349 0.0339666
0 0.733654 0.0339666
0 0.735943 0.033753
0 0.737987 0.0331579
0.0492561 0.731121 0.0298314
0.169299 0.710323 0.0247196
0.269276 0.694041 0.02327
0.335134 0.686091 0.0235142
0.394018 0.679957 0.0248875
0.448966 0.674418 0.0256504
0.503868 0.669154 0.026627
0.559899 0.663462 0.0280156
0.620569 0.656611 0.0284428
0.688746 0.647852 0.0288701
0.761837 0.637949 0.0276951
0.84712 0.624933 0.021912
0.93196 0.611765 0.013077
0.989654 0.605982 0.00830091
1 0.603006 0.00480659
1 0.600977 0.00181582
1 0.598032 0
1 0.595621 0
1 0.592874 0
1 0.590127 0
1 0.587411 0
1 0.584649 0
0 0.810056 0.0222477
0 0.805249 0.0240482
0 0.799588 0.0253758
0 0.794644 0.026978
0 0.788968 0.0277562
0 0.783825 0.0293126
0 0.778531 0.0302586
0 0.778256 0.0302892
0 0.778546 0.0302434
0 0.780194 0.029984
0 0.783444 0.0294041
0.0107424 0.780087 0.0274968
0.114214 0.76231 0.0240177
0.232364 0.741634 0.0225223
0.304524 0.731975 0.0228885
0.365469 0.725277 0.0238346
0.422248 0.719646 0.0253147
0.476783 0.714153 0.0265507
0.53283 0.708659 0.0286259
0.591943 0.702205 0.0296483
0.657954 0.694057 0.0306859
0.729397 0.684627 0.0305486
0.806958 0.673594 0.0274815
0.894255 0.660166 0.0200198
0.960876 0.65182 0.0142672
1 0.648753 0.0111849
1 0.646525 0.00782788
1 0.64387 0.00453193
1 0.641108 0.00192264
1 0.638422 0
1 0.635523 0
1 0.632624 0
1 0.629633 0
0 0.861234 0.00276188
0 0.855253 0.00500496
0 0.850019 0.00741588
0 0.844266 0.00978103
0 0.838941 0.0124666
0 0.833295 0.0138857
0 0.827863 0.0164645
0 0.825956 0.0171817
0 0.826413 0.0169985
0 0.827115 0.0167391
0 0.830549 0.0146944
0 0.831342 0.0133974
0.0505226 0.816358 0.0134585
0.185 0.792538 0.0155032
0.270665 0.779187 0.0177005
0.334951 0.771435 0.0201572
0.393423 0.765515 0.0224765
0.44921 0.760174 0.0254978
0.504128 0.754498 0.0273594
0.562478 0.748409 0.0294347
0.62681 0.74081 0.031693
0.696696 0.731975 0.0327764
0.769451 0.722194 0.0324865
0.851301 0.709819 0.0268559
0.926543 0.699611 0.0202029
0.978302 0.695521 0.0165866
1 0.693507 0.013901
1 0.690852 0.0103761
1 0.688151 0.00788891
1 0.685557 0.00561532
1 0.682658 0.00332647
1 0.679759 0.00148013
1 0.676997 0
0 0.910338 0
0 0.905089 0
0 0.899977 0
0 0.894591 0
0 0.888869 0
0 0.884123 0
0 0.878264 0
0 0.874815 0
0 0.875242 0
0 0.875517 0
0 0.87895 0
0 0.882078 0
0 0.87245 0
0.122957 0.847547 0
0.227298 0.829831 0.00291447
0.297032 0.820752 0.00709545
0.358663 0.813794 0.0115358
0.416678 0.807828 0.016022
0.473564 0.802243 0.0201877
0.531106 0.796124 0.0245365
0.594873 0.788785 0.0285954
0.664027 0.779446 0.0316167
0.735698 0.770077 0.0339208
0.81239 0.759319 0.0310216
0.890318 0.748287 0.0249638
0.947814 0.742519 0.0203861
0.991821 0.740291 0.0180362
1 0.738445 0.0157321
1 0.736248 0.0136721
1 0.734249 0.0114748
1 0.73167 0.00981155
1 0.729397 0.00860609
1 0.727642 0.0080415
0 0.954742 0
0 0.949752 0
0 0.945174 0
0 0.940398 0
0 0.93576 0
0 0.930877 0
0 0.925719 0
0 0.92105 0
0 0.92192 0
0 0.922667 0
0 0.925093 0
0 0.929 0
0 0.924712 0
0.0532998 0.904326 0
0.180606 0.882445 0
0.255299 0.871931 0
0.319203 0.864469 0
0.379095 0.858106 0
0.437201 0.852033 0.00390631
0.495338 0.845808 0.00982681
0.557885 0.838254 0.015671
0.627863 0.828977 0.0222019
0.700526 0.818936 0.027512
0.774624 0.808515 0.028809
0.853208 0.797421 0.0254978
0.916518 0.790631 0.0214542
0.962524 0.788434 0.0189975
1 0.787503 0.0163577
1 0.786145 0.0151064
1 0.784772 0.0142672
1 0.783902 0.0143282
1 0.783062 0.0140993
1 0.781994 0.0146334
0 0.997406 0
0 0.992813 0
0 0.988251 0
0 0.983505 0
0 0.978836 0
0 0.974182 0
0 0.96968 0
0 0.96495 0
0 0.964096 0
0 0.964828 0
0 0.966217 0
0 0.970199 0
0 0.969757 0
0.0119783 0.95407 0
0.138918 0.931517 0
0.222034 0.9196 0
0.287114 0.912383 0
0.346273 0.906447 0
0.403418 0.900649 0
0.461524 0.894591 0
0.522133 0.887739 0
0.59086 0.879149 0.00621042
0.66389 0.868864 0.0131685
0.737575 0.859022 0.0193332
0.816892 0.847944 0.0186007
0.885771 0.840848 0.0165713
0.935241 0.839033 0.0151827
0.977127 0.839353 0.0140383
1 0.839506 0.0139467
1 0.839063 0.0141146
1 0.839231 0.014374
1 0.839673 0.0163424
1 0.839872 0.0181125
0 1 0
0 1 0
0 1 0
0 1 0
0 1 0
0 1 0
0 1 0
0 1 0
0 1 0
0 1 0
0 1 0
0 1 0
0 1 0
0 1 0
0.102617 0.977996 0
0.199542 0.963806 0
0.266194 0.955779 0
0.325429 0.949767 0
0.382696 0.944549 0
0.439307 0.939467 0
0.497856 0.933516 0
0.563195 0.926116 0
0.63563 0.917601 0.00187686
0.710887 0.908446 0.00953689
0.791043 0.898741 0.0133211
0.866239 0.890547 0.0117647
0.91928 0.888594 0.0113222
0.95906 0.890303 0.0116274
1 0.891783 0.0131533
1 0.892897 0.0143893
1 0.893675 0.0159152
1 0.894835 0.0188754
1 0.895842 0.020737
0 1 0
0 1 0
0 1 0
0 1 0
0 1 0
0 1 0
0 1 0
0 1 0
0 1 0
