public/sampleLut/9.cube
TITLE "Generated by Resolve"
LUT_3D_SIZE 5
0 0 0
0.304921 0 0
0.790204 0.0370642 0.0368048
1 0.00732433 0.0174258
1 0.170184 0
0 0.102312 0
0.0818799 0.0686351 0
0.731762 0.0875563 0.0331121
1 0.0679942 0
1 0.233524 0
0 0.581155 0.0341192
0 0.565988 0.0338598
0.525597 0.506691 0.0208743
1 0.442222 0
1 0.419333 0
0 0.954742 0
0 0.92192 0
0.319203 0.864469 0
0.853208 0.797421 0.0254978
1 0.781994 0.0146334
0 1 0
0 1 0
0.0569467 1 0
0.673838 1 0
1 1 0
0.0226596 0 0.300221
0.281468 0 0.231617
0.746624 0.0349279 0.146899
1 0.00564584 0.0728008
1 0.197116 0.106401
0 0.0901961 0.0581369
0.0757153 0.0681163 0.0496529
0.733593 0.0921035 0.0777142
1 0.0643778 0.0795605
1 0.229541 0.0870375
0 0.578225 0.0341039
0 0.558923 0.0333715
0.517403 0.499519 0.020264
1 0.432166 0
1 0.408392 0
0 0.94493 0
0 0.908995 0
0.312428 0.850263 0
0.840284 0.784283 0.0282597
1 0.764157 0.0130007
0 1 0
0 1 0
0.0430457 1 0
0.662562 1 0.00520333
1 1 0
0.0589456 0 0.702419
0.2963 0 0.613062
0.719951 0.0357824 0.578378
1 0.00196841 0.56878
1 0.251438 0.595346
0.0412604 0.0610666 0.51104
0.117281 0.0522011 0.522087
0.711681 0.0824598 0.589685
1 0.0429847 0.549722
1 0.248585 0.518074
0 0.563241 0.512764
0 0.543191 0.497093
0.502205 0.48632 0.446235
1 0.417792 0.387137
1 0.394476 0.374365
0 0.931838 0.33109
0 0.894026 0.308171
0.302037 0.837186 0.283848
0.827176 0.772244 0.253208
1 0.750195 0.227146
0 1 0.177264
0 1 0.149859
0.0137331 1 0.117021
0.653696 1 0.0840314
1 1 0
0.355032 0 1
0.311849 0 1
0.731273 0.017319 0.9131
1 0.0902419 1
1 0.36199 1
0.161089 0.0714275 1
0.29575 0.0585794 1
0.727352 0.0562142 1
1 0.175204 1
1 0.351736 1
0.157229 0.540978 1
0.161334 0.517494 1
0.52137 0.461784 0.945052
1 0.395636 0.887526
1 0.371313 0.902937
0 0.915373 0.815488
0 0.876814 0.764508
0.295125 0.822766 0.722881
0.811536 0.761852 0.68127
1 0.739864 0.661311
0 1 0.629801
0 1 0.589426
0 1 0.567971
0.645594 1 0.558663
1 1 0.491081
0.588495 0 1
0.558083 0 1
0.733104 0.00216678 1
1 0.258701 1
1 0.444999 1
0.560143 0 1
0.626993 0 1
0.757717 0.102113 1
1 0.284733 1
1 0.423239 1
0.1832 0.540169 1
0.18294 0.513878 1
0.542504 0.45684 1
1 0.380652 1
1 0.381353 1
0 0.914076 1
0.013077 0.870161 1
0.328618 0.813169 1
0.817441 0.75108 1
1 0.726284 1
0 1 1
0 1 1
0 1 1
0.619425 1 1
1 0.998474 0.947829
