sample/Serpent_blackmagic.cube
TITLE "Generated by Resolve"
LUT_3D_SIZE 5
0 0 0
0.107225 0.0173495 0.0290074
0.536995 0 0
1 0 0
1 0 0
0 0.131319 0
0.109056 0.199756 0
0.827482 0.110323 0
1 0.0455634 0
1 0.0437781 0
0 0.658732 0
0 0.645838 0
0.564385 0.564385 0
1 0.506264 0
1 0.505455 0
0 1 0
0 1 0
0.367376 0.986465 0
0.913344 0.913344 0
1 0.888533 0
0 1 0
0 1 0
0.26067 1 0
0.808591 1 0
1 1 0
0 0 0
0.109071 0.0124514 0.117403
0.559518 0 0.165621
1 0 0.141726
1 0 0.122713
0 0.135729 0.142321
0.0876478 0.189349 0.207004
0.818097 0.101061 0.130236
1 0.0389105 0.0751812
1 0.0377508 0.0736095
0 0.652354 0
0 0.639048 0
0.558053 0.558053 0
1 0.500359 0
1 0.498726 0
0 1 0
0 1 0
0.354742 0.975723 0
0.900038 0.900023 0
1 0.87277 0
0 1 0
0 1 0
0.233539 1 0
0.789715 1 0
1 1 0
0 0 0
0.0928511 0.000183108 0.29929
0.565484 0 0.565484
1 0 0.673671
1 0 0.749187
0 0.123171 0.456672
0.0261387 0.154574 0.840543
0.784024 0.0673533 0.784024
1 0.007187 0.72256
1 0.0059968 0.719692
0 0.620661 0.620645
0 0.606607 0.606592
0.526543 0.526543 0.526543
1 0.469017 0.469017
1 0.466239 0.466255
0 1 0.421683
0 1 0.406531
0.306142 0.939467 0.325811
0.861234 0.861234 0.259022
1 0.831678 0.235492
0 1 0.370642
0 1 0.335943
0.165393 1 0.244266
0.746197 1 0.166415
1 1 0.134798
0 0 0
0.0792248 0 0.484184
0.582605 0 0.995666
1 0 1
1 0 1
0 0.115816 0.817044
0 0.12546 1
0.757061 0.0407568 1
1 0 1
1 0 1
0 0.594934 1
0 0.580606 1
0.501305 0.501305 1
1 0.44361 1
1 0.439323 1
0 1 1
0 1 1
0.262089 0.908248 0.908248
0.827634 0.827634 0.827634
1 0.796063 0.796078
0 1 0.957641
0 1 0.912474
0.101946 1 0.801938
0.708812 1 0.708812
1 1 0.670817
0 0 0
0.0805371 0 0.684016
0.621225 0 1
1 0 1
1 0 1
0 0.121981 1
0 0.117601 1
0.752621 0.0365606 1
1 0 1
1 0 1
0 0.5906 1
0 0.576608 1
0.49781 0.49781 1
1 0.439445 1
1 0.43299 1
0 1 1
0 0.996048 1
0.246983 0.897261 1
0.814343 0.814343 1
1 0.780972 1
0 1 1
0 1 1
0.0744488 1 1
0.692424 1 1
1 1 1
