sample/Serpent_blackmagic.cube
TITLE "Generated by Resolve"
LUT_3D_SIZE 33
0 0 0
0 0 0
0 0 0
0 0 0
0 0 0
0.00782788 0.00502022 0.00621042
0.0304265 0.0125887 0.0169223
0.0636912 0.0167849 0.0247044
0.107225 0.0173495 0.0290074
0.154864 0.0145266 0.0295262
0.193515 0.00965896 0.0268864
0.238361 0.00315862 0.0227665
0.288991 0 0.0172732
0.344594 0 0.0105592
0.404074 0 0.00288396
0.46804 0 0
0.536995 0 0
0.610239 0 0
0.685725 0 0
0.764324 0 0
0.843976 0 0
0.923293 0 0
1 0 0
1 0 0
1 0 0
1 0 0
1 0 0
1 0 0
1 0 0
1 0 0
1 0 0
1 0 0
1 0 0
0 0 0
0 0 0
0 0 0
0 0 0
0.00688182 0.00770581 0.00788891
0.022034 0.0166018 0.0171664
0.0484169 0.0237125 0.0247807
0.0872358 0.0272679 0.0290684
0.136873 0.0269474 0.0296788
0.194415 0.0230106 0.0268406
0.240085 0.0167849 0.0216526
0.290898 0.00888075 0.0149386
0.34757 0 0.0068513
0.409079 0 0
0.474113 0 0
0.543359 0 0
0.617456 0 0
0.695476 0 0
0.775387 0 0
0.857847 0 0
0.940566 0 0
1 0 0
1 0 0
1 0 0
1 0 0
1 0 0
1 0 0
1 0 0
1 0 0
1 0 0
1 0 0
1 0 0
1 0 0
0 0 0
0 0 0
0.00047303 0.00047303 0.00047303
0.00428779 0.0118868 0.0100252
0.0135348 0.0221256 0.0180972
0.0327153 0.0306401 0.0231632
0.0599222 0.0368811 0.0279088
0.10367 0.0400092 0.0285191
0.158846 0.0390326 0.0255131
0.224079 0.0345006 0.0192111
0.279484 0.0270237 0.0113985
0.336019 0.0178836 0.00234989
0.398444 0.00723278 0
0.465507 0 0
0.535683 0 0
0.609766 0 0
0.688457 0 0
0.770718 0 0
0.854398 0 0
0.939849 0 0
1 0 0
1 0 0
1 0 0
1 0 0
1 0 0
1 0 0
1 0 0
1 0 0
1 0 0
1 0 0
1 0 0
1 0 0
1 0 0
0 0 0
0 0.00456245 0.00344854
0 0.0172427 0.0119783
0.00251774 0.0290379 0.0189059
0.0149233 0.0396735 0.0221714
0.0415198 0.0480964 0.0193942
0.0858167 0.0525826 0.00973526
0.113848 0.0560006 0.0234073
0.174701 0.0544747 0.0168307
0.245701 0.0489815 0.00732433
0.310933 0.0404822 0
0.373663 0.030518 0
0.441459 0.0188449 0
0.513634 0.00608835 0
0.588434 0 0
0.666758 0 0
0.74934 0 0
0.834974 0 0
0.921553 0 0
1 0 0
1 0 0
1 0 0
1 0 0
1 0 0
1 0 0
1 0 0
1 0 0
1 0 0
1 0 0
1 0 0
1 0 0
1 0 0
1 0 0
0 0.00920119 0.00576791
0 0.0240177 0.01355
0 0.0374304 0.0192264
0 0.0495003 0.0229648
0.0121462 0.0621805 0.0153506
0.0457618 0.0704509 0.00419623
0.0963149 0.0742504 0
0.115908 0.0754406 0.0134737
0.182834 0.0735332 0.00347906
0.260227 0.0674907 0
0.335729 0.0581369 0
0.402533 0.0470741 0
0.475105 0.0346075 0
0.552514 0.0214389 0
0.631251 0.00758373 0
0.713054 0 0
0.798642 0 0
0.886625 0 0
0.974701 0 0
1 0 0
1 0 0
1 0 0
1 0 0
1 0 0
1 0 0
1 0 0
1 0 0
1 0 0
1 0 0
1 0 0
1 0 0
1 0 0
1 0 0
0 0.0316777 0.0142367
0 0.0476081 0.0187839
0 0.0618143 0.0211337
0 0.0738537 0.0213779
0 0.0840772 0.0195163
0.037705 0.0970626 0
0.0532845 0.0971237 0.0084535
0.109041 0.0990005 0
0.182116 0.096849 0
0.265675 0.0904097 0
0.352041 0.0804608 0
0.423239 0.0687877 0
0.500038 0.0558022 0
0.580377 0.0420233 0
0.662089 0.0280461 0
0.74612 0.013611 0
0.833814 0 0
0.922332 0 0
1 0 0
1 0 0
1 0 0
1 0 0
1 0 0
1 0 0
1 0 0
1 0 0
1 0 0
1 0 0
1 0 0
1 0 0
1 0 0
1 0 0
1 0 0
0 0.0590829 0.0170443
0 0.0758831 0.0178378
0 0.090547 0.0165255
0 0.1028 0.0132753
0 0.113069 0.00798047
0 0.120882 0.000503548
0.0327306 0.125856 0
0.0923018 0.127459 0
0.171054 0.12517 0
0.260685 0.118532 0
0.356039 0.108324 0
0.433631 0.0962844 0
0.513649 0.0831159 0
0.59649 0.069337 0
0.679759 0.0556191 0
0.764401 0.0417029 0
0.851087 0.0274205 0
0.938048 0.0132296 0
1 0 0
1 0 0
1 0 0
1 0 0
1 0 0
1 0 0
1 0 0
1 0 0
1 0 0
1 0 0
1 0 0
1 0 0
1 0 0
1 0 0
1 0 0
0 0.0919966 0.012665
0 0.109545 0.00941482
0 0.124681 0.00428779
0 0.137438 0
0 0.147631 0
0 0.155459 0
0.000183108 0.160357 0
0.063798 0.161791 0
0.146944 0.159365 0
0.243305 0.152682 0
0.345144 0.142473 0
0.431815 0.130327 0
0.51371 0.117296 0
0.597528 0.103914 0
0.680629 0.0908827 0
0.763989 0.0779431 0
0.848112 0.0649882 0
0.931136 0.0524758 0
1 0.0406806 0
1 0.0297398 0
1 0.0199741 0
1 0.0117037 0
1 0.0049897 0
1 0 0
1 0 0
1 0 0
1 0 0
1 0 0
1 0 0
1 0 0
1 0 0
1 0 0
1 0 0
0 0.131319 0
0 0.149615 0
0 0.165301 0
0 0.178393 0
0 0.188754 0
0 0.196567 0
0 0.201282 0
0.0225071 0.202472 0
0.109056 0.199756 0
0.212573 0.193057 0
0.320455 0.182925 0
0.417212 0.170947 0
0.499519 0.158404 0
0.582574 0.145815 0
0.663722 0.133898 0
0.744869 0.122179 0
0.827482 0.110323 0
0.910277 0.0986343 0
0.992004 0.0874495 0
1 0.0770886 0
1 0.0678721 0
1 0.0601053 0
1 0.0538491 0
1 0.0490272 0
1 0.0455634 0
1 0.0433356 0
1 0.0421149 0
1 0.0416724 0
1 0.0417639 0
1 0.0422217 0
1 0.0428168 0
1 0.0433509 0
1 0.0437781 0
0 0.178576 0
0 0.197513 0
0 0.213535 0
0 0.226749 0
0 0.237171 0
0 0.244556 0
0 0.248844 0
0 0.249485 0
0.0593576 0.246281 0
0.168704 0.239292 0
0.282506 0.229206 0
0.390723 0.217578 0
0.472892 0.205753 0
0.555673 0.193942 0
0.637186 0.182681 0
0.718914 0.171572 0
0.802075 0.160266 0
0.885359 0.149111 0
0.967514 0.138415 0
1 0.128511 0
1 0.119692 0
1 0.112291 0
1 0.106371 0
1 0.101839 0
1 0.0986343 0
1 0.0966201 0
1 0.0955825 0
1 0.0952621 0
1 0.0954604 0
1 0.0959793 0
1 0.0965896 0
1 0.0971084 0
1 0.0974746 0
0 0.234455 0
0 0.25362 0
0 0.269581 0
0 0.282506 0
0 0.292424 0
0 0.299214 0
0 0.302556 0
0 0.302266 0
0 0.298161 0
0.112688 0.290486 0
0.234241 0.280339 0
0.349279 0.2692 0
0.44123 0.257801 0
0.524544 0.246509 0
0.606531 0.235737 0
0.688716 0.225086 0
0.772244 0.214221 0
0.855879 0.203464 0
0.938323 0.193118 0
1 0.18352 0
1 0.17499 0
1 0.167834 0
1 0.162112 0
1 0.157748 0
1 0.15465 0
1 0.152728 0
1 0.15172 0
1 0.151415 0
1 0.151568 0
1 0.15201 0
1 0.152514 0
1 0.152865 0
1 0.153048 0
0 0.298955 0
0 0.317617 0
0 0.332799 0
0 0.344717 0
0 0.353429 0
0 0.358816 0
0 0.360662 0
0 0.358679 0
0 0.353002 0
0.0533455 0.344961 0
0.180117 0.335256 0
0.301732 0.324514 0
0.406867 0.313405 0
0.490547 0.30251 0
0.572885 0.292103 0
0.65536 0.281773 0
0.739147 0.271168 0
0.82295 0.260639 0
0.905547 0.250492 0
0.985641 0.241062 0
1 0.232654 0
1 0.225589 0
1 0.219928 0
1 0.215595 0
1 0.212482 0
1 0.210513 0
1 0.209415 0
1 0.208972 0
1 0.208957 0
1 0.209201 0
1 0.209613 0
1 0.210025 0
1 0.210376 0
0 0.371099 0
0 0.388159 0
0 0.401511 0
0 0.411399 0
0 0.417853 0
0 0.420752 0
0 0.419959 0
0 0.415778 0
0 0.409857 0
0 0.402213 0
0.120821 0.392844 0
0.249943 0.38233 0
0.367239 0.371359 0
0.455177 0.360678 0
0.537697 0.350484 0
0.62031 0.340322 0
0.704189 0.329885 0
0.788037 0.319463 0
0.870619 0.309392 0
0.950652 0.300008 0
1 0.291585 0
1 0.284489 0
1 0.278752 0
1 0.274296 0
1 0.271031 0
1 0.268864 0
1 0.267597 0
1 0.267109 0
1 0.267185 0
1 0.267643 0
1 0.268269 0
1 0.268849 0
1 0.269368 0
0 0.448081 0
0 0.462074 0
0 0.472129 0
0 0.478523 0
0 0.481315 0
0 0.480537 0
0 0.477958 0
0 0.473976 0
0 0.468391 0
0 0.461036 0
0.0614786 0.451911 0
0.196323 0.44152 0
0.320378 0.430594 0
0.419867 0.419867 0
0.502449 0.409735 0
0.585046 0.399603 0
0.668864 0.389136 0
0.752621 0.378683 0
0.835035 0.368536 0
0.91487 0.35903 0
0.990845 0.350484 0
1 0.343206 0
1 0.337255 0
1 0.332662 0
1 0.329397 0
1 0.327367 0
1 0.326314 0
1 0.326009 0
1 0.326253 0
1 0.326863 0
1 0.327611 0
1 0.328298 0
1 0.328893 0
0 0.524956 0
0 0.534051 0
0 0.539178 0
0 0.540581 0
0 0.539956 0
0 0.538674 0
0 0.53637 0
0 0.532601 0
0 0.527199 0
0 0.519982 0
0.00579843 0.510964 0
0.142962 0.500603 0
0.273136 0.489647 0
0.386404 0.478737 0
0.468589 0.468589 0
0.551049 0.458381 0
0.634653 0.447807 0
0.718135 0.437171 0
0.800244 0.42681 0
0.879744 0.41709 0
0.955505 0.408423 0
1 0.40116 0
1 0.395377 0
1 0.390967 0
1 0.387869 0
1 0.385977 0
1 0.385061 0
1 0.384878 0
1 0.385199 0
1 0.38587 0
1 0.386664 0
1 0.387381 0
1 0.387961 0
0 0.596521 0
0 0.599207 0
0 0.599207 0
0 0.599115 0
0 0.598703 0
0 0.597574 0
0 0.595392 0
0 0.591714 0
0 0.586343 0
0 0.579141 0
0 0.570092 0
0.0867475 0.55967 0
0.223407 0.548516 0
0.344167 0.537377 0
0.434379 0.52694 0
0.516533 0.516518 0
0.599863 0.505776 0
0.683177 0.495109 0
0.76524 0.484855 0
0.844785 0.475334 0
0.920562 0.466865 0
0.991363 0.45977 0
1 0.454139 0
1 0.449851 0
1 0.446845 0
1 0.445045 0
1 0.44416 0
1 0.444007 0
1 0.444343 0
1 0.444984 0
1 0.445716 0
1 0.446357 0
1 0.446845 0
0 0.658732 0
0 0.65861 0
0 0.658671 0
0 0.658686 0
0 0.658335 0
0 0.657252 0
0 0.655039 0
0 0.651301 0
0 0.645838 0
0 0.638498 0
0 0.629267 0
0.028687 0.618631 0
0.16907 0.607172 0
0.295903 0.595804 0
0.39881 0.585199 0
0.480995 0.574929 0
0.564385 0.564385 0
0.64773 0.553887 0
0.729793 0.543786 0
0.809293 0.534401 0
0.884978 0.526055 0
0.955688 0.519066 0
1 0.513481 0
1 0.509239 0
1 0.506264 0
1 0.504433 0
1 0.503532 0
1 0.503304 0
1 0.503563 0
1 0.504082 0
1 0.504677 0
1 0.50515 0
1 0.505455 0
0 0.718379 0
0 0.718303 0
0 0.718364 0
0 0.718349 0
0 0.717922 0
0 0.716716 0
0 0.714351 0
0 0.710414 0
0 0.704707 0
0 0.697108 0
0 0.68777 0
0 0.677134 0
0.111452 0.665812 0
0.24567 0.654505 0
0.360922 0.643885 0
0.44625 0.633707 0
0.529625 0.623285 0
0.612894 0.612894 0
0.69485 0.602884 0
0.774197 0.593545 0
0.849729 0.585229 0
0.920256 0.578241 0
0.985443 0.572656 0
1 0.568383 0
1 0.565332 0
1 0.563409 0
1 0.562371 0
1 0.562005 0
1 0.562081 0
1 0.562402 0
1 0.562783 0
1 0.563012 0
1 0.563027 0
0 0.777584 0
0 0.777417 0
0 0.77734 0
0 0.777157 0
0 0.776501 0
0 0.775036 0
0 0.772473 0
0 0.768444 0
0 0.762768 0
0 0.755322 0
0 0.74609 0
0 0.735561 0
0.0560922 0.724315 0
0.195834 0.712993 0
0.317372 0.702358 0
0.413245 0.692103 0
0.496483 0.681727 0
0.579599 0.671351 0
0.661341 0.661341 0
0.740475 0.651987 0
0.815747 0.643626 0
0.885985 0.636576 0
0.950912 0.630884 0
1 0.62649 0
1 0.623285 0
1 0.621195 0
1 0.619959 0
1 0.619348 0
1 0.619165 0
1 0.619196 0
1 0.619272 0
1 0.61915 0
1 0.618814 0
0 0.835401 0
0 0.835004 0
0 0.834669 0
0 0.834318 0
0 0.833631 0
0 0.832242 0
0 0.829801 0
0 0.825879 0
0 0.820279 0
0 0.812879 0
0 0.803677 0
0 0.793149 0
0.00575265 0.781903 0
0.148165 0.770535 0
0.274983 0.759793 0
0.382879 0.749355 0
0.465888 0.738933 0
0.548745 0.728511 0
0.630182 0.718425 0
0.708995 0.70898 0
0.783932 0.700496 0
0.853819 0.693309 0
0.918379 0.687449 0
0.97789 0.682841 0
1 0.679408 0
1 0.677043 0
1 0.675517 0
1 0.674601 0
1 0.674083 0
1 0.673747 0
1 0.673411 0
1 0.672892 0
1 0.672099 0
0 0.891173 0
0 0.890776 0
0 0.890562 0
0 0.890318 0
0 0.889708 0
0 0.888395 0
0 0.885985 0
0 0.882063 0
0 0.876463 0
0 0.869017 0
0 0.859754 0
0 0.849165 0
0 0.837827 0
0.103426 0.826352 0
0.235752 0.815442 0
0.3514 0.804791 0
0.438682 0.794202 0
0.521172 0.783658 0
0.602243 0.773419 0
0.680629 0.763821 0
0.755138 0.755138 0
0.824613 0.747707 0
0.888747 0.741604 0
0.947829 0.736706 0
1 0.732967 0
1 0.730282 0
1 0.728389 0
1 0.727062 0
1 0.726116 0
1 0.725338 0
1 0.724544 0
1 0.723522 0
1 0.722255 0
0 0.945373 0
0 0.945052 0
0 0.9449 0
0 0.944671 0
0 0.944076 0
0 0.942718 0
0 0.940261 0
0 0.936263 0
0 0.930541 0
0 0.922972 0
0 0.913573 0
0 0.902831 0
0 0.89134 0
0.0659648 0.879713 0
0.201633 0.868589 0
0.321218 0.857694 0
0.415656 0.846845 0
0.497673 0.836103 0
0.578256 0.82565 0
0.656153 0.815793 0
0.730159 0.806851 0
0.79913 0.799115 0
0.86276 0.792676 0
0.92134 0.787427 0
0.975158 0.783291 0
1 0.780194 0
1 0.777844 0
1 0.776059 0
1 0.774639 0
1 0.773388 0
1 0.772122 0
1 0.770642 0
1 0.768902 0
0 0.997803 0
0 0.997467 0
0 0.997253 0
0 0.996979 0
0 0.996277 0
0 0.994812 0
0 0.992203 0
0 0.988037 0
0 0.982132 0
0 0.974365 0
0 0.964752 0
0 0.953796 0
0 0.942092 0
0.0359655 0.930251 0
0.173159 0.918868 0
0.295445 0.907698 0
0.396689 0.896513 0
0.478157 0.885496 0
0.558175 0.874754 0
0.635493 0.864576 0
0.708919 0.855283 0
0.777295 0.847181 0
0.840345 0.84033 0
0.898344 0.834653 0
0.951598 0.83006 0
1 0.82649 0
1 0.823682 0
1 0.821439 0
1 0.819562 0
1 0.817853 0
1 0.816144 0
1 0.814221 0
1 0.812039 0
0 1 0
0 1 0
0 1 0
0 1 0
0 1 0
0 1 0
0 1 0
0 1 0
0 1 0
0 1 0
0 1 0
0 1 0
0 0.98996 0
0.0121462 0.977844 0
0.149554 0.966171 0
0.273854 0.954681 0
0.381186 0.943084 0
0.462013 0.931746 0
0.54136 0.920623 0
0.618036 0.910048 0
0.690791 0.900343 0
0.758541 0.891798 0
0.820966 0.884504 0
0.878386 0.87837 0
0.931075 0.87335 0
0.97937 0.869322 0
1 0.866087 0
1 0.863401 0
1 0.861082 0
1 0.858946 0
1 0.856794 0
1 0.854444 0
1 0.85185 0
0 1 0
0 1 0
0 1 0
0 1 0
0 1 0
0 1 0
0 1 0
0 1 0
0 1 0
0 1 0
0 1 0
0 1 0
0 1 0
0 1 0
0.129885 1 0
0.255924 0.998505 0
0.367376 0.986465 0
0.448615 0.974701 0
0.527276 0.963165 0
0.60325 0.952163 0
0.67538 0.942031 0
0.742489 0.933074 0
0.804334 0.925353 0
0.861189 0.918791 0
0.913344 0.913344 0
0.96112 0.908888 0
1 0.905226 0
1 0.902129 0
1 0.899382 0
1 0.896834 0
1 0.89427 0
1 0.891524 0
1 0.888533 0
0 1 0
0 1 0
0 1 0
0 1 0
0 1 0
0 1 0
0 1 0
0 1 0
0 1 0
0 1 0
0 1 0
0 1 0
0 1 0
0 1 0
0.113832 1 0
0.241032 1 0
0.353826 1 0
0.437537 1 0
0.515526 1 0
0.59086 0.991104 0
0.662364 0.98056 0
0.728878 0.971191 0
0.790158 0.963058 0
0.846479 0.9561 0
0.898116 0.95024 0
0.945388 0.945388 0
0.989166 0.941314 0
1 0.937804 0
1 0.934676 0
1 0.931716 0
1 0.928771 0
1 0.925643 0
1 0.922271 0
0 1 0
0 1 0
0 1 0
0 1 0
0 1 0
0 1 0
0 1 0
0 1 0
0 1 0
0 1 0
0 1 0
0 1 0
0 1 0
0 1 0
0.100221 1 0
0.228153 1 0
0.341909 1 0
0.428016 1 0
0.505364 1 0
0.580087 1 0
0.650996 1 0
0.716945 1 0
0.777691 0.998047 0
0.833478 0.990692 0
0.884627 0.984436 0
0.931426 0.979202 0
0.974746 0.974746 0
1 0.970855 0
1 0.96733 0
1 0.964004 0
1 0.960708 0
1 0.957229 0
1 0.953552 0
0 1 0
0 1 0
0 1 0
0 1 0
0 1 0
0 1 0
0 1 0
0 1 0
0 1 0
