sample/Serpent_blackmagic.cube
TITLE "Generated by Resolve"
LUT_3D_SIZE 9
0 0 0
0 0 0
0.107225 0.0173495 0.0290074
0.288991 0 0.0172732
0.536995 0 0
0.843976 0 0
1 0 0
1 0 0
1 0 0
0 0.00920119 0.00576791
0.0121462 0.0621805 0.0153506
0.182834 0.0735332 0.00347906
0.475105 0.0346075 0
0.798642 0 0
1 0 0
1 0 0
1 0 0
1 0 0
0 0.131319 0
0 0.188754 0
0.109056 0.199756 0
0.499519 0.158404 0
0.827482 0.110323 0
1 0.0678721 0
1 0.0455634 0
1 0.0417639 0
1 0.0437781 0
0 0.371099 0
0 0.417853 0
0 0.409857 0
0.367239 0.371359 0
0.704189 0.329885 0
1 0.291585 0
1 0.271031 0
1 0.267185 0
1 0.269368 0
0 0.658732 0
0 0.658335 0
0 0.645838 0
0.16907 0.607172 0
0.564385 0.564385 0
0.884978 0.526055 0
1 0.506264 0
1 0.503563 0
1 0.505455 0
0 0.891173 0
0 0.889708 0
0 0.876463 0
0 0.837827 0
0.438682 0.794202 0
0.755138 0.755138 0
1 0.732967 0
1 0.726116 0
1 0.722255 0
0 1 0
0 1 0
0 1 0
0 1 0
0.367376 0.986465 0
0.67538 0.942031 0
0.913344 0.913344 0
1 0.899382 0
1 0.888533 0
0 1 0
0 1 0
0 1 0
0 1 0
0.319707 1 0
0.630411 1 0
0.860151 1 0
1 1 0
1 1 0
0 1 0
0 1 0
0 1 0
0 1 0
0.26067 1 0
0.583719 1 0
0.808591 1 0
0.97171 1 0
1 1 0
0 0 0
0 0 0
0.110735 0.0156252 0.0663157
0.299306 0 0.0764172
0.551965 0 0.060029
0.863584 0 0.0286412
1 0 0
1 0 0
1 0 0
0 0.0118715 0.013077
0.000381476 0.0596475 0.0699321
0.17966 0.0695964 0.0923018
0.4795 0.0280766 0.061677
0.806928 0 0.0133516
1 0 0
1 0 0
1 0 0
1 0 0
0 0.135668 0.0584878
0 0.189364 0.0602426
0.124392 0.196811 0.0153811
0.496788 0.15465 0
0.824826 0.107698 0
1 0.0660716 0
1 0.0443275 0
1 0.0408637 0
1 0.0429389 0
0 0.378683 0
0 0.418708 0
0 0.408255 0
0.365942 0.370214 0
0.703151 0.328954 0
1 0.290639 0
1 0.269795 0
1 0.266255 0
1 0.268696 0
0 0.657679 0
0 0.657343 0
0 0.644663 0
0.167498 0.605829 0
0.563363 0.563363 0
0.883848 0.525231 0
1 0.505486 0
1 0.502678 0
1 0.504311 0
0 0.88986 0
0 0.888563 0
0 0.875334 0
0 0.836652 0
0.437812 0.79292 0
0.753582 0.753582 0
0.999847 0.730953 0
1 0.723461 0
1 0.718883 0
0 1 0
0 1 0
0 1 0
0 1 0
0.364019 0.983322 0
0.671794 0.938231 0
0.908919 0.908904 0
1 0.894331 0
1 0.882856 0
0 1 0
0 1 0
0 1 0
0 1 0
0.312688 1 0
0.624643 1 0
0.853773 1 0
1 1 0
1 1 0
0 1 0
0 1 0
0 1 0
0 1 0
0.250492 1 0
0.576638 1 0
0.801282 1 0
0.964263 1 0
1 1 0
0 0 0
0 0 0
0.109071 0.0124514 0.117403
0.303868 0 0.15938
0.559518 0 0.165621
0.874403 0 0.155276
1 0 0.141726
1 0 0.132036
1 0 0.122713
0 0.0123598 0.0223392
0 0.0568093 0.131807
0.17026 0.0626383 0.213428
0.479255 0.0184176 0.213733
0.808835 0 0.181735
1 0 0.141894
1 0 0.114717
1 0 0.106111
1 0 0.104417
0 0.135729 0.142321
0 0.185702 0.197635
0.0876478 0.189349 0.207004
0.489342 0.14699 0.170779
0.818097 0.101061 0.130236
1 0.0601663 0.0941024
1 0.0389105 0.0751812
1 0.0356756 0.0720684
1 0.0377508 0.0736095
0 0.380179 0.116045
0 0.414298 0.108598
0 0.402502 0.0950332
0.35903 0.364843 0.0619059
0.697765 0.323705 0.0260014
1 0.285283 0
1 0.264286 0
1 0.261082 0
1 0.263752 0
0 0.652354 0
0 0.652003 0
0 0.639048 0
0.159014 0.600275 0
0.558053 0.558053 0
0.878416 0.520088 0
1 0.500359 0
1 0.497398 0
1 0.498726 0
0 0.884321 0
0 0.883146 0
0 0.869917 0
0 0.831159 0
0.432502 0.787259 0
0.747585 0.747585 0
0.993103 0.724453 0
1 0.716289 0
1 0.711025 0
0 1 0
0 1 0
0 1 0
0 1 0
0.354742 0.975723 0
0.663706 0.929976 0
0.900038 0.900023 0
1 0.88484 0
1 0.87277 0
0 1 0
0 1 0
0 1 0
0 1 0
0.299245 1 0
0.614435 1 0
0.843046 1 0
1 1 0
1 0.992386 0
0 1 0
0 1 0
0 1 0
0 1 0
0.233539 1 0
0.56527 1 0
0.789715 1 0
0.952621 1 0
1 1 0
0 0 0
0 0 0
0.102113 0.00668345 0.203662
0.305135 0 0.305135
0.560678 0 0.344472
0.874907 0 0.363577
1 0 0.377417
1 0 0.392462
1 0 0.402335
0 0.0113375 0.0356146
0 0.0502632 0.234318
0.150134 0.049546 0.416907
0.470268 0.000564584 0.470268
0.800763 0 0.457694
1 0 0.429801
1 0 0.407431
1 0 0.399008
1 0 0.398032
0 0.129625 0.28336
0 0.173968 0.427344
0.0590524 0.173159 0.497398
0.472587 0.130388 0.472587
0.802258 0.0853895 0.427146
1 0.0451667 0.386496
1 0.0243076 0.366079
1 0.0212406 0.362737
1 0.023209 0.364111
0 0.370398 0.370382
0 0.399893 0.399878
0 0.387655 0.387701
0.33962 0.350271 0.351858
0.683055 0.309148 0.313695
1 0.270558 0.278508
1 0.249653 0.259464
1 0.246769 0.256687
1 0.249592 0.259113
0 0.637812 0.273121
0 0.637369 0.272496
0 0.624109 0.2607
0.134874 0.585641 0.227222
0.543557 0.543557 0.191806
0.863798 0.505714 0.159869
1 0.485954 0.143877
1 0.482826 0.142489
1 0.483787 0.144747
0 0.869657 0.159045
0 0.868589 0.159045
0 0.855344 0.149599
0 0.816541 0.120073
0.417884 0.772351 0.0866712
0.732326 0.732326 0.0547341
0.977111 0.708644 0.0368658
1 0.699794 0.0316472
1 0.693874 0.0287327
0 1 0.10045
0 1 0.10074
0 1 0.0912032
0 1 0.0611887
0.332723 0.958907 0.0258793
0.646342 0.912505 0
0.881941 0.881941 0
1 0.866148 0
1 0.853513 0
0 1 0.0847486
0 1 0.0814374
0 1 0.0675517
0 1 0.0328069
0.271962 1 0
0.595026 1 0
0.823209 1 0
0.98854 0.98854 0
1 0.972015 0
0 1 0.0658427
0 1 0.0574502
0 1 0.0386206
0 1 1.5259e-05
0.201968 1 0
0.544823 1 0
0.769162 1 0
0.932052 1 0
1 1 0
0 0 0
0 0 0
0.0928511 0.000183108 0.29929
0.306569 0 0.483574
0.565484 0 0.565484
0.882872 0 0.624094
1 0 0.673671
1 0 0.718441
1 0 0.749187
0 0.0101778 0.0498054
0 0.0429541 0.350881
0.125917 0.0347143 0.650111
0.460273 0 0.778073
0.792508 0 0.792508
1 0 0.781399
1 0 0.763256
1 0 0.755657
1 0 0.755215
0 0.123171 0.456672
0 0.16054 0.703044
0.0261387 0.154574 0.840543
0.453574 0.111559 0.828733
0.784024 0.0673533 0.784024
1 0.0277104 0.74374
1 0.007187 0.72256
1 0.00419623 0.718853
1 0.0059968 0.719692
0 0.359823 0.693202
0 0.38294 0.757244
0 0.370352 0.745327
0.316075 0.333135 0.7075
0.665629 0.291951 0.665629
0.987121 0.253132 0.625956
1 0.232563 0.604517
1 0.229969 0.600946
1 0.232959 0.602762
0 0.620661 0.620645
0 0.62002 0.62002
0 0.606607 0.606592
0.105882 0.56849 0.56849
0.526543 0.526543 0.526543
0.846616 0.488823 0.488823
1 0.469017 0.469017
1 0.46566 0.46566
1 0.466239 0.466255
0 0.852491 0.49044
0 0.851484 0.490272
0 0.838209 0.478447
0 0.799329 0.442161
0.400671 0.754864 0.400671
0.714443 0.714427 0.362188
0.95848 0.690166 0.340673
1 0.680644 0.333074
1 0.674052 0.32813
0 1 0.421683
0 1 0.420264
0 1 0.406531
0 0.990112 0.368154
0.306142 0.939467 0.325811
0.626322 0.892393 0.285283
0.861234 0.861234 0.259022
1 0.844846 0.245792
1 0.831678 0.235492
0 1 0.398489
0 1 0.391775
0 1 0.372549
0 1 0.331304
0.239796 1 0.285634
0.573068 1 0.240528
0.800855 0.986816 0.210559
0.965911 0.965896 0.193744
1 0.949187 0.180468
0 1 0.370642
0 1 0.358785
0 1 0.335943
0 1 0.292393
0.165393 1 0.244266
0.521935 1 0.198489
0.746197 1 0.166415
0.909117 1 0.148425
1 1 0.134798
0 0 0
0 0 0
0.0835737 0 0.393103
0.307836 0 0.671794
0.570504 0 0.794919
0.891325 0 0.891325
1 0 0.974365
1 0 1
1 0 1
0 0.00947585 0.0659342
0 0.0360571 0.469337
0.102449 0.0205234 0.884764
0.45037 0 1
0.7841 0 1
1 0 1
1 0 1
1 0 1
1 0 1
0 0.117174 0.639979
0 0.147509 0.983597
0 0.136812 1
0.435874 0.0940261 1
0.76701 0.0505531 1
1 0.0113832 1
1 0 1
1 0 1
1 0 1
0 0.349462 1
0 0.366705 1
0 0.354116 1
0.293294 0.317021 1
0.649104 0.275669 1
0.970275 0.236728 0.970275
1 0.216571 0.948363
1 0.214237 0.943984
1 0.217334 0.944656
0 0.60441 0.967056
0 0.60351 0.965896
0 0.590158 0.951888
0.0787823 0.552361 0.912703
0.510491 0.510506 0.869261
0.830274 0.472831 0.830274
1 0.452949 0.808942
1 0.449348 0.803784
1 0.4495 0.802411
0 0.83621 0.83621
0 0.835218 0.835218
0 0.821851 0.821851
0 0.782864 0.782849
0.384298 0.738094 0.738094
0.69723 0.69723 0.69723
0.940429 0.672358 0.672358
1 0.662196 0.662196
1 0.654978 0.654978
0 1 0.764935
0 1 0.761395
0 1 0.744747
0 0.971786 0.702495
0.279728 0.920653 0.653727
0.607034 0.872969 0.607034
0.84123 0.84123 0.576028
1 0.824277 0.559731
1 0.810651 0.546654
0 1 0.736171
0 1 0.726711
0 1 0.704509
0 1 0.657496
0.207919 1 0.603922
0.551949 1 0.551949
0.779339 0.96527 0.51606
0.944121 0.944121 0.495689
1 0.927245 0.47953
0 1 0.702571
0 1 0.687816
0 1 0.661067
0 1 0.610513
0.128267 1 0.554192
0.500008 1 0.500008
0.724208 1 0.462364
0.88716 1 0.441062
1 1 0.424872
0 0 0
0 0 0
0.0792248 0 0.484184
0.314305 0 0.84242
0.582605 0 0.995666
0.908125 0 1
1 0 1
1 0 1
1 0 1
0 0.0107576 0.0987106
0 0.0319524 0.593713
0.0870375 0.00952163 1
0.446525 0 1
0.781933 0 1
1 0 1
1 0 1
1 0 1
1 0 1
0 0.115816 0.817044
0 0.139788 1
0 0.12546 1
0.42533 0.0835889 1
0.757061 0.0407568 1
1 0.00199893 1
1 0 1
1 0 1
1 0 1
0 0.345434 1
0 0.357107 1
0 0.344778 1
0.279973 0.307713 1
0.639353 0.266133 1
0.960388 0.227314 1
1 0.207492 1
1 0.205356 1
1 0.208515 1
0 0.594934 1
0 0.593713 1
0 0.580606 1
0.0637217 0.543069 1
0.501305 0.501305 1
0.820706 0.463645 1
1 0.44361 1
1 0.439673 1
1 0.439323 1
0 0.826764 1
0 0.825711 1
0 0.812192 1
0 0.773007 1
0.374884 0.727916 0.997909
0.686549 0.686549 0.955398
0.928832 0.661021 0.928832
1 0.650202 0.917082
1 0.642344 0.9084
0 1 1
0 1 1
0 1 1
0 0.959854 0.959854
0.262089 0.908248 0.908248
0.594217 0.859953 0.859953
0.827634 0.827634 0.827634
0.996872 0.810132 0.810132
1 0.796063 0.796078
0 1 0.995926
0 1 0.984253
0 1 0.959716
0 1 0.910124
0.185565 1 0.8542
0.537362 0.987228 0.801022
0.76434 0.950195 0.76434
0.928832 0.928832 0.743282
1 0.911833 0.726574
0 1 0.957641
0 1 0.941039
0 1 0.912474
0 1 0.859998
0.101946 1 0.801938
0.484688 1 0.746853
0.708812 1 0.708812
0.871794 1 0.687205
1 1 0.670817
0 0 0
0.000549325 0.000640879 0.00415045
0.079408 0 0.579461
0.325673 0 0.993744
0.601205 0 1
0.932357 0 1
1 0 1
1 0 1
1 0 1
0 0.0138857 0.157778
0 0.0295109 0.718212
0.0788128 0.00167849 1
0.448417 0 1
0.78529 0 1
1 0 1
1 0 1
1 0 1
1 0 1
0 0.118563 0.989288
0 0.137041 1
0 0.120424 1
0.421592 0.0798962 1
0.753826 0.0376287 1
1 0 1
1 0 1
1 0 1
1 0 1
0 0.347097 1
0 0.354086 1
0 0.341924 1
0.276036 0.304829 1
0.635996 0.262989 1
0.957092 0.224491 1
1 0.204974 1
1 0.202976 1
1 0.206119 1
0 0.591867 1
0 0.590448 1
0 0.577615 1
0.0597848 0.540276 1
0.498604 0.498604 1
0.817517 0.460883 1
1 0.440635 1
1 0.436271 1
1 0.435325 1
0 0.823789 1
0 0.822599 1
0 0.80885 1
0 0.769406 1
0.370794 0.723995 1
0.682033 0.682033 1
0.923369 0.655833 1
1 0.644343 1
1 0.635828 1
0 1 1
0 1 1
0 0.999725 1
0 0.954025 1
0.253346 0.90193 1
0.587503 0.85304 1
0.820157 0.820157 1
0.988754 0.802121 0.988754
1 0.787655 0.973907
0 1 1
0 1 1
0 1 1
0 1 1
0.172793 1 1
0.528939 0.978592 0.978592
0.755505 0.941299 0.941299
0.919738 0.919738 0.919738
1 0.902632 0.902632
0 1 1
0 1 1
0 1 1
0 1 1
0.0866255 1 0.978531
0.475639 1 0.922774
0.699687 1 0.884489
0.862715 1 0.862715
1 1 0.846265
0 0 0
0.00062562 0.00167849 0.0413672
0.0805371 0 0.684016
0.338109 0 1
0.621225 0 1
0.9579 0 1
1 0 1
1 0 1
1 0 1
0 0.0167239 0.232074
0 0.0271611 0.854948
0.0724193 0 1
0.451423 0 1
0.788922 0 1
1 0 1
1 0 1
1 0 1
1 0 1
0 0.121981 1
0 0.13547 1
0 0.117601 1
0.420005 0.0783551 1
0.752621 0.0365606 1
1 0 1
1 0 1
1 0 1
1 0 1
0 0.349523 1
0 0.353063 1
0 0.340993 1
0.274815 0.303777 1
0.634638 0.261814 1
0.955779 0.223697 1
1 0.20441 1
1 0.202502 1
1 0.2056 1
0 0.5906 1
0 0.589212 1
0 0.576608 1
0.0591745 0.539422 1
0.49781 0.49781 1
0.816159 0.459983 1
1 0.439445 1
1 0.434607 1
1 0.43299 1
0 0.82269 1
0 0.821332 1
0 0.807294 1
0 0.767544 1
0.36849 0.721752 1
0.679149 0.679149 1
0.919554 0.652293 1
1 0.640131 1
1 0.630976 1
0 1 1
0 1 1
0 0.996048 1
0 0.949859 1
0.246983 0.897261 1
0.582452 0.847807 1
0.814343 0.814343 1
0.982345 0.795819 1
1 0.780972 1
0 1 1
0 1 1
0 1 1
0 1 1
0.162585 1 1
0.522255 0.97171 1
0.74847 0.934173 1
0.912444 0.912444 1
1 0.895262 1
0 1 1
0 1 1
0 1 1
0 1 1
0.0744488 1 1
0.468421 1 1
0.692424 1 1
0.855528 1 1
1 1 1
