img_LUT_test/True_Colors_8.C0054.cube
TITLE "Generated by Resolve"
LUT_3D_SIZE 33
0 0 0
0.0151369 0 0
0.0299687 0 0
0.0440223 0 0
0.0581216 0 0
0.0728161 0 0
0.0897383 0 0
0.110674 0 0
0.136492 0 0
0.169223 0 0
0.2065 0 0
0.244709 0 0
0.283635 0 0
0.323049 0 0
0.362936 0 0
0.4038 0 0
0.445411 0 0
0.487877 0 0
0.531228 0 0
0.575341 0 0
0.620813 0 0
0.667247 0 0
0.714549 0 0
0.76289 0 0
0.813214 0 0
0.865461 0 0
0.919783 0 0
0.976028 0 0
1 0 0
1 0 0
1 0 0
1 0 0
1 0 0
0 0.0115511 0
0.00959792 0.00972 0
0.0246433 0.00834669 0
0.0385443 0.00697337 0
0.0523384 0.00556954 0
0.0670176 0.00390631 0
0.0836347 0.0016022 0
0.104433 0 0
0.129976 0 0
0.162234 0 0
0.199344 0 0
0.237751 0 0
0.276814 0 0
0.316533 0 0
0.356695 0 0
0.397436 0 0
0.438956 0 0
0.481666 0 0
0.525383 0 0
0.57026 0 0
0.61532 0 0
0.661982 0 0
0.70988 0 0
0.759014 0 0
0.81004 0 0
0.862913 0 0
0.917678 0 0
0.974945 0 0
1 0 0
1 0 0
1 0 0
1 0 0
1 0 0
0 0.0231632 0
0.00238041 0.0215305 0
0.0191348 0.0193332 0
0.0328832 0.0178073 0
0.0466011 0.0162661 0
0.0610666 0.0146181 0
0.0776684 0.0123598 0
0.0979782 0.00903334 0
0.123079 0.00442512 0
0.154864 0 0
0.191623 0 0
0.229862 0 0
0.269062 0 0
0.30869 0 0
0.349111 0 0
0.390372 0 0
0.432334 0 0
0.475257 0 0
0.519478 0 0
0.564965 0 0
0.610803 0 0
0.658106 0 0
0.706523 0 0
0.756619 0 0
0.808652 0 0
0.862425 0 0
0.918196 0 0
0.976562 0 0
1 0 0
1 0 0
1 0 0
1 0 0
1 0 0
0 0.0337835 0
0 0.0323339 0
0.0129397 0.0298924 0
0.0278172 0.0280766 0
0.0414435 0.0264897 0
0.0559091 0.0248722 0
0.072282 0.0225681 0
0.0923171 0.0192721 0
0.117159 0.0148013 0
0.148623 0.00848402 0
0.18555 0.000839246 0
0.22414 0 0
0.263096 0 0
0.302846 0 0
0.343359 0 0
0.384878 0 0
0.427375 0 0
0.470954 0 0
0.515373 0 0
0.560754 0 0
0.607523 0 0
0.655741 0 0
0.705135 0 0
0.755947 0 0
0.808362 0 0
0.862486 0 0
0.919387 0 0
0.978714 0 0
1 0 0
1 0 0
1 0 0
1 0 0
1 0 0
0 0.0441444 0
0 0.0427863 0
0.00550851 0.0406043 0
0.0221103 0.038407 0
0.0363775 0.0366827 0
0.0507515 0.0349279 0
0.0671702 0.0327764 0
0.0870985 0.029633 0
0.111742 0.0252842 0
0.143236 0.0192416 0
0.180117 0.0116426 0
0.218906 0.00363165 0
0.258213 0 0
0.298482 0 0
0.339513 0 0
0.381643 0 0
0.424384 0 0
0.468605 0 0
0.513985 0 0
0.560235 0 0
0.607675 0 0
0.656275 0 0
0.706096 0 0
0.757671 0 0
0.810666 0 0
0.865766 0 0
0.923445 0 0
0.983841 0 0
1 0 0
1 0 0
1 0 0
1 0 0
1 0 0
0 0.0546731 0
0 0.0534981 0
0 0.0516976 0
0.0142824 0.0495613 0
0.0301213 0.0475166 0
0.0451362 0.0457008 0
0.0615244 0.0436255 0
0.081529 0.0406043 0
0.106157 0.0365301 0
0.137438 0.0307012 0
0.174777 0.0234684 0
0.21416 0.0155947 0
0.253803 0.00773632 0
0.294682 0 0
0.336614 0 0
0.379416 0 0
0.422965 0 0
0.467704 0 0
0.513283 0 0
0.560678 0 0
0.608591 0 0
0.657679 0 0
0.708141 0 0
0.759976 0 0
0.814054 0 0
0.870863 0 0
0.929076 0 0
0.990311 0 0
1 0 0
1 0 0
1 0 0
1 0 0
1 0 0
0 0.0661021 0
0 0.0651713 0
0 0.0636149 0
0.0040589 0.0617685 0
0.0211337 0.0597086 0
0.0377203 0.0577401 0
0.0548867 0.0557565 0
0.0750439 0.0531014 0
0.099794 0.0493019 0
0.130922 0.0437781 0
0.168582 0.0367132 0
0.208759 0.0292058 0
0.249485 0.0218509 0
0.290959 0.0143893 0
0.333211 0.00665293 0
0.376425 0 0
0.420645 0 0
0.466117 0 0
0.512688 0 0
0.560296 0 0
0.608621 0 0
0.658686 0 0
0.71017 0 0
0.76286 0 0
0.818082 0 0
0.874846 0 0
0.933761 0 0
0.995697 0 0
1 0 0
1 0 0
1 0 0
1 0 0
1 0 0
0 0.0791943 0
0 0.0783246 0
0 0.0771954 0
0 0.0759289 0
0.00848402 0.0742809 0
0.0264134 0.0723125 0
0.0453498 0.0702983 0
0.0664073 0.0677806 0
0.0912795 0.0644541 0
0.122774 0.0594797 0
0.160525 0.0528573 0
0.201312 0.0457465 0
0.242573 0.0387427 0
0.284413 0.0317388 0
0.327382 0.0245823 0
0.371237 0.0172427 0
0.416022 0.0100099 0
0.462501 0.00296025 0
0.509834 0 0
0.558175 0 0
0.607523 0 0
0.657755 0 0
0.710033 0 0
0.763638 0 0
0.818967 0 0
0.876204 0 0
0.935103 0 0
0.99707 0 0
1 0 0
1 0 0
1 0 0
1 0 0
1 0 0
0 0.0943008 0
0 0.0937209 0
0 0.0928664 0
0 0.0921187 0
0 0.0915236 0
0.0109255 0.0903182 0
0.0314946 0.088365 0
0.0546426 0.0856794 0
0.0803998 0.0824598 0
0.111864 0.0780652 0
0.150607 0.0722515 0
0.191577 0.0656596 0
0.233326 0.0589609 0
0.275944 0.0523537 0
0.319478 0.0459602 0
0.364492 0.0395972 0
0.410651 0.0332341 0
0.457282 0.026688 0
0.505425 0.0198367 0
0.554086 0.0131228 0
0.604135 0.00622568 0
0.655299 0 0
0.707637 0 0
0.761608 0 0
0.816693 0 0
0.874052 0 0
0.933349 0 0
0.995254 0 0
1 0 0
1 0 0
1 0 0
1 0 0
1 0 0
0 0.112215 0
0 0.112245 0
0 0.112123 0
0 0.1122 0
0 0.112154 0
0 0.111742 0
0.0107576 0.110597 0
0.0361181 0.108232 0
0.0648508 0.104875 0
0.097734 0.100862 0
0.136645 0.095491 0
0.17882 0.0895857 0
0.221485 0.0838331 0
0.264988 0.0779278 0
0.309636 0.0721141 0
0.355062 0.0663615 0
0.401679 0.0603189 0
0.449241 0.054139 0
0.497673 0.0477302 0
0.547082 0.0411383 0
0.597375 0.0344549 0
0.648707 0.0274205 0
0.700923 0.0201572 0
0.75491 0.0122835 0
0.810468 0.00402838 0
0.867887 0 0
0.927443 0 0
0.988891 0 0
1 0 0
1 0 0
1 0 0
1 0 0
1 0 0
0 0.134096 0
0 0.134615 0
0 0.13521 0
0 0.135805 0
0 0.136538 0
0 0.137011 0
0 0.136812 0
0.0111391 0.135637 0
0.0427253 0.133074 0
0.0791943 0.128954 0
0.120089 0.123705 0
0.162661 0.118288 0
0.206134 0.112902 0
0.250431 0.10782 0
0.295521 0.102464 0
0.341436 0.0968795 0
0.387991 0.0910353 0
0.435813 0.0848707 0
0.484352 0.0785534 0
0.534035 0.0720989 0
0.584558 0.0652018 0
0.63592 0.05832 0
0.688472 0.0509041 0
0.742168 0.0432136 0
0.797986 0.03505 0
0.85565 0.0264744 0
0.915053 0.0173648 0
0.977005 0.00775158 0
1 0 0
1 0 0
1 0 0
1 0 0
1 0 0
0 0.158816 0
0 0.160021 0
0 0.160952 0
0 0.162066 0
0 0.163684 0
0 0.165286 0
0 0.166476 0
0 0.1664 0
0.0178683 0.164584 0
0.0564279 0.160784 0
0.101244 0.155245 0
0.145953 0.149783 0
0.189715 0.144961 0
0.234333 0.139895 0
0.27921 0.134539 0
0.325093 0.128939 0
0.371771 0.12314 0
0.419654 0.117327 0
0.468406 0.110979 0
0.517601 0.104524 0
0.568353 0.0979019 0
0.619654 0.0908522 0
0.672251 0.0835126 0
0.726665 0.0759594 0
0.781826 0.0679789 0
0.839658 0.059266 0
0.898711 0.05037 0
0.960479 0.0408179 0
1 0.0293278 0
1 0.0113832 0
1 0 0
1 0 0
1 0 0
0 0.185733 0
0 0.187594 0
0 0.189532 0
0 0.191363 0
0 0.193606 0
0 0.195972 0
0 0.197925 0
0 0.198703 0
0 0.197864 0
0.0324865 0.194629 0
0.0796674 0.188952 0
0.127794 0.182727 0
0.173022 0.177325 0
0.217441 0.17229 0
0.262623 0.166918 0
0.308339 0.16144 0
0.355474 0.155886 0
0.402914 0.150011 0
0.451591 0.143755 0
0.501305 0.137499 0
0.551537 0.130861 0
0.603021 0.123873 0
0.655695 0.116854 0
0.709834 0.109178 0
0.765576 0.101106 0
0.822904 0.0927901 0
0.882246 0.0839551 0
0.943435 0.0745556 0
1 0.0634928 0
1 0.0460212 0
1 0.0193179 0
1 0 0
1 0 0
0 0.215427 0
0 0.217762 0
0 0.220249 0
0 0.222812 0
0 0.22562 0
0 0.22829 0
0 0.230442 0
0 0.231556 0
0 0.231357 0
0.00755322 0.229114 0
0.0552834 0.223545 0
0.106249 0.216831 0
0.154498 0.210666 0
0.200244 0.205158 0
0.245258 0.199893 0
0.291539 0.194629 0
0.33817 0.189029 0
0.386221 0.183047 0
0.434546 0.177111 0
0.484031 0.170886 0
0.534813 0.164446 0
0.586023 0.157656 0
0.638743 0.150439 0
0.692546 0.142947 0
0.748302 0.134951 0
0.80592 0.126757 0
0.865431 0.118151 0
0.926604 0.108843 0
0.993072 0.098085 0
1 0.0813001 0
1 0.0553292 0
1 0.025452 0
1 0.00411994 0
0 0.247181 0
0 0.249943 0
0 0.25301 0
0 0.255528 0
0 0.258457 0
0 0.261128 0
0 0.263371 0
0 0.264805 0
0 0.265202 0
0 0.263523 0
0.0292058 0.258656 0
0.0820325 0.25185 0
0.132891 0.24506 0
0.181415 0.238987 0
0.227848 0.233539 0
0.273793 0.228168 0
0.320729 0.222538 0
0.368688 0.216831 0
0.417395 0.210864 0
0.466819 0.204852 0
0.517235 0.198413 0
0.568582 0.191638 0
0.621012 0.184604 0
0.675135 0.177142 0
0.730694 0.169436 0
0.788724 0.161395 0
0.847547 0.152758 0
0.908827 0.143481 0
0.974868 0.132982 0
1 0.117144 0
1 0.0918288 0
1 0.0616617 0
1 0.040177 0
0 0.279973 0
0 0.283116 0
0 0.285954 0
0 0.28864 0
0 0.291569 0
0 0.294377 0
0 0.296818 0
0 0.298604 0
0 0.299107 0
0 0.298039 0
0.00318914 0.294224 0
0.0558633 0.287556 0
0.109316 0.28043 0
0.160082 0.27393 0
0.20885 0.267765 0
0.255848 0.26215 0
0.3028 0.256626 0
0.35108 0.250935 0
0.399741 0.24535 0
0.449287 0.23917 0
0.499535 0.232807 0
0.551003 0.226093 0
0.603281 0.219196 0
0.65745 0.2121 0
0.713588 0.204532 0
0.770764 0.196399 0
0.829923 0.187762 0
0.89073 0.178714 0
0.956329 0.168414 0
1 0.153368 0
1 0.128847 0
1 0.0980545 0
1 0.0766766 0
0 0.313558 0
0 0.316426 0
0 0.319554 0
0 0.322332 0
0 0.325246 0
0 0.328389 0
0 0.330907 0
0 0.332647 0
0 0.333455 0
0 0.33286 0
0 0.329778 0
0.0286107 0.324132 0
0.0830701 0.31696 0
0.136553 0.309728 0
0.187488 0.303059 0
0.236622 0.296941 0
0.284657 0.291493 0
0.333059 0.285969 0
0.38146 0.280171 0
0.430961 0.274083 0
0.481529 0.267735 0
0.532708 0.261219 0
0.58555 0.254444 0
0.639445 0.247379 0
0.695354 0.239933 0
0.752605 0.231922 0
0.811505 0.223468 0
0.872663 0.214435 0
0.937713 0.204639 0
1 0.189929 0
1 0.166598 0
1 0.134829 0
1 0.11371 0
0 0.347295 0
0 0.350317 0
0 0.353567 0
0 0.356451 0
0 0.359686 0
0 0.362646 0
0 0.365255 0
0 0.367147 0
0 0.368307 0
0 0.368109 0
0 0.365805 0
0.00128176 0.360632 0
0.055024 0.353994 0
0.110079 0.346654 0
0.163714 0.339452 0
0.215122 0.332845 0
0.26566 0.326955 0
0.314351 0.321172 0
0.362966 0.31545 0
0.412238 0.309529 0
0.462791 0.303273 0
0.514412 0.297063 0
0.566964 0.290303 0
0.621256 0.283375 0
0.67686 0.275837 0
0.734203 0.267872 0
0.792966 0.25977 0
0.854154 0.251057 0
0.91902 0.241184 0
0.999451 0.227146 0
1 0.204532 0
1 0.173495 0
1 0.151568 0
0 0.381613 0
0 0.384848 0
0 0.387976 0
0 0.391287 0
0 0.394293 0
0 0.397284 0
0 0.399924 0
0 0.401984 0
0 0.403708 0
0 0.4038 0
0 0.401846 0
0 0.397406 0
0.0267643 0.391257 0
0.0818494 0.384237 0
0.137514 0.377096 0
0.191623 0.370062 0
0.243717 0.363409 0
0.294652 0.357031 0
0.34403 0.351141 0
0.393515 0.345373 0
0.443961 0.339559 0
0.49546 0.33315 0
0.548043 0.326741 0
0.602152 0.319753 0
0.658152 0.31223 0
0.71516 0.304601 0
0.774456 0.296468 0
0.835142 0.287816 0
0.899641 0.278202 0
0.978515 0.264851 0
1 0.243107 0
1 0.212436 0
1 0.189883 0
0 0.41648 0
0 0.419821 0
0 0.423209 0
0 0.426337 0
0 0.429282 0
0 0.43238 0
0 0.435264 0
0 0.437812 0
0 0.439307 0
0 0.439597 0
0 0.438071 0
0 0.434363 0
0 0.428946 0
0.0531014 0.422553 0
0.1093 0.415473 0
0.165194 0.408057 0
0.219638 0.40087 0
0.272389 0.39408 0
0.323751 0.387717 0
0.374258 0.381964 0
0.424949 0.375937 0
0.476066 0.369787 0
0.528786 0.363455 0
0.58262 0.356634 0
0.63888 0.349523 0
0.696117 0.341863 0
0.754818 0.333806 0
0.815824 0.32517 0
0.879789 0.315877 0
0.957763 0.30312 0
1 0.282261 0
1 0.252247 0
1 0.228748 0
0 0.451896 0
0 0.455329 0
0 0.458671 0
0 0.46186 0
0 0.464958 0
0 0.468147 0
0 0.471595 0
0 0.47393 0
0 0.475502 0
0 0.47602 0
0 0.474922 0
0 0.471778 0
0 0.467063 0
0.0235294 0.461097 0
0.0797284 0.454337 0
0.136568 0.446921 0
0.193179 0.439368 0
0.248035 0.432486 0
0.30135 0.425711 0
0.353384 0.419287 0
0.404791 0.413123 0
0.456611 0.407141 0
0.509056 0.400809 0
0.56347 0.394247 0
0.618784 0.387198 0
0.67602 0.37966 0
0.73492 0.371725 0
0.795666 0.363302 0
0.859815 0.354086 0
0.936004 0.342153 0
1 0.321813 0
1 0.292699 0
1 0.268208 0
0 0.487922 0
0 0.491218 0
0 0.49453 0
0 0.497932 0
0 0.501228 0
0 0.504814 0
0 0.507927 0
0 0.510353 0
0 0.512123 0
0 0.512917 0
0 0.512291 0
0 0.509575 0
0 0.505287 0
0 0.500084 0
0.0494392 0.493584 0
0.10692 0.486275 0
0.164675 0.47895 0
0.221546 0.471504 0
0.276539 0.464408 0
0.330556 0.457557 0
0.383352 0.451072 0
0.436072 0.444953 0
0.489036 0.438926 0
0.543084 0.432288 0
0.598901 0.425193 0
0.655695 0.417884 0
0.714488 0.410132 0
0.775433 0.402167 0
0.83946 0.393317 0
0.914076 0.381415 0
1 0.362066 0
1 0.33344 0
1 0.308354 0
0 0.5243 0
0 0.527672 0
0 0.531197 0
0 0.534798 0
0 0.538491 0
0 0.541894 0
0 0.545052 0
0 0.547601 0
0 0.549477 0
0 0.550851 0
0 0.550423 0
0 0.547936 0
0 0.544182 0
0 0.539422 0
0.0180362 0.5337 0
0.0753338 0.526955 0
0.134279 0.51931 0
0.192447 0.511666 0
0.249424 0.504265 0
0.305013 0.497215 0
0.36025 0.490639 0
0.414023 0.484154 0
0.467674 0.477668 0
0.521843 0.471122 0
0.577554 0.464225 0
0.63476 0.456947 0
0.693675 0.449577 0
0.754849 0.441657 0
0.817807 0.433036 0
0.890715 0.421759 0
0.99089 0.403143 0
1 0.375418 0
1 0.349584 0
0 0.561364 0
0 0.564904 0
0 0.568902 0
0 0.572656 0
0 0.57615 0
0 0.579614 0
0 0.582879 0
0 0.585611 0
0 0.58793 0
0 0.589166 0
0 0.58909 0
0 0.587167 0
0 0.583658 0
0 0.579446 0
0 0.574273 0
0.0428168 0.567971 0
0.1019 0.560647 0
0.161105 0.553033 0
0.219944 0.545312 0
0.278172 0.538155 0
0.334554 0.531151 0
0.390082 0.524208 0
0.444862 0.517494 0
0.50016 0.510719 0
0.555611 0.504036 0
0.613169 0.4972 0
0.671946 0.489708 0
0.732891 0.481941 0
0.796246 0.47332 0
0.867277 0.462699 0
0.965408 0.445197 0
1 0.41828 0
1 0.391501 0
0 0.599329 0
0 0.603281 0
0 0.607172 0
0 0.61117 0
0 0.614633 0
0 0.618036 0
0 0.621363 0
0 0.624521 0
0 0.626749 0
0 0.628244 0
0 0.628489 0
0 0.626993 0
0 0.624094 0
0 0.620157 0
0 0.615412 0
0.0101778 0.609552 0
0.0682536 0.602792 0
0.128283 0.595392 0
0.188251 0.587945 0
0.248051 0.580346 0
0.306645 0.572747 0
0.363851 0.565499 0
0.420523 0.558434 0
0.476982 0.551675 0
0.533669 0.5449 0
0.590646 0.538033 0
0.649866 0.530892 0
0.710384 0.52314 0
0.773556 0.514702 0
0.84416 0.504616 0
0.938842 0.487953 0
1 0.46157 0
1 0.434211 0
0 0.638483 0
0 0.642252 0
0 0.646281 0
0 0.650294 0
0 0.653803 0
0 0.657786 0
0 0.66128 0
0 0.664195 0
0 0.666529 0
0 0.668315 0
0 0.66894 0
0 0.667765 0
0 0.664942 0
0 0.661479 0
0 0.657191 0
0 0.651972 0
0.0341192 0.645685 0
0.0936751 0.639002 0
0.154833 0.631525 0
0.215381 0.623758 0
0.275776 0.615885 0
0.334905 0.60827 0
0.393439 0.600992 0
0.452155 0.59379 0
0.509773 0.586709 0
0.567636 0.579736 0
0.626551 0.572824 0
0.687449 0.565164 0
0.7505 0.557351 0
0.81973 0.547509 0
0.912352 0.531441 0
1 0.506096 0
1 0.478035 0
0 0.678218 0
0 0.682338 0
0 0.68632 0
0 0.690333 0
0 0.694392 0
0 0.698222 0
0 0.701808 0
0 0.704875 0
0 0.707332 0
0 0.709422 0
0 0.710536 0
0 0.709392 0
0 0.706767 0
0 0.703593 0
0 0.699687 0
0 0.695369 0
0 0.689754 0
0.0580148 0.683192 0
0.118822 0.676112 0
0.180804 0.668299 0
0.242267 0.660487 0
0.303609 0.652842 0
0.363699 0.645151 0
0.423987 0.637446 0
0.483421 0.630091 0
0.543114 0.62298 0
0.603082 0.615717 0
0.663676 0.608576 0
0.726635 0.60061 0
0.794614 0.591348 0
0.884688 0.576165 0
1 0.551431 0
1 0.523247 0
0 0.718975 0
0 0.72314 0
0 0.727428 0
0 0.731884 0
0 0.735851 0
0 0.739666 0
0 0.743374 0
0 0.746563 0
0 0.749569 0
