img_LUT_test/True_Colors_8.C0054.cube
TITLE "Generated by Resolve"
LUT_3D_SIZE 9
0 0 0
0.0581216 0 0
0.136492 0 0
0.283635 0 0
0.445411 0 0
0.620813 0 0
0.813214 0 0
1 0 0
1 0 0
0 0.0441444 0
0.0363775 0.0366827 0
0.111742 0.0252842 0
0.258213 0 0
0.424384 0 0
0.607675 0 0
0.810666 0 0
1 0 0
1 0 0
0 0.0943008 0
0 0.0915236 0
0.0803998 0.0824598 0
0.233326 0.0589609 0
0.410651 0.0332341 0
0.604135 0.00622568 0
0.816693 0 0
1 0 0
1 0 0
0 0.185733 0
0 0.193606 0
0 0.197864 0
0.173022 0.177325 0
0.355474 0.155886 0
0.551537 0.130861 0
0.765576 0.101106 0
1 0.0634928 0
1 0 0
0 0.313558 0
0 0.325246 0
0 0.333455 0
0.0830701 0.31696 0
0.284657 0.291493 0
0.481529 0.267735 0
0.695354 0.239933 0
0.937713 0.204639 0
1 0.11371 0
0 0.451896 0
0 0.464958 0
0 0.475502 0
0 0.467063 0
0.193179 0.439368 0
0.404791 0.413123 0
0.618784 0.387198 0
0.859815 0.354086 0
1 0.268208 0
0 0.599329 0
0 0.614633 0
0 0.626749 0
0 0.624094 0
0.0682536 0.602792 0
0.306645 0.572747 0
0.533669 0.5449 0
0.773556 0.514702 0
1 0.434211 0
0 0.761105 0
0 0.778653 0
0 0.793164 0
0 0.794049 0
0 0.780301 0
0.168032 0.754009 0
0.422583 0.72224 0
0.675319 0.690837 0
1 0.616861 0
0 0.999191 0
0 1 0
0 1 0
0 1 0
0 1 0
0 1 0
0.10042 0.989685 0
0.398306 0.952346 0
0.840986 0.88513 0
0 0.00341802 0.0515755
0.0295415 0 0.0712749
0.133364 0 0.0441901
0.280369 0 0.014374
0.442283 0 0
0.618189 0 0
0.811536 0 0
1 0 0
1 0 0
0 0.0405585 0.0408179
0.0333257 0.033875 0.0335241
0.108797 0.0227512 0.0226291
0.255695 0 0
0.422736 0 0
0.606561 0 0
0.810407 0 0
1 0 0
1 0 0
0 0.0892958 0.0241855
0 0.0882124 0.0121614
0.0795148 0.0818189 0
0.233875 0.0590524 0
0.412009 0.0343175 0
0.606836 0.0080415 0
0.819669 0 0
1 0 0
1 0 0
0 0.183703 0
0 0.192584 0
0 0.199466 0
0.174792 0.179553 0
0.357473 0.158007 0
0.554025 0.133272 0
0.768032 0.103685 0
1 0.0658427 0
1 0 0
0 0.312856 0
0 0.324926 0
0 0.333913 0
0.0820325 0.320348 0
0.28719 0.29395 0
0.484016 0.27071 0
0.69865 0.242741 0
0.941543 0.207553 0
1 0.11635 0
0 0.451728 0
0 0.465034 0
0 0.47602 0
0 0.469459 0
0.19408 0.443183 0
0.408011 0.416556 0
0.622644 0.390616 0
0.863584 0.357702 0
1 0.271473 0
0 0.599802 0
0 0.615076 0
0 0.627741 0
0 0.625681 0
0.0683909 0.607233 0
0.308644 0.577356 0
0.537758 0.548974 0
0.778302 0.519081 0
1 0.438254 0
0 0.762173 0
0 0.780087 0
0 0.794614 0
0 0.796414 0
0 0.784283 0
0.168719 0.759808 0
0.425772 0.727398 0
0.680446 0.6963 0
1 0.621683 0
0 1 0
0 1 0
0 1 0
0 1 0
0 1 0
0 1 0
0.101396 0.99678 0
0.402716 0.96051 0
0.855497 0.89514 0
0 0.00769055 0.125811
0 0.00619516 0.13193
0.0660563 0 0.165209
0.274006 0 0.0946059
0.436271 0 0.057496
0.612512 0 0.0178073
0.806668 0 0
1 0 0
1 0 0
0 0.0425727 0.106966
0.00469978 0.037583 0.103807
0.0689555 0.0268559 0.124895
0.251286 0 0.0735485
0.419638 0 0.0403296
0.604639 0 0.00520333
0.809674 0 0
1 0 0
1 0 0
0 0.0867475 0.0867475
0 0.0842145 0.0835279
0.0771801 0.0798962 0.0781109
0.232853 0.0584421 0.0571298
0.411765 0.0344549 0.0336461
0.607217 0.00894179 0.00894179
0.820005 0 0
1 0 0
1 0 0
0 0.180072 0.0475624
0 0.189487 0.0468605
0.00466926 0.197192 0.0405585
0.17554 0.180606 0.00527962
0.358373 0.159213 0
0.554864 0.134432 0
0.769253 0.105226 0
1 0.0673686 0
1 0 0
0 0.310292 0.00653086
0 0.322499 0.00468452
0 0.331823 0
0.0797589 0.322423 0
0.28867 0.295689 0
0.485664 0.272648 0
0.700359 0.244724 0
0.943404 0.20972 0
1 0.118685 0
0 0.449683 0
0 0.463249 0
0 0.474464 0
0 0.469627 0
0.193179 0.446128 0
0.410269 0.419089 0
0.625132 0.393347 0
0.866331 0.360647 0
1 0.274525 0
0 0.59855 0
0 0.613825 0
0 0.626825 0
0 0.625467 0
0.0684672 0.610346 0
0.309529 0.580789 0
0.540841 0.552346 0
0.781628 0.522637 0
1 0.442054 0
0 0.761486 0
0 0.779553 0
0 0.794125 0
0 0.79678 0
0 0.786603 0
0.168322 0.764569 0
0.42826 0.731884 0
0.684657 0.700816 0
1 0.626352 0
0 1 0
0 1 0
0 1 0
0 1 0
0 1 0
0 1 0
0.103105 1 0
0.408408 0.969253 0
0.867964 0.90753 0
0 0.0135958 0.27129
0 0.0119631 0.271839
0 0.00512703 0.280568
0.127718 0 0.339757
0.421881 0 0.219821
0.599039 0 0.173648
0.794293 0 0.127031
1 0 0.0753033
1 0 0
0 0.0467079 0.248844
0 0.0431067 0.246342
0 0.0385595 0.246632
0.132998 0.00440986 0.302647
0.407797 0 0.203876
0.593988 0 0.167666
0.800137 0 0.129717
1 0 0.0848096
1 0 0
0 0.0895399 0.215442
0 0.0880903 0.218433
0.0200504 0.0873579 0.220386
0.152956 0.0677043 0.267247
0.403906 0.0278782 0.200702
0.599496 0.00280766 0.174182
0.812589 0 0.143267
1 0 0.102022
1 0 0.00531014
0 0.175097 0.175006
0 0.183291 0.182437
0.0123598 0.188327 0.186786
0.168582 0.174289 0.170443
0.351781 0.153338 0.149783
0.548455 0.128893 0.125719
0.763165 0.0999313 0.0979171
1 0.062501 0.0610819
1 0 0
0 0.29958 0.151354
0 0.31014 0.157656
0 0.318715 0.158846
0.0840772 0.312367 0.127398
0.282841 0.290837 0.0819715
0.480415 0.267948 0.0603189
0.694896 0.240269 0.0339055
0.938155 0.205844 0.000381476
1 0.115282 0
0 0.43827 0.106249
0 0.451194 0.110399
0 0.461936 0.109941
0 0.458747 0.0790112
0.180728 0.44358 0.0186313
0.406043 0.415442 0
0.620523 0.38967 0
0.86273 0.357702 0
1 0.272312 0
0 0.588098 0.0470588
0 0.602899 0.0505531
0 0.615793 0.0506447
0 0.615503 0.0231174
0.0670634 0.605402 0
0.301747 0.579538 0
0.537972 0.550271 0
0.779065 0.520882 0
1 0.441199 0
0 0.752346 0
0 0.770077 0
0 0.784466 0
0 0.788006 0
0 0.780529 0
0.160845 0.763851 0
0.424369 0.73196 0
0.684047 0.700648 0
1 0.626993 0
0 0.993744 0
0 1 0
0 1 0
0 1 0
0 1 0
0 1 0
0.0997177 1 0
0.410468 0.975479 0
0.87686 0.918853 0
0 0.0197147 0.431785
0 0.0175479 0.43061
0 0.0124666 0.429816
0.0213016 0 0.461524
0.195224 0 0.533303
0.566751 0 0.405447
0.778576 0 0.314748
1 0 0.263416
1 0 0.159152
0 0.0520027 0.407813
0 0.049012 0.405905
0 0.0449836 0.403555
0.0317693 0.0243992 0.428458
0.207584 0 0.507256
0.573144 0 0.38291
0.788159 0 0.321721
1 0 0.277195
1 0 0.179065
0 0.0942397 0.37554
0 0.0948501 0.380102
0 0.0960555 0.383719
0.061738 0.0878157 0.400656
0.240635 0.0553445 0.486809
0.587762 0 0.373526
0.80209 0 0.336629
1 0 0.295354
1 0 0.198901
0 0.180224 0.320882
0 0.189075 0.330846
0 0.194553 0.338674
0.106111 0.184237 0.335119
0.261051 0.164187 0.391897
0.539117 0.120577 0.319631
0.753704 0.0917983 0.291447
0.999619 0.0546731 0.254795
1 0 0.162799
0 0.296178 0.295766
0 0.30576 0.305058
0 0.312688 0.31133
0.0921492 0.301122 0.29839
0.273793 0.28278 0.276738
0.471763 0.259922 0.25388
0.685847 0.232715 0.227085
0.929152 0.198474 0.194141
1 0.108431 0.105959
0 0.426535 0.272969
0 0.438346 0.282124
0 0.447562 0.287694
0.013611 0.442191 0.270893
0.183047 0.431159 0.230198
0.398016 0.408179 0.181735
0.61236 0.382696 0.157137
0.854688 0.350927 0.127047
1 0.265888 0.0442206
0 0.573144 0.227985
0 0.587488 0.235401
0 0.599588 0.239368
0 0.598856 0.219669
0.0814221 0.590509 0.176745
0.284993 0.574456 0.112551
0.530877 0.543908 0.0792096
0.771939 0.514824 0.052018
1 0.435767 0
0 0.736538 0.162005
0 0.753857 0.168078
0 0.76849 0.171649
0 0.771649 0.153704
0 0.765484 0.112032
0.156008 0.755169 0.0542458
0.411719 0.728084 0
0.677928 0.695155 0
1 0.62266 0
0 0.977523 0
0 0.999969 0
0 1 0
0 1 0
0 1 0
0 1 0
0.0947127 0.999176 0
0.40322 0.977569 0
0.880201 0.925185 0
0 0.0259556 0.606394
0 0.0234836 0.604746
0 0.0185397 0.59997
0 0 0.609583
0.0742962 0 0.664408
0.269505 0 0.74551
0.701762 0 0.638926
0.990295 0 0.467948
1 0 0.36463
0 0.0579843 0.581384
0 0.0552682 0.57995
0 0.0515755 0.577432
0 0.0364385 0.583978
0.0903944 0.00505074 0.642176
0.291859 0 0.733089
0.732387 0 0.624231
1 0 0.486839
1 0 0.388403
0 0.100664 0.550683
0 0.102815 0.556786
0 0.105699 0.562051
0 0.0998245 0.568093
0.129686 0.0818799 0.62594
0.335286 0.0415045 0.724361
0.766445 0 0.606744
1 0 0.505364
1 0 0.408728
0 0.187289 0.494087
0 0.196475 0.506935
0 0.202914 0.51667
0.0345464 0.195361 0.514321
0.162188 0.18674 0.536995
0.357565 0.151202 0.632898
0.740444 0.0819562 0.509529
0.988113 0.0455634 0.464683
1 0 0.372763
0 0.301198 0.450599
0 0.311086 0.46128
0 0.318349 0.469078
0.042359 0.307973 0.461402
0.207828 0.293172 0.454231
0.374395 0.271305 0.514916
0.675608 0.223728 0.436439
0.918669 0.18967 0.403296
1 0.10045 0.315175
0 0.424582 0.424857
0 0.43592 0.435538
0 0.444266 0.443336
0.00846876 0.436454 0.433967
0.192279 0.41915 0.415259
0.388052 0.399405 0.392065
0.603113 0.374289 0.366171
0.845151 0.342916 0.335836
1 0.258579 0.252934
0 0.563012 0.398444
0 0.57641 0.409659
0 0.587304 0.418158
0 0.584314 0.409659
0.105226 0.572503 0.38381
0.288151 0.56112 0.34052
0.522347 0.536217 0.287541
0.763485 0.507576 0.26041
1 0.429129 0.184237
0 0.72221 0.349218
0 0.73846 0.358938
0 0.752789 0.36672
0 0.754864 0.356176
0 0.747738 0.324208
0.17232 0.739284 0.279179
0.394049 0.723308 0.211124
0.671168 0.688701 0.173175
1 0.616693 0.104097
0 0.960311 0.16524
0 0.982406 0.170214
0 0.999481 0.17615
0 1 0.166766
0 1 0.134066
0 0.995972 0.0938125
0.10428 0.990219 0.0411536
0.394491 0.980468 0
0.883314 0.932036 0
0 0.0324712 0.799634
0 0.0299382 0.79704
0 0.0247959 0.790326
0 0.00753796 0.786618
0 0 0.818021
0.133867 0 0.888914
0.352804 0 0.981598
0.856291 0 0.889509
1 0 0.589578
0 0.0644999 0.773831
0 0.062089 0.773068
0 0.0587167 0.770321
0 0.0453498 0.768902
0 0.0235599 0.802838
0.159579 0 0.881773
0.388327 0 0.985367
0.915312 0 0.883467
1 0 0.617914
0 0.10811 0.744305
0 0.111452 0.75201
0 0.115908 0.758785
0 0.110979 0.761669
0.0334783 0.100832 0.794049
0.206943 0.0718395 0.875349
0.436286 0.0232853 0.982437
0.960693 0 0.866041
1 0 0.638941
0 0.195377 0.688914
0 0.205386 0.702571
0 0.21268 0.712505
0 0.206897 0.710948
0.0800641 0.200473 0.720226
0.235981 0.179919 0.785443
0.460319 0.134432 0.89369
0.951522 0.0352789 0.757031
1 0 0.602533
0 0.30808 0.63415
0 0.318456 0.647211
0 0.325826 0.657923
0 0.316793 0.655467
0.129473 0.30515 0.649882
0.26688 0.295598 0.673136
0.47892 0.256718 0.776349
0.905455 0.178912 0.637491
1 0.0906844 0.544091
0 0.429374 0.59173
0 0.440803 0.603357
0 0.44976 0.61239
0 0.442573 0.605692
0.138247 0.426429 0.59295
0.316243 0.410269 0.584604
0.497887 0.386587 0.650065
0.833829 0.333211 0.56376
1 0.249516 0.480949
0 0.561715 0.561471
0 0.574777 0.574182
0 0.585336 0.584085
0 0.581201 0.578744
0.100618 0.565866 0.561746
0.298466 0.548028 0.542062
0.511467 0.526772 0.516594
0.753368 0.498695 0.487541
1 0.420691 0.411246
0 0.713054 0.52874
0 0.728618 0.541726
0 0.742031 0.553094
0 0.74226 0.550088
0.00914015 0.731472 0.531945
0.198947 0.720058 0.504997
0.39942 0.708659 0.458686
0.662043 0.680812 0.399542
1 0.610437 0.331746
0 0.943267 0.371237
0 0.96524 0.379675
0 0.981811 0.388998
0 0.987701 0.384634
0 0.98204 0.359792
0 0.976822 0.327001
0.131258 0.976303 0.288899
0.393317 0.980636 0.238544
0.889418 0.938643 0.177951
0 0.0401465 1
0 0.0373846 1
0 0.0320745 1
0 0.0155642 1
0 0 1
0.00215152 0 1
0.195438 0 1
0.451164 0 1
1 0 0.946456
0 0.0720531 1
0 0.0700999 1
0 0.0673533 1
0 0.0543679 1
0 0.0381933 1
0.0283207 0.011902 1
0.229969 0 1
0.501991 0 1
1 0 0.95761
0 0.117082 0.980438
0 0.121553 0.992844
0 0.127184 1
0 0.122942 1
0 0.115923 1
0.0802625 0.0969253 1
0.280217 0.0590524 1
0.551751 0 1
1 0 0.957336
0 0.205219 0.918685
0 0.215793 0.936507
0 0.224018 0.947417
0 0.219242 0.944198
0 0.212833 0.946075
0.123613 0.201053 0.980468
0.312535 0.168505 1
0.57583 0.111101 1
1 0 0.883024
0 0.315648 0.855009
0 0.326238 0.871534
0 0.334493 0.883604
0 0.327688 0.880903
0.0374609 0.317861 0.875395
0.173083 0.310643 0.882948
0.341329 0.288594 0.950362
0.594644 0.236164 1
1 0.0780652 0.805295
0 0.43653 0.795743
0 0.447929 0.810224
0 0.457511 0.822065
0 0.450904 0.820081
0.0606241 0.436164 0.813428
0.227283 0.423468 0.806073
0.377203 0.413626 0.830442
0.61445 0.369299 0.944762
1 0.237781 0.73962
0 0.566354 0.748806
0 0.579599 0.763119
0 0.590585 0.774166
0 0.587121 0.770001
0.0446937 0.572473 0.755352
0.237476 0.556039 0.742428
0.432151 0.538842 0.733806
0.635386 0.512444 0.805341
1 0.410086 0.667659
0 0.711559 0.710994
0 0.727214 0.725902
0 0.740353 0.738323
0 0.740124 0.736996
0 0.727489 0.722728
0.194568 0.712352 0.705974
0.411658 0.693553 0.685298
0.649989 0.670481 0.65713
1 0.60206 0.587884
0 0.929458 0.580972
0 0.950652 0.59324
0 0.966766 0.606271
0 0.971313 0.607614
0 0.963821 0.592798
0 0.957015 0.573129
0.168154 0.958328 0.552331
0.419577 0.971588 0.524529
0.894957 0.944793 0.45034
0 0.0522469 1
0 0.0493019 1
0 0.0439612 1
0 0.0274815 1
0 0.00762951 1
0 0 1
0 0 1
0.156374 0 1
0.635096 0 1
0 0.0842603 1
0 0.0828107 1
0 0.0806897 1
0 0.06804 1
0 0.0547951 1
0 0.0392615 1
0 0.0131075 1
0.201419 0 1
0.697093 0 1
0 0.131044 1
0 0.13695 1
0 0.143481 1
0 0.139467 1
0 0.133272 1
0 0.122545 1
0.0325017 0.100389 1
0.254276 0.0565194 1
0.748531 0 1
0 0.219883 1
0 0.231159 1
0 0.240284 1
0 0.23624 1
0 0.22948 1
0 0.221775 1
0.0808576 0.205066 1
0.290394 0.167285 1
0.772213 0.0365606 1
0 0.327077 1
0 0.338613 1
0 0.348074 1
0 0.343679 1
0 0.334997 1
0 0.327871 1
0.133806 0.317693 1
0.325963 0.288548 1
0.788449 0.166537 1
0 0.445029 1
0 0.456794 1
0 0.467033 1
0 0.462516 1
0 0.451179 1
0.0459907 0.441306 1
0.196948 0.433738 1
0.368795 0.415686 1
0.806256 0.305135 1
0 0.573449 1
0 0.587335 1
0 0.598871 1
0 0.596109 1
0 0.582605 1
0.0807355 0.569177 1
0.259327 0.557198 1
0.426108 0.547768 1
0.824216 0.454673 1
0 0.7149 1
0 0.731258 1
0 0.744625 1
0 0.745525 1
0 0.733715 1
0.0763561 0.720058 1
0.285145 0.703029 1
0.495918 0.687022 1
0.842466 0.622889 1
0 0.91751 0.910338
0 0.937896 0.931441
0 0.953536 0.947677
0 0.957122 0.950072
0 0.947982 0.939788
0 0.940108 0.927581
0.172961 0.939666 0.922225
0.451164 0.948653 0.925582
0.881041 0.935088 0.900725
