img_LUT_test/True_Colors_8.C0054.cube
TITLE "Generated by Resolve"
LUT_3D_SIZE 5
0 0 0
0.136492 0 0
0.445411 0 0
0.813214 0 0
1 0 0
0 0.0943008 0
0.0803998 0.0824598 0
0.410651 0.0332341 0
0.816693 0 0
1 0 0
0 0.313558 0
0 0.333455 0
0.284657 0.291493 0
0.695354 0.239933 0
1 0.11371 0
0 0.599329 0
0 0.626749 0
0.0682536 0.602792 0
0.533669 0.5449 0
1 0.434211 0
0 0.999191 0
0 1 0
0 1 0
0.10042 0.989685 0
0.840986 0.88513 0
0 0.00769055 0.125811
0.0660563 0 0.165209
0.436271 0 0.057496
0.806668 0 0
1 0 0
0 0.0867475 0.0867475
0.0771801 0.0798962 0.0781109
0.411765 0.0344549 0.0336461
0.820005 0 0
1 0 0
0 0.310292 0.00653086
0 0.331823 0
0.28867 0.295689 0
0.700359 0.244724 0
1 0.118685 0
0 0.59855 0
0 0.626825 0
0.0684672 0.610346 0
0.540841 0.552346 0
1 0.442054 0
0 1 0
0 1 0
0 1 0
0.103105 1 0
0.867964 0.90753 0
0 0.0197147 0.431785
0 0.0124666 0.429816
0.195224 0 0.533303
0.778576 0 0.314748
1 0 0.159152
0 0.0942397 0.37554
0 0.0960555 0.383719
0.240635 0.0553445 0.486809
0.80209 0 0.336629
1 0 0.198901
0 0.296178 0.295766
0 0.312688 0.31133
0.273793 0.28278 0.276738
0.685847 0.232715 0.227085
1 0.108431 0.105959
0 0.573144 0.227985
0 0.599588 0.239368
0.0814221 0.590509 0.176745
0.530877 0.543908 0.0792096
1 0.435767 0
0 0.977523 0
0 1 0
0 1 0
0.0947127 0.999176 0
0.880201 0.925185 0
0 0.0324712 0.799634
0 0.0247959 0.790326
0 0 0.818021
0.352804 0 0.981598
1 0 0.589578
0 0.10811 0.744305
0 0.115908 0.758785
0.0334783 0.100832 0.794049
0.436286 0.0232853 0.982437
1 0 0.638941
0 0.30808 0.63415
0 0.325826 0.657923
0.129473 0.30515 0.649882
0.47892 0.256718 0.776349
1 0.0906844 0.544091
0 0.561715 0.561471
0 0.585336 0.584085
0.100618 0.565866 0.561746
0.511467 0.526772 0.516594
1 0.420691 0.411246
0 0.943267 0.371237
0 0.981811 0.388998
0 0.98204 0.359792
0.131258 0.976303 0.288899
0.889418 0.938643 0.177951
0 0.0522469 1
0 0.0439612 1
0 0.00762951 1
0 0 1
0.635096 0 1
0 0.131044 1
0 0.143481 1
0 0.133272 1
0.0325017 0.100389 1
0.748531 0 1
0 0.327077 1
0 0.348074 1
0 0.334997 1
0.133806 0.317693 1
0.788449 0.166537 1
0 0.573449 1
0 0.598871 1
0 0.582605 1
0.259327 0.557198 1
0.824216 0.454673 1
0 0.91751 0.910338
0 0.953536 0.947677
0 0.947982 0.939788
0.172961 0.939666 0.922225
0.881041 0.935088 0.900725
